; generated by Slic3r 1.2.9 on 2018-12-20 at 23:58:52

; external perimeters extrusion width = 0.40mm
; perimeters extrusion width = 0.56mm
; infill extrusion width = 0.56mm
; solid infill extrusion width = 0.56mm
; top infill extrusion width = 0.56mm

M107 ; disable fan
G28 ; home all axes
G21 ; set units to millimeters
G90 ; use absolute coordinates
M82 ; use absolute distances for extrusion
G92 E0 ; reset extrusion distance
G1 E-0.50000 F420.00000 ; retract
G92 E0 ; reset extrusion distance
G1 Z0.250 F6000.000 ; move to next layer (0)
G1 X87.606 Y76.346 F6000.000 ; move to first skirt point
G1 E0.50000 F420.00000 ; unretract
G1 X89.441 Y75.006 E0.54039 F1800.000 ; skirt
G1 X92.300 Y74.344 E0.59256 ; skirt
G1 X97.700 Y74.344 E0.68856 ; skirt
G1 X99.937 Y74.741 E0.72895 ; skirt
G1 X101.901 Y75.883 E0.76934 F1800.000 ; skirt
G1 X103.692 Y78.322 E0.82314 ; skirt
G1 X114.272 Y103.442 E1.30771 ; skirt
G1 X114.591 Y104.317 E1.32427 ; skirt
G1 X114.784 Y104.943 E1.33592 ; skirt
G1 X115.047 Y106.012 E1.35548 ; skirt
G1 X115.214 Y106.954 E1.37249 ; skirt
G1 X115.273 Y107.421 E1.38086 ; skirt
G1 X115.363 Y108.597 E1.40182 ; skirt
G1 X115.366 Y109.475 E1.41743 ; skirt
G1 X115.323 Y110.352 E1.43304 ; skirt
G1 X115.255 Y111.057 E1.44563 ; skirt
G1 X115.184 Y111.523 E1.45401 ; skirt
G1 X114.998 Y112.507 E1.47181 ; skirt
G1 X114.789 Y113.318 E1.48671 ; skirt
G1 X114.389 Y114.539 E1.50954 ; skirt
G1 X114.047 Y115.380 E1.52569 ; skirt
G1 X113.520 Y116.453 E1.54694 ; skirt
G1 X113.089 Y117.202 E1.56229 ; skirt
G1 X112.445 Y118.166 E1.58292 ; skirt
G1 X111.927 Y118.841 E1.59804 ; skirt
G1 X111.162 Y119.714 E1.61867 ; skirt
G1 X110.783 Y120.111 E1.62844 ; skirt
G1 X110.224 Y120.630 E1.64199 ; skirt
G1 X109.594 Y121.161 E1.65664 ; skirt
G1 X109.224 Y121.451 E1.66501 ; skirt
G1 X108.498 Y121.961 E1.68077 ; skirt
G1 X107.499 Y122.572 E1.70158 ; skirt
G1 X106.983 Y122.847 E1.71199 ; skirt
G1 X106.077 Y123.273 E1.72979 ; skirt
G1 X104.976 Y123.697 E1.75076 ; skirt
G1 X104.138 Y123.958 E1.76636 ; skirt
G1 X103.682 Y124.075 E1.77473 ; skirt
G1 X102.868 Y124.253 E1.78954 ; skirt
G1 X102.126 Y124.379 E1.80293 ; skirt
G1 X100.703 Y124.506 E1.82832 ; skirt
G1 X99.882 Y124.517 E1.84292 ; skirt
G1 X98.599 Y124.453 E1.86575 ; skirt
G1 X97.681 Y124.342 E1.88220 ; skirt
G1 X96.464 Y124.106 E1.90424 ; skirt
G1 X95.614 Y123.880 E1.91988 ; skirt
G1 X94.515 Y123.507 E1.94051 ; skirt
G1 X93.729 Y123.181 E1.95563 ; skirt
G1 X92.688 Y122.668 E1.97626 ; skirt
G1 X91.969 Y122.263 E1.99093 ; skirt
G1 X90.898 Y121.538 E2.01392 ; skirt
G1 X90.521 Y121.256 E2.02230 ; skirt
G1 X89.874 Y120.717 E2.03727 ; skirt
G1 X88.991 Y119.882 E2.05887 ; skirt
G1 X88.339 Y119.169 E2.07605 ; skirt
G1 X87.945 Y118.690 E2.08707 ; skirt
G1 X87.274 Y117.774 E2.10726 ; skirt
G1 X86.779 Y116.996 E2.12365 ; skirt
G1 X86.547 Y116.587 E2.13202 ; skirt
G1 X86.183 Y115.887 E2.14604 ; skirt
G1 X85.850 Y115.162 E2.16022 ; skirt
G1 X85.371 Y113.864 E2.18481 ; skirt
G1 X85.149 Y113.090 E2.19913 ; skirt
G1 X84.872 Y111.836 E2.22196 ; skirt
G1 X84.736 Y110.905 E2.23869 ; skirt
G1 X84.643 Y109.624 E2.26152 ; skirt
G1 X84.626 Y109.174 E2.26952 ; skirt
G1 X84.610 Y104.107 E2.35961 ; skirt
G1 X84.643 Y99.247 E2.44601 ; skirt
G1 X85.810 Y80.444 E2.78093 ; skirt
G1 X86.345 Y78.236 E2.82133 ; skirt
G1 X87.573 Y76.396 E2.86065 ; skirt
G1 E2.36065 F420.00000 ; retract
G92 E0 ; reset extrusion distance
G1 X96.120 Y94.780 F6000.000 ; move to first perimeter point
G1 E0.50000 F420.00000 ; unretract
G1 X95.825 Y95.041 E0.50483 F1500.000 ; perimeter
G1 X95.515 Y95.204 E0.50911 ; perimeter
G1 X95.175 Y95.288 E0.51340 ; perimeter
G1 X94.825 Y95.288 E0.51769 ; perimeter
G1 X94.485 Y95.204 E0.52197 ; perimeter
G1 X94.175 Y95.041 E0.52626 ; perimeter
G1 X93.914 Y94.809 E0.53055 ; perimeter
G1 X93.714 Y94.520 E0.53484 ; perimeter
G1 X93.589 Y94.181 E0.53928 ; perimeter
G1 X93.549 Y93.847 E0.54340 ; perimeter
G1 X93.591 Y93.499 E0.54769 ; perimeter
G1 X93.715 Y93.172 E0.55197 ; perimeter
G1 X93.914 Y92.883 E0.55627 ; perimeter
G1 X94.187 Y92.646 E0.56071 ; perimeter
G1 X94.485 Y92.490 E0.56483 ; perimeter
G1 X94.826 Y92.406 E0.56912 F1500.000 ; perimeter
G1 X95.188 Y92.409 E0.57356 ; perimeter
G1 X95.515 Y92.490 E0.57768 ; perimeter
G1 X95.825 Y92.652 E0.58197 ; perimeter
G1 X96.086 Y92.884 E0.58625 ; perimeter
G1 X96.286 Y93.173 E0.59055 ; perimeter
G1 X96.411 Y93.513 E0.59499 ; perimeter
G1 X96.451 Y93.847 E0.59911 ; perimeter
G1 X96.409 Y94.194 E0.60339 ; perimeter
G1 X96.287 Y94.518 E0.60763 ; perimeter
G1 X96.152 Y94.729 E0.61071 ; perimeter
G1 X96.234 Y95.157 F6000.000 ; move inwards before travel
G1 E0.11071 F420.00000 ; retract
G92 E0 ; reset extrusion distance
G1 X99.036 Y104.928 F6000.000 ; move to first perimeter point
G1 E0.50000 F420.00000 ; unretract
G1 X99.251 Y104.903 E0.50385 F1500.000 ; perimeter
G1 X100.000 Y104.819 E0.51725 F1500.000 ; perimeter
G1 X100.964 Y104.928 E0.53451 ; perimeter
G1 X101.881 Y105.248 E0.55176 ; perimeter
G1 X102.702 Y105.765 E0.56902 ; perimeter
G1 X103.389 Y106.451 E0.58627 ; perimeter
G1 X103.504 Y106.634 E0.59012 ; perimeter
G1 X103.905 Y107.273 E0.60353 ; perimeter
G1 X104.226 Y108.189 E0.62078 ; perimeter
G1 X104.334 Y109.153 E0.63804 ; perimeter
G1 X104.226 Y110.118 E0.65529 ; perimeter
G1 X103.905 Y111.034 E0.67255 ; perimeter
G1 X103.389 Y111.856 E0.68980 ; perimeter
G1 X102.702 Y112.542 E0.70706 ; perimeter
G1 X101.881 Y113.058 E0.72431 ; perimeter
G1 X100.964 Y113.379 E0.74156 ; perimeter
G1 X100.000 Y113.488 E0.75882 ; perimeter
G1 X99.036 Y113.379 E0.77607 ; perimeter
G1 X98.119 Y113.058 E0.79333 ; perimeter
G1 X97.298 Y112.542 E0.81058 ; perimeter
G1 X96.611 Y111.856 E0.82784 ; perimeter
G1 X96.095 Y111.034 E0.84509 ; perimeter
G1 X95.774 Y110.118 E0.86235 ; perimeter
G1 X95.666 Y109.153 E0.87960 ; perimeter
G1 X95.774 Y108.189 E0.89686 ; perimeter
G1 X96.095 Y107.273 E0.91411 ; perimeter
G1 X96.611 Y106.451 E0.93136 ; perimeter
G1 X97.298 Y105.765 E0.94862 ; perimeter
G1 X98.119 Y105.248 E0.96587 ; perimeter
G1 X98.979 Y104.948 E0.98206 ; perimeter
G1 X99.148 Y105.421 F6000.000 ; move to first perimeter point
G1 X99.307 Y105.403 E0.98491 F1500.000 ; perimeter
G1 X100.000 Y105.325 E0.99730 F1500.000 ; perimeter
G1 X100.852 Y105.421 E1.01254 ; perimeter
G1 X101.661 Y105.704 E1.02778 ; perimeter
G1 X102.387 Y106.160 E1.04303 ; perimeter
G1 X102.993 Y106.766 E1.05827 ; perimeter
G1 X103.449 Y107.492 E1.07351 ; perimeter
G1 X103.732 Y108.301 E1.08875 ; perimeter
G1 X103.828 Y109.153 E1.10399 ; perimeter
G1 X103.732 Y110.005 E1.11923 ; perimeter
G1 X103.449 Y110.814 E1.13447 ; perimeter
G1 X102.993 Y111.540 E1.14971 ; perimeter
G1 X102.387 Y112.147 E1.16495 ; perimeter
G1 X101.661 Y112.603 E1.18019 ; perimeter
G1 X100.852 Y112.886 E1.19543 ; perimeter
G1 X100.000 Y112.982 E1.21067 ; perimeter
G1 X99.148 Y112.886 E1.22592 ; perimeter
G1 X98.339 Y112.603 E1.24116 ; perimeter
G1 X97.613 Y112.147 E1.25640 ; perimeter
G1 X97.007 Y111.540 E1.27164 ; perimeter
G1 X96.551 Y110.814 E1.28688 ; perimeter
G1 X96.268 Y110.005 E1.30212 ; perimeter
G1 X96.172 Y109.153 E1.31736 ; perimeter
G1 X96.268 Y108.301 E1.33260 ; perimeter
G1 X96.551 Y107.492 E1.34784 ; perimeter
G1 X97.007 Y106.766 E1.36308 ; perimeter
G1 X97.613 Y106.160 E1.37832 ; perimeter
G1 X98.339 Y105.704 E1.39357 ; perimeter
G1 X99.091 Y105.441 E1.40774 ; perimeter
G1 X99.243 Y105.837 F6000.000 ; move to first perimeter point
G1 X99.355 Y105.825 E1.40911 F1500.000 ; perimeter
G1 X100.000 Y105.752 E1.41707 F1500.000 ; perimeter
G1 X100.757 Y105.837 E1.42640 ; perimeter
G1 X101.476 Y106.089 E1.43573 ; perimeter
G1 X102.121 Y106.494 E1.44506 ; perimeter
G1 X102.659 Y107.033 E1.45439 ; perimeter
G1 X103.064 Y107.678 E1.46372 ; perimeter
G1 X103.316 Y108.396 E1.47305 ; perimeter
G1 X103.401 Y109.153 E1.48238 ; perimeter
G1 X103.316 Y109.910 E1.49171 ; perimeter
G1 X103.064 Y110.629 E1.50104 ; perimeter
G1 X102.659 Y111.274 E1.51037 ; perimeter
G1 X102.121 Y111.813 E1.51970 ; perimeter
G1 X101.476 Y112.218 E1.52903 ; perimeter
G1 X100.757 Y112.469 E1.53836 ; perimeter
G1 X100.000 Y112.555 E1.54769 ; perimeter
G1 X99.243 Y112.469 E1.55702 ; perimeter
G1 X98.524 Y112.218 E1.56635 ; perimeter
G1 X97.879 Y111.813 E1.57568 ; perimeter
G1 X97.341 Y111.274 E1.58501 ; perimeter
G1 X96.936 Y110.629 E1.59434 ; perimeter
G1 X96.684 Y109.910 E1.60367 ; perimeter
G1 X96.599 Y109.153 E1.61300 ; perimeter
G1 X96.684 Y108.396 E1.62232 ; perimeter
G1 X96.936 Y107.678 E1.63165 ; perimeter
G1 X97.341 Y107.033 E1.64098 ; perimeter
G1 X97.879 Y106.494 E1.65031 ; perimeter
G1 X98.524 Y106.089 E1.65964 ; perimeter
G1 X99.187 Y105.857 E1.66824 ; perimeter
G1 X99.280 Y105.732 F6000.000 ; move inwards before travel
G1 E1.16824 F420.00000 ; retract
G92 E0 ; reset extrusion distance
G1 X97.748 Y101.551 F6000.000 ; move to first perimeter point
G1 E0.50000 F420.00000 ; unretract
G1 X99.735 Y101.415 E0.53542 F2100.000 ; perimeter
G1 X100.603 Y101.434 E0.55085 ; perimeter
G1 X101.001 Y101.475 E0.55796 ; perimeter
G1 X101.710 Y101.601 E0.57077 ; perimeter
G1 X101.987 Y101.669 E0.57584 ; perimeter
G1 X102.758 Y101.919 E0.59026 ; perimeter
G1 X103.784 Y102.400 E0.61039 ; perimeter
G1 X104.716 Y103.014 E0.63022 ; perimeter
G1 X105.474 Y103.679 E0.64816 ; perimeter
G1 X106.142 Y104.440 E0.66616 ; perimeter
G1 X106.718 Y105.303 E0.68461 ; perimeter
G1 X106.861 Y105.562 E0.68987 ; perimeter
G1 X107.157 Y106.198 E0.70234 ; perimeter
G1 X107.310 Y106.598 E0.70995 ; perimeter
G1 X107.480 Y107.150 E0.72021 ; perimeter
G1 X107.604 Y107.688 E0.73003 ; perimeter
G1 X107.676 Y108.136 E0.73809 ; perimeter
G1 X107.736 Y108.809 E0.75011 ; perimeter
G1 X107.743 Y109.138 E0.75597 ; perimeter
G1 X107.704 Y109.937 E0.77019 ; perimeter
G1 X107.515 Y111.014 E0.78962 ; perimeter
G1 X107.163 Y112.090 E0.80975 ; perimeter
G1 X106.704 Y113.025 E0.82827 ; perimeter
G1 X106.142 Y113.866 E0.84625 ; perimeter
G1 X105.457 Y114.647 E0.86472 ; perimeter
G1 X104.705 Y115.304 E0.88246 ; perimeter
G1 X104.395 Y115.529 E0.88928 ; perimeter
G1 X103.869 Y115.861 E0.90034 ; perimeter
G1 X103.421 Y116.100 E0.90936 ; perimeter
G1 X102.967 Y116.306 E0.91822 ; perimeter
G1 X102.375 Y116.524 E0.92944 ; perimeter
G1 X102.016 Y116.630 E0.93609 ; perimeter
G1 X101.031 Y116.828 E0.95396 ; perimeter
G1 X100.188 Y116.893 E0.96898 ; perimeter
G1 X99.057 Y116.837 E0.98911 ; perimeter
G1 X97.994 Y116.630 E1.00837 ; perimeter
G1 X97.037 Y116.306 E1.02633 ; perimeter
G1 X96.104 Y115.846 E1.04482 ; perimeter
G1 X95.275 Y115.288 E1.06259 ; perimeter
G1 X95.011 Y115.075 E1.06862 ; perimeter
G1 X94.520 Y114.624 E1.08047 ; perimeter
G1 X94.203 Y114.287 E1.08870 ; perimeter
G1 X93.858 Y113.868 E1.09834 ; perimeter
G1 X93.518 Y113.390 E1.10878 ; perimeter
G1 X93.299 Y113.033 E1.11622 ; perimeter
G1 X92.971 Y112.402 E1.12886 ; perimeter
G1 X92.853 Y112.132 E1.13410 ; perimeter
G1 X92.584 Y111.377 E1.14835 ; perimeter
G1 X92.340 Y110.271 E1.16848 ; perimeter
G1 X92.256 Y109.111 E1.18917 ; perimeter
G1 X92.240 Y104.087 E1.27848 ; perimeter
G1 X92.258 Y100.161 E1.34827 ; perimeter
G1 X92.458 Y99.984 E1.35302 ; perimeter
G1 X93.427 Y99.230 E1.37485 ; perimeter
G1 X93.427 Y95.696 E1.43769 ; perimeter
G1 X94.154 Y96.077 E1.45228 ; perimeter
G1 X94.712 Y96.215 E1.46251 ; perimeter
G1 X95.288 Y96.215 E1.47273 ; perimeter
G1 X95.846 Y96.077 E1.48295 ; perimeter
G1 X96.573 Y95.696 E1.49755 ; perimeter
G1 X96.573 Y97.677 E1.53277 ; perimeter
G1 X97.756 Y97.491 E1.55406 ; perimeter
G1 X97.748 Y101.491 E1.62518 ; perimeter
G1 X98.251 Y101.012 F6000.000 ; move to first perimeter point
G1 X99.723 Y100.912 E1.65141 F2100.000 ; perimeter
G1 X100.635 Y100.931 E1.66761 ; perimeter
G1 X101.071 Y100.977 E1.67541 ; perimeter
G1 X101.814 Y101.109 E1.68883 ; perimeter
G1 X102.125 Y101.185 E1.69452 ; perimeter
G1 X102.943 Y101.451 E1.70982 ; perimeter
G1 X104.030 Y101.960 E1.73115 ; perimeter
G1 X105.021 Y102.613 E1.75225 ; perimeter
G1 X105.830 Y103.323 E1.77139 ; perimeter
G1 X106.542 Y104.134 E1.79056 ; perimeter
G1 X107.148 Y105.042 E1.80998 ; perimeter
G1 X107.309 Y105.335 E1.81592 ; perimeter
G1 X107.620 Y106.002 E1.82901 ; perimeter
G1 X107.785 Y106.434 E1.83723 ; perimeter
G1 X107.965 Y107.019 E1.84812 ; perimeter
G1 X108.097 Y107.591 E1.85855 ; perimeter
G1 X108.175 Y108.073 E1.86722 ; perimeter
G1 X108.238 Y108.781 E1.87986 ; perimeter
G1 X108.246 Y109.145 E1.88633 ; perimeter
G1 X108.178 Y110.217 E1.90543 ; perimeter
G1 X108.003 Y111.139 E1.92212 ; perimeter
G1 X107.629 Y112.280 E1.94346 ; perimeter
G1 X107.140 Y113.277 E1.96319 ; perimeter
G1 X106.542 Y114.173 E1.98235 ; perimeter
G1 X105.821 Y114.995 E2.00179 ; perimeter
G1 X105.612 Y115.196 E2.00695 ; perimeter
G1 X105.015 Y115.699 E2.02083 ; perimeter
G1 X104.677 Y115.945 E2.02826 ; perimeter
G1 X104.121 Y116.296 E2.03993 ; perimeter
G1 X103.643 Y116.551 E2.04957 ; perimeter
G1 X103.158 Y116.771 E2.05904 ; perimeter
G1 X102.533 Y117.001 E2.07089 ; perimeter
G1 X102.141 Y117.117 E2.07815 ; perimeter
G1 X101.369 Y117.285 E2.09220 ; perimeter
G1 X101.087 Y117.328 E2.09726 ; perimeter
G1 X100.195 Y117.397 E2.11317 ; perimeter
G1 X98.996 Y117.337 E2.13451 ; perimeter
G1 X97.865 Y117.117 E2.15500 ; perimeter
G1 X96.845 Y116.771 E2.17415 ; perimeter
G1 X95.864 Y116.287 E2.19360 ; perimeter
G1 X94.974 Y115.691 E2.21265 ; perimeter
G1 X94.683 Y115.456 E2.21929 ; perimeter
G1 X94.166 Y114.982 E2.23175 ; perimeter
G1 X93.825 Y114.619 E2.24060 ; perimeter
G1 X93.458 Y114.174 E2.25086 ; perimeter
G1 X93.098 Y113.667 E2.26191 ; perimeter
G1 X92.861 Y113.281 E2.26997 ; perimeter
G1 X92.517 Y112.619 E2.28323 ; perimeter
G1 X92.385 Y112.318 E2.28908 ; perimeter
G1 X92.100 Y111.516 E2.30421 ; perimeter
G1 X91.841 Y110.344 E2.32555 ; perimeter
G1 X91.753 Y109.130 E2.34719 ; perimeter
G1 X91.737 Y104.087 E2.43684 ; perimeter
G1 X91.756 Y99.933 E2.51068 ; perimeter
G1 X92.137 Y99.597 E2.51972 ; perimeter
G1 X92.924 Y98.984 E2.53745 ; perimeter
G1 X92.924 Y94.324 E2.62030 ; perimeter
G1 X93.173 Y94.280 E2.62479 ; perimeter
G1 X93.334 Y94.717 E2.63309 ; perimeter
G1 X93.593 Y95.093 E2.64120 ; perimeter
G1 X93.933 Y95.393 E2.64925 ; perimeter
G1 X94.334 Y95.604 E2.65730 ; perimeter
G1 X94.773 Y95.712 E2.66536 ; perimeter
G1 X95.226 Y95.712 E2.67341 ; perimeter
G1 X95.666 Y95.604 E2.68146 ; perimeter
G1 X96.067 Y95.393 E2.68952 ; perimeter
G1 X96.446 Y95.058 E2.69850 ; perimeter
G1 X96.668 Y94.709 E2.70586 ; perimeter
G1 X96.828 Y94.286 E2.71389 ; perimeter
G1 X97.076 Y94.332 E2.71836 ; perimeter
G1 X97.076 Y97.089 E2.76738 ; perimeter
G1 X98.260 Y96.902 E2.78869 ; perimeter
G1 X98.251 Y100.952 E2.86069 ; perimeter
G1 E2.36069 F420.00000 ; retract
G92 E0 ; reset extrusion distance
G1 X96.573 Y91.998 F6000.000 ; move to first perimeter point
G1 E0.50000 F420.00000 ; unretract
G1 X95.846 Y91.616 E0.51460 F1500.000 ; perimeter
G1 X95.305 Y91.483 E0.52450 ; perimeter
G1 X94.718 Y91.477 E0.53494 ; perimeter
G1 X94.154 Y91.616 E0.54526 ; perimeter
G1 X93.427 Y91.998 E0.55986 ; perimeter
G1 X93.427 Y85.696 E0.67190 ; perimeter
G1 X94.154 Y86.077 E0.68649 ; perimeter
G1 X94.712 Y86.215 E0.69672 ; perimeter
G1 X95.288 Y86.215 E0.70694 ; perimeter
G1 X95.846 Y86.077 E0.71716 ; perimeter
G1 X96.573 Y85.696 E0.73176 ; perimeter
G1 X96.573 Y91.938 E0.84273 ; perimeter
G1 X96.827 Y93.414 F6000.000 ; move to first perimeter point
G1 X96.666 Y92.976 E0.85103 F1500.000 ; perimeter
G1 X96.407 Y92.601 E0.85913 ; perimeter
G1 X96.067 Y92.300 E0.86719 ; perimeter
G1 X95.666 Y92.090 E0.87524 ; perimeter
G1 X95.242 Y91.985 E0.88302 ; perimeter
G1 X94.776 Y91.981 E0.89129 ; perimeter
G1 X94.334 Y92.090 E0.89939 ; perimeter
G1 X93.946 Y92.293 E0.90717 ; perimeter
G1 X93.595 Y92.598 E0.91544 ; perimeter
G1 X93.336 Y92.973 E0.92355 ; perimeter
G1 X93.172 Y93.407 E0.93179 ; perimeter
G1 X92.924 Y93.362 E0.93626 ; perimeter
G1 X92.924 Y84.324 E1.09693 ; perimeter
G1 X93.173 Y84.280 E1.10142 ; perimeter
G1 X93.334 Y84.717 E1.10972 ; perimeter
G1 X93.593 Y85.093 E1.11783 ; perimeter
G1 X93.933 Y85.393 E1.12588 ; perimeter
G1 X94.334 Y85.604 E1.13393 ; perimeter
G1 X94.774 Y85.712 E1.14199 ; perimeter
