; generated by Slic3r 1.3.0 on 2019-10-30 at 12:17:05

; external perimeters extrusion width = 0.44mm (3.38mm^3/s)
; perimeters extrusion width = 0.56mm (8.80mm^3/s)
; infill extrusion width = 0.50mm (10.04mm^3/s)
; solid infill extrusion width = 0.56mm (11.31mm^3/s)
; top infill extrusion width = 0.56mm (6.28mm^3/s)

G28 ; home all axes
; Filament gcode

G21 ; set units to millimeters
G90 ; use absolute coordinates
M82 ; use absolute distances for extrusion
G92 E0 ; reset extrusion distance
G1 E-0.50000 F420.00000 ; retract extruder 0
G92 E0 ; reset extrusion distance
G1 Z0.250 F6000.000 ; move to next layer (0)
G1 X93.037 Y82.157 F6000.000 ; move to first skirt point
G1 E0.50000 F420.00000 ; unretract extruder 0
G1 F1800
G1 X93.941 Y81.127 E0.52436 ; skirt
G1 X94.542 Y80.526 E0.53948 ; skirt
G1 X95.572 Y79.622 E0.56384 ; skirt
G1 X96.247 Y79.104 E0.57896 ; skirt
G1 X97.387 Y78.343 E0.60332 ; skirt
G1 X98.123 Y77.918 E0.61844 ; skirt
G1 X99.352 Y77.312 E0.64280 ; skirt
G1 X100.138 Y76.986 E0.65792 ; skirt
G1 X101.435 Y76.546 E0.68228 ; skirt
G1 X102.257 Y76.326 E0.69741 ; skirt
G1 X103.601 Y76.058 E0.72177 ; skirt
G1 X104.149 Y75.974 E0.73163 ; skirt
G1 X104.988 Y75.894 E0.74661 ; skirt
G1 X106.385 Y75.846 E0.77145 ; skirt
G1 X107.287 Y75.880 E0.78750 ; skirt
G1 X108.618 Y76.013 E0.81128 ; skirt
G1 X109.566 Y76.177 E0.82838 ; skirt
G1 X110.809 Y76.473 E0.85110 ; skirt
G1 X111.784 Y76.779 E0.86926 ; skirt
G1 X112.921 Y77.217 E0.89093 ; skirt
G1 X113.900 Y77.675 E0.91015 ; skirt
G1 X114.532 Y78.011 E0.92287 ; skirt
G1 X115.523 Y78.611 E0.94347 ; skirt
G1 X116.409 Y79.231 E0.96269 ; skirt
G1 X117.357 Y79.996 E0.98436 ; skirt
G1 X118.109 Y80.688 E1.00252 ; skirt
G1 X118.988 Y81.616 E1.02524 ; skirt
G1 X119.603 Y82.356 E1.04234 ; skirt
G1 X120.384 Y83.442 E1.06613 ; skirt
G1 X120.865 Y84.206 E1.08217 ; skirt
G1 X121.521 Y85.439 E1.10701 ; skirt
G1 X121.872 Y86.206 E1.12199 ; skirt
G1 X122.378 Y87.572 E1.14789 ; skirt
G1 X122.607 Y88.321 E1.16181 ; skirt
G1 X122.714 Y88.751 E1.16971 ; skirt
G1 X122.938 Y89.800 E1.18878 ; skirt
G1 X123.055 Y90.568 E1.20258 ; skirt
G1 X123.185 Y91.992 E1.22800 ; skirt
G1 X123.205 Y92.879 E1.24378 ; skirt
G1 X123.140 Y94.308 E1.26920 ; skirt
G1 X123.039 Y95.189 E1.28497 ; skirt
G1 X122.838 Y96.285 E1.30477 ; skirt
G1 X122.780 Y96.595 E1.31039 ; skirt
G1 X122.561 Y97.455 E1.32617 ; skirt
G1 X122.113 Y98.813 E1.35159 ; skirt
G1 X121.940 Y99.277 E1.36039 ; skirt
G1 X113.239 Y120.153 E1.76247 ; skirt
G1 X112.012 Y122.066 E1.80286 ; skirt
G1 X110.202 Y123.439 E1.84325 ; skirt
G1 X107.237 Y124.155 E1.89748 ; skirt
G1 X83.289 Y124.155 E2.32322 ; skirt
G1 X81.052 Y123.758 E2.36361 ; skirt
G1 X79.088 Y122.615 E2.40400 ; skirt
G1 X77.637 Y120.867 E2.44439 ; skirt
G1 X76.787 Y117.670 E2.50321 ; skirt
G1 X76.781 Y111.699 E2.60937 ; skirt
G1 X76.782 Y111.581 E2.61146 ; skirt
G1 X77.653 Y108.369 E2.67062 ; skirt
G1 X91.534 Y84.332 E3.16408 ; skirt
G1 X92.520 Y82.832 E3.19599 ; skirt
G1 X93.001 Y82.205 E3.21004 ; skirt
G1 E2.71004 F420.00000 ; retract extruder 0
G92 E0 ; reset extrusion distance
G1 X106.066 Y115.862 F6000.000 ; move to first perimeter point
G1 E0.50000 F420.00000 ; unretract extruder 0
G1 F1500
G1 X105.865 Y116.154 E0.50485 ; perimeter
G1 X105.599 Y116.389 E0.50970 ; perimeter
G1 X105.285 Y116.554 E0.51454 ; perimeter
G1 X104.941 Y116.639 E0.51939 ; perimeter
G1 X104.586 Y116.639 E0.52424 ; perimeter
G1 X104.241 Y116.554 E0.52909 ; perimeter
G1 X103.927 Y116.389 E0.53393 ; perimeter
G1 X103.662 Y116.154 E0.53878 ; perimeter
G1 X103.460 Y115.862 E0.54363 ; perimeter
G1 X103.334 Y115.530 E0.54848 ; perimeter
G1 X103.293 Y115.192 E0.55314 ; perimeter
G1 X103.334 Y114.827 E0.55815 ; perimeter
G1 X103.460 Y114.494 E0.56301 ; perimeter
G1 X103.662 Y114.202 E0.56786 ; perimeter
G1 X103.927 Y113.967 E0.57271 ; perimeter
G1 X104.241 Y113.802 E0.57756 ; perimeter
G1 X104.586 Y113.717 E0.58241 ; perimeter
G1 X104.941 Y113.717 E0.58725 ; perimeter
G1 X105.285 Y113.802 E0.59210 ; perimeter
G1 X105.599 Y113.967 E0.59695 ; perimeter
G1 X105.865 Y114.202 E0.60180 ; perimeter
G1 X106.066 Y114.494 E0.60664 ; perimeter
G1 X106.192 Y114.826 E0.61149 ; perimeter
G1 X106.233 Y115.165 E0.61615 ; perimeter
G1 X106.192 Y115.529 E0.62117 ; perimeter
G1 X106.087 Y115.806 E0.62521 ; perimeter
G1 X106.066 Y115.862 F6000.000 ; move inwards before travel
G1 X106.574 Y116.283 F6000.000 ; move to first perimeter point
G1 F1500
G1 X106.573 Y116.987 E0.63774 ; perimeter
G1 X105.594 Y116.987 E0.65514 ; perimeter
G1 X106.200 Y116.451 E0.66952 ; perimeter
G1 X106.362 Y116.217 E0.67459 ; perimeter
G1 X106.516 Y116.265 E0.67747 ; perimeter
G1 E0.17747 F420.00000 ; retract extruder 0
G92 E0 ; reset extrusion distance
G1 X87.235 Y115.178 F6000.000 ; move to first perimeter point
G1 E0.50000 F420.00000 ; unretract extruder 0
G1 F1500
G1 X87.192 Y115.530 E0.50485 ; perimeter
G1 X87.066 Y115.862 E0.50970 ; perimeter
G1 X86.865 Y116.154 E0.51454 ; perimeter
G1 X86.599 Y116.389 E0.51939 ; perimeter
G1 X86.285 Y116.554 E0.52424 ; perimeter
G1 X85.941 Y116.639 E0.52909 ; perimeter
G1 X85.586 Y116.639 E0.53393 ; perimeter
G1 X85.241 Y116.554 E0.53878 ; perimeter
G1 X84.927 Y116.389 E0.54363 ; perimeter
G1 X84.662 Y116.154 E0.54848 ; perimeter
G1 X84.460 Y115.862 E0.55332 ; perimeter
G1 X84.334 Y115.530 E0.55817 ; perimeter
G1 X84.293 Y115.192 E0.56283 ; perimeter
G1 X84.334 Y114.827 E0.56785 ; perimeter
G1 X84.460 Y114.494 E0.57271 ; perimeter
G1 X84.662 Y114.202 E0.57756 ; perimeter
G1 X84.927 Y113.967 E0.58241 ; perimeter
G1 X85.241 Y113.802 E0.58725 ; perimeter
G1 X85.586 Y113.717 E0.59210 ; perimeter
G1 X85.941 Y113.717 E0.59695 ; perimeter
G1 X86.285 Y113.802 E0.60180 ; perimeter
G1 X86.599 Y113.967 E0.60664 ; perimeter
G1 X86.865 Y114.202 E0.61149 ; perimeter
G1 X87.066 Y114.494 E0.61634 ; perimeter
G1 X87.192 Y114.826 E0.62119 ; perimeter
G1 X87.228 Y115.119 E0.62521 ; perimeter
G1 X87.235 Y115.178 F6000.000 ; move inwards before travel
G1 E0.12521 F420.00000 ; retract extruder 0
G92 E0 ; reset extrusion distance
G1 X84.932 Y116.987 F6000.000 ; move to first perimeter point
G1 E0.50000 F420.00000 ; unretract extruder 0
G1 F1500
G1 X83.953 Y116.987 E0.51740 ; perimeter
G1 X83.953 Y116.283 E0.52993 ; perimeter
G1 X84.165 Y116.217 E0.53387 ; perimeter
G1 X84.326 Y116.451 E0.53894 ; perimeter
G1 X84.887 Y116.948 E0.55225 ; perimeter
G1 E0.05225 F420.00000 ; retract extruder 0
G92 E0 ; reset extrusion distance
G1 X104.800 Y101.095 F6000.000 ; move to first perimeter point
G1 E0.50000 F420.00000 ; unretract extruder 0
G1 F1500
G1 X104.537 Y100.714 E0.50823 ; perimeter
G1 X104.373 Y100.281 E0.51645 ; perimeter
G1 X104.317 Y99.822 E0.52468 ; perimeter
G1 X104.373 Y99.362 E0.53290 ; perimeter
G1 X104.533 Y98.941 E0.54092 ; perimeter
G1 X104.798 Y98.551 E0.54931 ; perimeter
G1 X105.147 Y98.242 E0.55758 ; perimeter
G1 X105.556 Y98.027 E0.56580 ; perimeter
G1 X106.006 Y97.916 E0.57403 ; perimeter
G1 X106.468 Y97.916 E0.58226 ; perimeter
G1 X106.906 Y98.024 E0.59027 ; perimeter
G1 X107.325 Y98.241 E0.59866 ; perimeter
G1 X107.674 Y98.549 E0.60693 ; perimeter
G1 X107.936 Y98.930 E0.61515 ; perimeter
G1 X108.100 Y99.362 E0.62338 ; perimeter
G1 X108.156 Y99.822 E0.63161 ; perimeter
G1 X108.100 Y100.281 E0.63983 ; perimeter
G1 X107.941 Y100.703 E0.64785 ; perimeter
G1 X107.675 Y101.093 E0.65624 ; perimeter
G1 X107.327 Y101.401 E0.66451 ; perimeter
G1 X106.917 Y101.616 E0.67273 ; perimeter
G1 X106.468 Y101.727 E0.68096 ; perimeter
G1 X106.006 Y101.727 E0.68918 ; perimeter
G1 X105.556 Y101.616 E0.69741 ; perimeter
G1 X105.147 Y101.401 E0.70564 ; perimeter
G1 X104.845 Y101.134 E0.71280 ; perimeter
G1 X105.135 Y100.798 F6000.000 ; move to first perimeter point
G1 F1500
G1 X104.934 Y100.506 E0.71764 ; perimeter
G1 X104.808 Y100.174 E0.72249 ; perimeter
G1 X104.765 Y99.822 E0.72734 ; perimeter
G1 X104.808 Y99.470 E0.73219 ; perimeter
G1 X104.930 Y99.147 E0.73689 ; perimeter
G1 X105.135 Y98.846 E0.74187 ; perimeter
G1 X105.401 Y98.611 E0.74673 ; perimeter
G1 X105.715 Y98.446 E0.75157 ; perimeter
G1 X106.059 Y98.361 E0.75642 ; perimeter
G1 X106.414 Y98.361 E0.76127 ; perimeter
G1 X106.749 Y98.443 E0.76598 ; perimeter
G1 X107.072 Y98.610 E0.77095 ; perimeter
G1 X107.338 Y98.846 E0.77581 ; perimeter
G1 X107.540 Y99.138 E0.78065 ; perimeter
G1 X107.666 Y99.470 E0.78550 ; perimeter
G1 X107.708 Y99.822 E0.79035 ; perimeter
G1 X107.666 Y100.174 E0.79520 ; perimeter
G1 X107.544 Y100.496 E0.79991 ; perimeter
G1 X107.339 Y100.797 E0.80488 ; perimeter
G1 X107.073 Y101.033 E0.80974 ; perimeter
G1 X106.759 Y101.198 E0.81458 ; perimeter
G1 X106.414 Y101.283 E0.81943 ; perimeter
G1 X106.059 Y101.283 E0.82428 ; perimeter
G1 X105.715 Y101.198 E0.82913 ; perimeter
G1 X105.401 Y101.033 E0.83398 ; perimeter
G1 X105.180 Y100.837 E0.83800 ; perimeter
G1 X105.135 Y100.798 F6000.000 ; move inwards before travel
G1 E0.33800 F420.00000 ; retract extruder 0
G92 E0 ; reset extrusion distance
G1 X105.674 Y97.457 F6000.000 ; move to first perimeter point
G1 E0.50000 F420.00000 ; unretract extruder 0
G1 F1500
G1 X104.581 Y97.188 E0.52001 ; perimeter
G1 X103.584 Y96.665 E0.54002 ; perimeter
G1 X102.742 Y95.918 E0.56004 ; perimeter
G1 X102.102 Y94.992 E0.58005 ; perimeter
G1 X101.703 Y93.939 E0.60006 ; perimeter
G1 X101.571 Y92.854 E0.61949 ; perimeter
G1 X101.702 Y91.707 E0.64002 ; perimeter
G1 X102.102 Y90.652 E0.66008 ; perimeter
G1 X102.742 Y89.725 E0.68009 ; perimeter
G1 X103.584 Y88.979 E0.70010 ; perimeter
G1 X104.552 Y88.471 E0.71954 ; perimeter
G1 X105.672 Y88.186 E0.74007 ; perimeter
G1 X106.800 Y88.186 E0.76012 ; perimeter
G1 X107.893 Y88.456 E0.78014 ; perimeter
G1 X108.889 Y88.979 E0.80015 ; perimeter
G1 X109.732 Y89.725 E0.82016 ; perimeter
G1 X110.371 Y90.652 E0.84017 ; perimeter
G1 X110.771 Y91.704 E0.86018 ; perimeter
G1 X110.906 Y92.822 E0.88019 ; perimeter
G1 X110.771 Y93.939 E0.90021 ; perimeter
G1 X110.371 Y94.992 E0.92022 ; perimeter
G1 X109.732 Y95.918 E0.94023 ; perimeter
G1 X108.889 Y96.665 E0.96024 ; perimeter
G1 X107.893 Y97.188 E0.98025 ; perimeter
G1 X106.800 Y97.457 E1.00026 ; perimeter
G1 X105.734 Y97.457 E1.01921 ; perimeter
G1 X105.728 Y97.013 F6000.000 ; move to first perimeter point
G1 F1500
G1 X104.740 Y96.769 E1.03312 ; perimeter
G1 X103.839 Y96.296 E1.04702 ; perimeter
G1 X103.077 Y95.621 E1.06093 ; perimeter
G1 X102.499 Y94.784 E1.07484 ; perimeter
G1 X102.138 Y93.832 E1.08874 ; perimeter
G1 X102.019 Y92.853 E1.10223 ; perimeter
G1 X102.138 Y91.812 E1.11653 ; perimeter
G1 X102.499 Y90.860 E1.13045 ; perimeter
G1 X103.077 Y90.022 E1.14436 ; perimeter
G1 X103.839 Y89.347 E1.15826 ; perimeter
G1 X104.712 Y88.889 E1.17175 ; perimeter
G1 X105.727 Y88.631 E1.18605 ; perimeter
G1 X106.746 Y88.631 E1.19997 ; perimeter
G1 X107.734 Y88.875 E1.21388 ; perimeter
G1 X108.635 Y89.347 E1.22778 ; perimeter
G1 X109.397 Y90.022 E1.24169 ; perimeter
G1 X109.975 Y90.860 E1.25560 ; perimeter
G1 X110.336 Y91.811 E1.26950 ; perimeter
G1 X110.458 Y92.822 E1.28341 ; perimeter
G1 X110.336 Y93.832 E1.29732 ; perimeter
G1 X109.975 Y94.784 E1.31122 ; perimeter
G1 X109.397 Y95.621 E1.32513 ; perimeter
G1 X108.635 Y96.296 E1.33903 ; perimeter
G1 X107.734 Y96.769 E1.35294 ; perimeter
G1 X106.746 Y97.013 E1.36685 ; perimeter
G1 X105.788 Y97.013 E1.37993 ; perimeter
G1 X105.728 Y97.013 F6000.000 ; move inwards before travel
G1 E0.87993 F420.00000 ; retract extruder 0
G92 E0 ; reset extrusion distance
G1 X106.006 Y87.727 F6000.000 ; move to first perimeter point
G1 E0.50000 F420.00000 ; unretract extruder 0
G1 F1500
G1 X105.556 Y87.616 E0.50823 ; perimeter
G1 X105.147 Y87.401 E0.51645 ; perimeter
G1 X104.800 Y87.095 E0.52468 ; perimeter
G1 X104.537 Y86.714 E0.53290 ; perimeter
G1 X104.373 Y86.281 E0.54113 ; perimeter
G1 X104.317 Y85.822 E0.54936 ; perimeter
G1 X104.373 Y85.362 E0.55758 ; perimeter
G1 X104.537 Y84.930 E0.56581 ; perimeter
G1 X104.800 Y84.549 E0.57403 ; perimeter
G1 X105.147 Y84.242 E0.58226 ; perimeter
G1 X105.556 Y84.027 E0.59049 ; perimeter
G1 X106.006 Y83.916 E0.59871 ; perimeter
G1 X106.468 Y83.916 E0.60694 ; perimeter
G1 X106.917 Y84.027 E0.61516 ; perimeter
G1 X107.327 Y84.242 E0.62339 ; perimeter
G1 X107.674 Y84.549 E0.63162 ; perimeter
G1 X107.936 Y84.930 E0.63984 ; perimeter
G1 X108.100 Y85.362 E0.64807 ; perimeter
G1 X108.156 Y85.822 E0.65629 ; perimeter
G1 X108.100 Y86.281 E0.66452 ; perimeter
G1 X107.936 Y86.714 E0.67275 ; perimeter
G1 X107.680 Y87.085 E0.68076 ; perimeter
G1 X107.329 Y87.400 E0.68915 ; perimeter
G1 X106.917 Y87.616 E0.69742 ; perimeter
G1 X106.468 Y87.727 E0.70564 ; perimeter
G1 X106.066 Y87.727 E0.71280 ; perimeter
G1 X106.059 Y87.283 F6000.000 ; move to first perimeter point
G1 F1500
G1 X105.715 Y87.198 E0.71765 ; perimeter
G1 X105.401 Y87.033 E0.72250 ; perimeter
G1 X105.135 Y86.798 E0.72735 ; perimeter
G1 X104.934 Y86.506 E0.73219 ; perimeter
G1 X104.808 Y86.174 E0.73704 ; perimeter
G1 X104.765 Y85.822 E0.74189 ; perimeter
G1 X104.808 Y85.470 E0.74674 ; perimeter
G1 X104.934 Y85.138 E0.75159 ; perimeter
G1 X105.135 Y84.846 E0.75643 ; perimeter
G1 X105.401 Y84.611 E0.76128 ; perimeter
G1 X105.715 Y84.446 E0.76613 ; perimeter
G1 X106.059 Y84.361 E0.77098 ; perimeter
G1 X106.414 Y84.361 E0.77582 ; perimeter
G1 X106.759 Y84.446 E0.78067 ; perimeter
G1 X107.073 Y84.611 E0.78552 ; perimeter
G1 X107.338 Y84.846 E0.79037 ; perimeter
G1 X107.540 Y85.138 E0.79521 ; perimeter
G1 X107.666 Y85.470 E0.80006 ; perimeter
G1 X107.708 Y85.822 E0.80491 ; perimeter
G1 X107.666 Y86.174 E0.80976 ; perimeter
G1 X107.540 Y86.506 E0.81461 ; perimeter
G1 X107.344 Y86.789 E0.81931 ; perimeter
G1 X107.074 Y87.033 E0.82429 ; perimeter
G1 X106.759 Y87.198 E0.82914 ; perimeter
G1 X106.414 Y87.283 E0.83399 ; perimeter
G1 X106.119 Y87.283 E0.83802 ; perimeter
G1 X106.059 Y87.283 F6000.000 ; move inwards before travel
G1 X104.908 Y87.862 F6000.000 ; move to first perimeter point
G1 F2100
G1 X104.371 Y87.998 E0.84787 ; perimeter
G1 X103.297 Y88.562 E0.86944 ; perimeter
G1 X102.363 Y89.390 E0.89163 ; perimeter
G1 X101.654 Y90.417 E0.91381 ; perimeter
G1 X101.246 Y91.493 E0.93428 ; perimeter
G1 X101.053 Y91.213 E0.94032 ; perimeter
G1 X100.615 Y90.825 E0.95072 ; perimeter
G1 X100.097 Y90.554 E0.96111 ; perimeter
G1 X99.529 Y90.414 E0.97151 ; perimeter
G1 X98.944 Y90.414 E0.98191 ; perimeter
G1 X98.377 Y90.554 E0.99230 ; perimeter
G1 X97.859 Y90.825 E1.00270 ; perimeter
G1 X97.421 Y91.213 E1.01309 ; perimeter
G1 X97.089 Y91.695 E1.02349 ; perimeter
G1 X96.882 Y92.241 E1.03389 ; perimeter
G1 X96.811 Y92.822 E1.04428 ; perimeter
G1 X96.882 Y93.402 E1.05468 ; perimeter
G1 X97.089 Y93.949 E1.06507 ; perimeter
G1 X97.421 Y94.430 E1.07547 ; perimeter
G1 X97.859 Y94.818 E1.08587 ; perimeter
G1 X98.377 Y95.090 E1.09626 ; perimeter
G1 X98.944 Y95.230 E1.10666 ; perimeter
G1 X99.529 Y95.230 E1.11705 ; perimeter
G1 X100.097 Y95.090 E1.12745 ; perimeter
G1 X100.615 Y94.818 E1.13785 ; perimeter
G1 X101.053 Y94.430 E1.14824 ; perimeter
G1 X101.246 Y94.151 E1.15429 ; perimeter
G1 X101.654 Y95.227 E1.17476 ; perimeter
G1 X102.363 Y96.254 E1.19694 ; perimeter
G1 X103.297 Y97.081 E1.21912 ; perimeter
G1 X104.402 Y97.661 E1.24130 ; perimeter
G1 X104.904 Y97.785 E1.25051 ; perimeter
G1 X104.418 Y98.216 E1.26206 ; perimeter
G1 X104.084 Y98.707 E1.27262 ; perimeter
G1 X103.882 Y99.241 E1.28277 ; perimeter
G1 X103.811 Y99.822 E1.29317 ; perimeter
G1 X103.882 Y100.402 E1.30357 ; perimeter
G1 X104.089 Y100.949 E1.31396 ; perimeter
G1 X104.421 Y101.430 E1.32436 ; perimeter
G1 X104.859 Y101.818 E1.33475 ; perimeter
G1 X105.377 Y102.090 E1.34515 ; perimeter
G1 X105.944 Y102.230 E1.35555 ; perimeter
G1 X106.529 Y102.230 E1.36594 ; perimeter
G1 X107.097 Y102.090 E1.37634 ; perimeter
G1 X107.615 Y101.818 E1.38673 ; perimeter
G1 X108.056 Y101.428 E1.39721 ; perimeter
G1 X108.390 Y100.936 E1.40777 ; perimeter
G1 X108.592 Y100.402 E1.41792 ; perimeter
G1 X108.663 Y99.822 E1.42831 ; perimeter
G1 X108.592 Y99.241 E1.43871 ; perimeter
G1 X108.385 Y98.695 E1.44911 ; perimeter
G1 X108.053 Y98.213 E1.45950 ; perimeter
G1 X107.569 Y97.785 E1.47098 ; perimeter
