; generated by Slic3r 1.3.0 on 2019-10-30 at 12:15:47

; external perimeters extrusion width = 0.44mm (3.38mm^3/s)
; perimeters extrusion width = 0.56mm (8.80mm^3/s)
; infill extrusion width = 0.50mm (10.04mm^3/s)
; solid infill extrusion width = 0.56mm (11.31mm^3/s)
; top infill extrusion width = 0.56mm (6.28mm^3/s)

G28 ; home all axes
; Filament gcode

G21 ; set units to millimeters
G90 ; use absolute coordinates
M82 ; use absolute distances for extrusion
G92 E0 ; reset extrusion distance
G1 E-0.50000 F420.00000 ; retract extruder 0
G92 E0 ; reset extrusion distance
G1 Z0.250 F6000.000 ; move to next layer (0)
G1 X78.337 Y78.133 F6000.000 ; move to first skirt point
G1 E0.50000 F420.00000 ; unretract extruder 0
G1 F1800
G1 X80.090 Y76.687 E0.54039 ; skirt
G1 X83.289 Y75.845 E0.59921 ; skirt
G1 X107.237 Y75.845 E1.02495 ; skirt
G1 X109.474 Y76.242 E1.06534 ; skirt
G1 X111.438 Y77.385 E1.10573 ; skirt
G1 X113.239 Y79.846 E1.15996 ; skirt
G1 X121.917 Y100.668 E1.56098 ; skirt
G1 X122.513 Y102.377 E1.59315 ; skirt
G1 X122.733 Y103.198 E1.60827 ; skirt
G1 X123.000 Y104.542 E1.63263 ; skirt
G1 X123.111 Y105.386 E1.64775 ; skirt
G1 X123.201 Y106.753 E1.67212 ; skirt
G1 X123.201 Y107.603 E1.68724 ; skirt
G1 X123.111 Y108.971 E1.71160 ; skirt
G1 X123.000 Y109.814 E1.72672 ; skirt
G1 X122.733 Y111.158 E1.75108 ; skirt
G1 X122.513 Y111.980 E1.76620 ; skirt
G1 X122.072 Y113.277 E1.79056 ; skirt
G1 X121.872 Y113.794 E1.80042 ; skirt
G1 X121.521 Y114.561 E1.81541 ; skirt
G1 X120.865 Y115.794 E1.84025 ; skirt
G1 X120.384 Y116.558 E1.85629 ; skirt
G1 X119.603 Y117.644 E1.88007 ; skirt
G1 X118.988 Y118.384 E1.89717 ; skirt
G1 X118.109 Y119.312 E1.91990 ; skirt
G1 X117.357 Y120.004 E1.93806 ; skirt
G1 X116.760 Y120.498 E1.95183 ; skirt
G1 X116.409 Y120.769 E1.95973 ; skirt
G1 X115.523 Y121.389 E1.97894 ; skirt
G1 X114.916 Y121.767 E1.99166 ; skirt
G1 X113.900 Y122.325 E2.01227 ; skirt
G1 X112.921 Y122.783 E2.03149 ; skirt
G1 X112.510 Y122.952 E2.03938 ; skirt
G1 X111.784 Y123.221 E2.05316 ; skirt
G1 X110.809 Y123.527 E2.07132 ; skirt
G1 X110.380 Y123.640 E2.07921 ; skirt
G1 X109.148 Y123.903 E2.10160 ; skirt
G1 X108.177 Y124.041 E2.11903 ; skirt
G1 X107.287 Y124.120 E2.13493 ; skirt
G1 X106.385 Y124.154 E2.15097 ; skirt
G1 X105.941 Y124.149 E2.15886 ; skirt
G1 X104.988 Y124.106 E2.17581 ; skirt
G1 X104.149 Y124.026 E2.19079 ; skirt
G1 X102.713 Y123.782 E2.21670 ; skirt
G1 X101.976 Y123.603 E2.23018 ; skirt
G1 X100.609 Y123.186 E2.25559 ; skirt
G1 X99.779 Y122.870 E2.27137 ; skirt
G1 X98.481 Y122.271 E2.29679 ; skirt
G1 X97.703 Y121.845 E2.31257 ; skirt
G1 X96.498 Y121.074 E2.33798 ; skirt
G1 X95.785 Y120.546 E2.35376 ; skirt
G1 X94.697 Y119.619 E2.37918 ; skirt
G1 X94.062 Y118.998 E2.39496 ; skirt
G1 X93.111 Y117.931 E2.42037 ; skirt
G1 X92.566 Y117.230 E2.43615 ; skirt
G1 X91.534 Y115.668 E2.46944 ; skirt
G1 X77.653 Y91.631 E2.96290 ; skirt
G1 X76.782 Y88.419 E3.02206 ; skirt
G1 X76.787 Y82.330 E3.13031 ; skirt
G1 X77.190 Y80.094 E3.17070 ; skirt
G1 X78.307 Y78.185 E3.21003 ; skirt
G1 E2.71003 F420.00000 ; retract extruder 0
G92 E0 ; reset extrusion distance
G1 X86.898 Y85.768 F6000.000 ; move to first perimeter point
G1 E0.50000 F420.00000 ; unretract extruder 0
G1 F1500
G1 X86.599 Y86.033 E0.50546 ; perimeter
G1 X86.285 Y86.198 E0.51030 ; perimeter
G1 X85.939 Y86.283 E0.51517 ; perimeter
G1 X85.573 Y86.279 E0.52018 ; perimeter
G1 X85.241 Y86.198 E0.52484 ; perimeter
G1 X84.927 Y86.033 E0.52969 ; perimeter
G1 X84.662 Y85.798 E0.53454 ; perimeter
G1 X84.459 Y85.505 E0.53940 ; perimeter
G1 X84.333 Y85.160 E0.54441 ; perimeter
G1 X84.292 Y84.822 E0.54908 ; perimeter
G1 X84.334 Y84.470 E0.55392 ; perimeter
G1 X84.460 Y84.138 E0.55877 ; perimeter
G1 X84.662 Y83.845 E0.56363 ; perimeter
G1 X84.939 Y83.604 E0.56865 ; perimeter
G1 X85.241 Y83.446 E0.57331 ; perimeter
G1 X85.586 Y83.361 E0.57816 ; perimeter
G1 X85.941 Y83.361 E0.58301 ; perimeter
G1 X86.286 Y83.446 E0.58787 ; perimeter
G1 X86.609 Y83.620 E0.59288 ; perimeter
G1 X86.865 Y83.846 E0.59754 ; perimeter
G1 X87.066 Y84.138 E0.60239 ; perimeter
G1 X87.192 Y84.470 E0.60724 ; perimeter
G1 X87.235 Y84.822 E0.61209 ; perimeter
G1 X87.192 Y85.174 E0.61693 ; perimeter
G1 X87.068 Y85.502 E0.62173 ; perimeter
G1 X86.930 Y85.717 E0.62522 ; perimeter
G1 X86.898 Y85.768 F6000.000 ; move inwards before travel
G1 E0.12522 F420.00000 ; retract extruder 0
G92 E0 ; reset extrusion distance
G1 X84.943 Y83.013 F6000.000 ; move to first perimeter point
G1 E0.50000 F420.00000 ; unretract extruder 0
G1 F1500
G1 X84.328 Y83.546 E0.51447 ; perimeter
G1 X84.165 Y83.783 E0.51959 ; perimeter
G1 X83.953 Y83.717 E0.52353 ; perimeter
G1 X83.953 Y83.013 E0.53606 ; perimeter
G1 X84.883 Y83.013 E0.55258 ; perimeter
G1 E0.05258 F420.00000 ; retract extruder 0
G92 E0 ; reset extrusion distance
G1 X105.147 Y112.599 F6000.000 ; move to first perimeter point
G1 E0.50000 F420.00000 ; unretract extruder 0
G1 F1500
G1 X105.556 Y112.384 E0.50823 ; perimeter
G1 X106.006 Y112.273 E0.51645 ; perimeter
G1 X106.468 Y112.273 E0.52468 ; perimeter
G1 X106.917 Y112.384 E0.53290 ; perimeter
G1 X107.327 Y112.599 E0.54113 ; perimeter
G1 X107.674 Y112.905 E0.54936 ; perimeter
G1 X107.936 Y113.286 E0.55758 ; perimeter
G1 X108.100 Y113.719 E0.56581 ; perimeter
G1 X108.156 Y114.178 E0.57403 ; perimeter
G1 X108.100 Y114.638 E0.58226 ; perimeter
G1 X107.936 Y115.070 E0.59049 ; perimeter
G1 X107.674 Y115.451 E0.59871 ; perimeter
G1 X107.327 Y115.758 E0.60694 ; perimeter
G1 X106.917 Y115.973 E0.61516 ; perimeter
G1 X106.468 Y116.084 E0.62339 ; perimeter
G1 X106.006 Y116.084 E0.63162 ; perimeter
G1 X105.556 Y115.973 E0.63984 ; perimeter
G1 X105.147 Y115.758 E0.64807 ; perimeter
G1 X104.800 Y115.451 E0.65629 ; perimeter
G1 X104.537 Y115.070 E0.66452 ; perimeter
G1 X104.373 Y114.638 E0.67275 ; perimeter
G1 X104.317 Y114.178 E0.68097 ; perimeter
G1 X104.373 Y113.719 E0.68920 ; perimeter
G1 X104.537 Y113.286 E0.69742 ; perimeter
G1 X104.800 Y112.905 E0.70565 ; perimeter
G1 X105.102 Y112.638 E0.71281 ; perimeter
G1 X105.401 Y112.967 F6000.000 ; move to first perimeter point
G1 F1500
G1 X105.715 Y112.802 E0.71766 ; perimeter
G1 X106.059 Y112.717 E0.72250 ; perimeter
G1 X106.414 Y112.717 E0.72735 ; perimeter
G1 X106.759 Y112.802 E0.73220 ; perimeter
G1 X107.073 Y112.967 E0.73705 ; perimeter
G1 X107.338 Y113.202 E0.74189 ; perimeter
G1 X107.540 Y113.494 E0.74674 ; perimeter
G1 X107.666 Y113.826 E0.75159 ; perimeter
G1 X107.708 Y114.178 E0.75644 ; perimeter
G1 X107.666 Y114.530 E0.76129 ; perimeter
G1 X107.540 Y114.862 E0.76613 ; perimeter
G1 X107.338 Y115.154 E0.77098 ; perimeter
G1 X107.073 Y115.389 E0.77583 ; perimeter
G1 X106.759 Y115.554 E0.78068 ; perimeter
G1 X106.414 Y115.639 E0.78552 ; perimeter
G1 X106.059 Y115.639 E0.79037 ; perimeter
G1 X105.715 Y115.554 E0.79522 ; perimeter
G1 X105.401 Y115.389 E0.80007 ; perimeter
G1 X105.135 Y115.154 E0.80491 ; perimeter
G1 X104.934 Y114.862 E0.80976 ; perimeter
G1 X104.808 Y114.530 E0.81461 ; perimeter
G1 X104.765 Y114.178 E0.81946 ; perimeter
G1 X104.808 Y113.826 E0.82430 ; perimeter
G1 X104.934 Y113.494 E0.82915 ; perimeter
G1 X105.135 Y113.202 E0.83400 ; perimeter
G1 X105.356 Y113.007 E0.83803 ; perimeter
G1 X105.401 Y112.967 F6000.000 ; move inwards before travel
G1 E0.33803 F420.00000 ; retract extruder 0
G92 E0 ; reset extrusion distance
G1 X111.800 Y108.451 F6000.000 ; move to first perimeter point
G1 E0.50000 F420.00000 ; unretract extruder 0
G1 F1500
G1 X111.537 Y108.070 E0.50823 ; perimeter
G1 X111.373 Y107.638 E0.51645 ; perimeter
G1 X111.317 Y107.178 E0.52468 ; perimeter
G1 X111.373 Y106.719 E0.53290 ; perimeter
G1 X111.537 Y106.286 E0.54113 ; perimeter
G1 X111.800 Y105.905 E0.54936 ; perimeter
G1 X112.147 Y105.599 E0.55758 ; perimeter
G1 X112.556 Y105.384 E0.56581 ; perimeter
G1 X113.006 Y105.273 E0.57403 ; perimeter
G1 X113.468 Y105.273 E0.58226 ; perimeter
G1 X113.917 Y105.384 E0.59049 ; perimeter
G1 X114.327 Y105.599 E0.59871 ; perimeter
G1 X114.674 Y105.905 E0.60694 ; perimeter
G1 X114.936 Y106.286 E0.61516 ; perimeter
G1 X115.100 Y106.719 E0.62339 ; perimeter
G1 X115.156 Y107.178 E0.63162 ; perimeter
G1 X115.100 Y107.638 E0.63984 ; perimeter
G1 X114.936 Y108.070 E0.64807 ; perimeter
G1 X114.674 Y108.451 E0.65629 ; perimeter
G1 X114.327 Y108.758 E0.66452 ; perimeter
G1 X113.917 Y108.973 E0.67275 ; perimeter
G1 X113.468 Y109.084 E0.68097 ; perimeter
G1 X113.006 Y109.084 E0.68920 ; perimeter
G1 X112.556 Y108.973 E0.69742 ; perimeter
G1 X112.147 Y108.758 E0.70565 ; perimeter
G1 X111.845 Y108.491 E0.71281 ; perimeter
G1 X112.135 Y108.154 F6000.000 ; move to first perimeter point
G1 F1500
G1 X111.934 Y107.862 E0.71766 ; perimeter
G1 X111.808 Y107.530 E0.72250 ; perimeter
G1 X111.765 Y107.178 E0.72735 ; perimeter
G1 X111.808 Y106.826 E0.73220 ; perimeter
G1 X111.934 Y106.494 E0.73705 ; perimeter
G1 X112.135 Y106.202 E0.74189 ; perimeter
G1 X112.401 Y105.967 E0.74674 ; perimeter
G1 X112.715 Y105.802 E0.75159 ; perimeter
G1 X113.059 Y105.717 E0.75644 ; perimeter
G1 X113.414 Y105.717 E0.76129 ; perimeter
G1 X113.759 Y105.802 E0.76613 ; perimeter
G1 X114.073 Y105.967 E0.77098 ; perimeter
G1 X114.338 Y106.202 E0.77583 ; perimeter
G1 X114.540 Y106.494 E0.78068 ; perimeter
G1 X114.666 Y106.826 E0.78552 ; perimeter
G1 X114.708 Y107.178 E0.79037 ; perimeter
G1 X114.666 Y107.530 E0.79522 ; perimeter
G1 X114.540 Y107.862 E0.80007 ; perimeter
G1 X114.338 Y108.154 E0.80491 ; perimeter
G1 X114.073 Y108.389 E0.80976 ; perimeter
G1 X113.759 Y108.554 E0.81461 ; perimeter
G1 X113.414 Y108.639 E0.81946 ; perimeter
G1 X113.059 Y108.639 E0.82430 ; perimeter
G1 X112.715 Y108.554 E0.82915 ; perimeter
G1 X112.401 Y108.389 E0.83400 ; perimeter
G1 X112.180 Y108.194 E0.83803 ; perimeter
G1 X112.135 Y108.154 F6000.000 ; move inwards before travel
G1 E0.33803 F420.00000 ; retract extruder 0
G92 E0 ; reset extrusion distance
G1 X101.663 Y107.178 F6000.000 ; move to first perimeter point
G1 E0.50000 F420.00000 ; unretract extruder 0
G1 F1500
G1 X101.592 Y107.759 E0.51040 ; perimeter
G1 X101.385 Y108.305 E0.52079 ; perimeter
G1 X101.053 Y108.787 E0.53119 ; perimeter
G1 X100.615 Y109.175 E0.54158 ; perimeter
G1 X100.097 Y109.446 E0.55198 ; perimeter
G1 X99.529 Y109.586 E0.56238 ; perimeter
G1 X98.944 Y109.586 E0.57277 ; perimeter
G1 X98.377 Y109.446 E0.58317 ; perimeter
G1 X97.859 Y109.175 E0.59356 ; perimeter
G1 X97.421 Y108.787 E0.60396 ; perimeter
G1 X97.089 Y108.305 E0.61436 ; perimeter
G1 X96.882 Y107.759 E0.62475 ; perimeter
G1 X96.811 Y107.178 E0.63515 ; perimeter
G1 X96.882 Y106.598 E0.64554 ; perimeter
G1 X97.089 Y106.051 E0.65594 ; perimeter
G1 X97.421 Y105.570 E0.66634 ; perimeter
G1 X97.859 Y105.182 E0.67673 ; perimeter
G1 X98.377 Y104.910 E0.68713 ; perimeter
G1 X98.944 Y104.770 E0.69753 ; perimeter
G1 X99.529 Y104.770 E0.70792 ; perimeter
G1 X100.097 Y104.910 E0.71832 ; perimeter
G1 X100.615 Y105.182 E0.72871 ; perimeter
G1 X101.053 Y105.570 E0.73911 ; perimeter
G1 X101.385 Y106.051 E0.74951 ; perimeter
G1 X101.592 Y106.598 E0.75990 ; perimeter
G1 X101.655 Y107.119 E0.76923 ; perimeter
G1 X101.156 Y107.178 F6000.000 ; move to first perimeter point
G1 F1500
G1 X101.100 Y107.638 E0.77746 ; perimeter
G1 X100.936 Y108.070 E0.78568 ; perimeter
G1 X100.674 Y108.451 E0.79391 ; perimeter
G1 X100.327 Y108.758 E0.80213 ; perimeter
G1 X99.917 Y108.973 E0.81036 ; perimeter
G1 X99.468 Y109.084 E0.81859 ; perimeter
G1 X99.006 Y109.084 E0.82681 ; perimeter
G1 X98.556 Y108.973 E0.83504 ; perimeter
G1 X98.147 Y108.758 E0.84326 ; perimeter
G1 X97.800 Y108.451 E0.85149 ; perimeter
G1 X97.537 Y108.070 E0.85972 ; perimeter
G1 X97.373 Y107.638 E0.86794 ; perimeter
G1 X97.317 Y107.178 E0.87617 ; perimeter
G1 X97.373 Y106.719 E0.88439 ; perimeter
G1 X97.537 Y106.286 E0.89262 ; perimeter
G1 X97.800 Y105.905 E0.90085 ; perimeter
G1 X98.147 Y105.599 E0.90907 ; perimeter
G1 X98.556 Y105.384 E0.91730 ; perimeter
G1 X99.005 Y105.273 E0.92552 ; perimeter
G1 X99.468 Y105.273 E0.93375 ; perimeter
G1 X99.917 Y105.384 E0.94198 ; perimeter
G1 X100.327 Y105.599 E0.95020 ; perimeter
G1 X100.674 Y105.905 E0.95843 ; perimeter
G1 X100.936 Y106.286 E0.96665 ; perimeter
G1 X101.100 Y106.719 E0.97488 ; perimeter
G1 X101.149 Y107.119 E0.98204 ; perimeter
G1 X100.708 Y107.178 F6000.000 ; move to first perimeter point
G1 F1500
G1 X100.666 Y107.530 E0.98689 ; perimeter
G1 X100.540 Y107.862 E0.99174 ; perimeter
G1 X100.338 Y108.154 E0.99658 ; perimeter
G1 X100.073 Y108.389 E1.00143 ; perimeter
G1 X99.759 Y108.554 E1.00628 ; perimeter
G1 X99.414 Y108.639 E1.01113 ; perimeter
G1 X99.059 Y108.639 E1.01597 ; perimeter
G1 X98.715 Y108.554 E1.02082 ; perimeter
G1 X98.401 Y108.389 E1.02567 ; perimeter
G1 X98.135 Y108.154 E1.03052 ; perimeter
G1 X97.934 Y107.862 E1.03536 ; perimeter
G1 X97.808 Y107.530 E1.04021 ; perimeter
G1 X97.765 Y107.178 E1.04506 ; perimeter
G1 X97.808 Y106.826 E1.04991 ; perimeter
G1 X97.934 Y106.494 E1.05475 ; perimeter
G1 X98.135 Y106.202 E1.05960 ; perimeter
G1 X98.401 Y105.967 E1.06445 ; perimeter
G1 X98.715 Y105.802 E1.06930 ; perimeter
G1 X99.059 Y105.717 E1.07415 ; perimeter
G1 X99.414 Y105.717 E1.07899 ; perimeter
G1 X99.759 Y105.802 E1.08384 ; perimeter
G1 X100.073 Y105.967 E1.08869 ; perimeter
G1 X100.338 Y106.202 E1.09354 ; perimeter
G1 X100.540 Y106.494 E1.09838 ; perimeter
G1 X100.666 Y106.826 E1.10323 ; perimeter
G1 X100.701 Y107.119 E1.10726 ; perimeter
G1 X100.708 Y107.178 F6000.000 ; move inwards before travel
G1 E0.60726 F420.00000 ; retract extruder 0
G92 E0 ; reset extrusion distance
G1 X104.859 Y102.175 F6000.000 ; move to first perimeter point
G1 E0.50000 F420.00000 ; unretract extruder 0
G1 F1500
G1 X104.421 Y101.787 E0.51040 ; perimeter
G1 X104.089 Y101.305 E0.52079 ; perimeter
G1 X103.882 Y100.759 E0.53119 ; perimeter
G1 X103.811 Y100.178 E0.54158 ; perimeter
G1 X103.882 Y99.598 E0.55198 ; perimeter
G1 X104.089 Y99.051 E0.56238 ; perimeter
G1 X104.421 Y98.570 E0.57277 ; perimeter
G1 X104.859 Y98.182 E0.58317 ; perimeter
G1 X105.377 Y97.910 E0.59356 ; perimeter
G1 X105.944 Y97.770 E0.60396 ; perimeter
G1 X106.529 Y97.770 E0.61436 ; perimeter
G1 X107.097 Y97.910 E0.62475 ; perimeter
G1 X107.615 Y98.182 E0.63515 ; perimeter
G1 X108.053 Y98.570 E0.64554 ; perimeter
G1 X108.385 Y99.051 E0.65594 ; perimeter
G1 X108.592 Y99.598 E0.66634 ; perimeter
G1 X108.663 Y100.178 E0.67673 ; perimeter
G1 X108.592 Y100.759 E0.68713 ; perimeter
G1 X108.385 Y101.305 E0.69753 ; perimeter
G1 X108.053 Y101.787 E0.70792 ; perimeter
G1 X107.615 Y102.175 E0.71832 ; perimeter
G1 X107.097 Y102.446 E0.72871 ; perimeter
G1 X106.529 Y102.586 E0.73911 ; perimeter
G1 X105.944 Y102.586 E0.74951 ; perimeter
G1 X105.377 Y102.446 E0.75990 ; perimeter
G1 X104.912 Y102.202 E0.76923 ; perimeter
G1 X105.147 Y101.758 F6000.000 ; move to first perimeter point
G1 F1500
G1 X104.800 Y101.451 E0.77746 ; perimeter
G1 X104.537 Y101.070 E0.78568 ; perimeter
G1 X104.373 Y100.638 E0.79391 ; perimeter
G1 X104.317 Y100.178 E0.80213 ; perimeter
G1 X104.373 Y99.719 E0.81036 ; perimeter
G1 X104.537 Y99.286 E0.81859 ; perimeter
G1 X104.800 Y98.905 E0.82681 ; perimeter
G1 X105.147 Y98.599 E0.83504 ; perimeter
G1 X105.556 Y98.384 E0.84326 ; perimeter
G1 X106.006 Y98.273 E0.85149 ; perimeter
G1 X106.468 Y98.273 E0.85972 ; perimeter
G1 X106.917 Y98.384 E0.86794 ; perimeter
G1 X107.327 Y98.599 E0.87617 ; perimeter
G1 X107.674 Y98.905 E0.88439 ; perimeter
G1 X107.936 Y99.286 E0.89262 ; perimeter
G1 X108.100 Y99.719 E0.90085 ; perimeter
G1 X108.156 Y100.178 E0.90907 ; perimeter
G1 X108.100 Y100.638 E0.91730 ; perimeter
G1 X107.936 Y101.070 E0.92552 ; perimeter
G1 X107.674 Y101.451 E0.93375 ; perimeter
G1 X107.327 Y101.758 E0.94198 ; perimeter
G1 X106.917 Y101.973 E0.95020 ; perimeter
G1 X106.468 Y102.084 E0.95843 ; perimeter
G1 X106.006 Y102.084 E0.96665 ; perimeter
G1 X105.556 Y101.973 E0.97488 ; perimeter
G1 X105.200 Y101.786 E0.98204 ; perimeter
G1 X105.401 Y101.389 F6000.000 ; move to first perimeter point
G1 F1500
G1 X105.135 Y101.154 E0.98689 ; perimeter
G1 X104.934 Y100.862 E0.99174 ; perimeter
G1 X104.808 Y100.530 E0.99658 ; perimeter
