; generated by Slic3r 1.3.0 on 2019-10-30 at 14:10:52

; external perimeters extrusion width = 0.44mm (3.38mm^3/s)
; perimeters extrusion width = 0.56mm (8.80mm^3/s)
; infill extrusion width = 0.50mm (10.04mm^3/s)
; solid infill extrusion width = 0.56mm (11.31mm^3/s)
; top infill extrusion width = 0.56mm (6.28mm^3/s)

G28 ; home all axes
; Filament gcode

G21 ; set units to millimeters
G90 ; use absolute coordinates
M82 ; use absolute distances for extrusion
G92 E0 ; reset extrusion distance
G1 E-0.50000 F420.00000 ; retract extruder 0
G92 E0 ; reset extrusion distance
G1 Z0.250 F6000.000 ; move to next layer (0)
G1 X76.015 Y82.711 F6000.000 ; move to first skirt point
G1 E0.50000 F420.00000 ; unretract extruder 0
G1 F1800
G1 X76.947 Y81.894 E0.52203 ; skirt
G1 X77.621 Y81.376 E0.53716 ; skirt
G1 X78.652 Y80.687 E0.55919 ; skirt
G1 X79.389 Y80.262 E0.57431 ; skirt
G1 X80.500 Y79.714 E0.59635 ; skirt
G1 X81.286 Y79.388 E0.61147 ; skirt
G1 X82.460 Y78.990 E0.63350 ; skirt
G1 X83.165 Y78.794 E0.64651 ; skirt
G1 X84.455 Y78.527 E0.66994 ; skirt
G1 X85.204 Y78.427 E0.68337 ; skirt
G1 X86.044 Y78.354 E0.69836 ; skirt
G1 X87.187 Y78.325 E0.71868 ; skirt
G1 X122.661 Y79.332 E1.34958 ; skirt
G1 X124.886 Y79.792 E1.38997 ; skirt
G1 X126.816 Y80.990 E1.43037 ; skirt
G1 X128.498 Y83.378 E1.48230 ; skirt
G1 X135.097 Y99.575 E1.79322 ; skirt
G1 X135.607 Y101.014 E1.82036 ; skirt
G1 X135.826 Y101.800 E1.83487 ; skirt
G1 X136.074 Y102.964 E1.85603 ; skirt
G1 X136.193 Y103.772 E1.87055 ; skirt
G1 X136.293 Y104.958 E1.89170 ; skirt
G1 X136.310 Y105.774 E1.90622 ; skirt
G1 X136.260 Y106.963 E1.92737 ; skirt
G1 X136.175 Y107.775 E1.94189 ; skirt
G1 X135.976 Y108.948 E1.96304 ; skirt
G1 X135.790 Y109.743 E1.97756 ; skirt
G1 X135.446 Y110.882 E1.99871 ; skirt
G1 X135.273 Y111.381 E2.00809 ; skirt
G1 X134.985 Y112.080 E2.02153 ; skirt
G1 X134.435 Y113.223 E2.04408 ; skirt
G1 X134.036 Y113.922 E2.05839 ; skirt
G1 X133.371 Y114.944 E2.08006 ; skirt
G1 X132.856 Y115.626 E2.09526 ; skirt
G1 X132.098 Y116.516 E2.11605 ; skirt
G1 X131.466 Y117.164 E2.13213 ; skirt
G1 X130.637 Y117.916 E2.15204 ; skirt
G1 X129.889 Y118.508 E2.16900 ; skirt
G1 X129.010 Y119.119 E2.18802 ; skirt
G1 X128.150 Y119.637 E2.20587 ; skirt
G1 X127.626 Y119.918 E2.21645 ; skirt
G1 X126.657 Y120.374 E2.23548 ; skirt
G1 X125.770 Y120.725 E2.25244 ; skirt
G1 X124.704 Y121.068 E2.27234 ; skirt
G1 X123.828 Y121.291 E2.28843 ; skirt
G1 X122.678 Y121.503 E2.30921 ; skirt
G1 X121.829 Y121.607 E2.32441 ; skirt
G1 X121.405 Y121.639 E2.33197 ; skirt
G1 X120.209 Y121.677 E2.35324 ; skirt
G1 X70.056 Y120.670 E3.24504 ; skirt
G1 X67.827 Y120.228 E3.28543 ; skirt
G1 X65.886 Y119.046 E3.32582 ; skirt
G1 X64.471 Y117.269 E3.36621 ; skirt
G1 X63.684 Y114.191 E3.42270 ; skirt
G1 X63.685 Y104.460 E3.59569 ; skirt
G1 X64.554 Y101.226 E3.65522 ; skirt
G1 X73.167 Y86.307 E3.96148 ; skirt
G1 X74.078 Y84.919 E3.99100 ; skirt
G1 X74.596 Y84.244 E4.00612 ; skirt
G1 X75.413 Y83.312 E4.02815 ; skirt
G1 X75.972 Y82.753 E4.04221 ; skirt
G1 E3.54221 F420.00000 ; retract extruder 0
G92 E0 ; reset extrusion distance
G1 X90.566 Y98.049 F6000.000 ; move to first perimeter point
G1 E0.50000 F420.00000 ; unretract extruder 0
G1 F1500
G1 X89.739 Y98.690 E0.51861 ; perimeter
G1 X88.799 Y99.151 E0.53722 ; perimeter
G1 X87.786 Y99.413 E0.55583 ; perimeter
G1 X86.740 Y99.466 E0.57443 ; perimeter
G1 X85.706 Y99.308 E0.59304 ; perimeter
G1 X84.724 Y98.944 E0.61165 ; perimeter
G1 X83.836 Y98.391 E0.63026 ; perimeter
G1 X83.077 Y97.669 E0.64887 ; perimeter
G1 X82.479 Y96.810 E0.66748 ; perimeter
G1 X82.066 Y95.848 E0.68608 ; perimeter
G1 X81.856 Y94.823 E0.70469 ; perimeter
G1 X81.856 Y93.776 E0.72330 ; perimeter
G1 X82.066 Y92.751 E0.74191 ; perimeter
G1 X82.479 Y91.789 E0.76052 ; perimeter
G1 X83.077 Y90.930 E0.77913 ; perimeter
G1 X83.836 Y90.209 E0.79773 ; perimeter
G1 X84.724 Y89.655 E0.81634 ; perimeter
G1 X85.706 Y89.292 E0.83495 ; perimeter
G1 X86.702 Y89.139 E0.85288 ; perimeter
G1 X87.781 Y89.185 E0.87207 ; perimeter
G1 X88.799 Y89.449 E0.89076 ; perimeter
G1 X89.739 Y89.910 E0.90937 ; perimeter
G1 X90.566 Y90.550 E0.92798 ; perimeter
G1 X91.248 Y91.345 E0.94659 ; perimeter
G1 X91.756 Y92.260 E0.96520 ; perimeter
G1 X92.069 Y93.258 E0.98381 ; perimeter
G1 X92.175 Y94.300 E1.00242 ; perimeter
G1 X92.069 Y95.341 E1.02102 ; perimeter
G1 X91.756 Y96.340 E1.03963 ; perimeter
G1 X91.248 Y97.255 E1.05824 ; perimeter
G1 X90.605 Y98.004 E1.07578 ; perimeter
G1 X90.218 Y97.683 F6000.000 ; move to first perimeter point
G1 F1500
G1 X89.471 Y98.261 E1.09257 ; perimeter
G1 X88.623 Y98.677 E1.10936 ; perimeter
G1 X87.709 Y98.914 E1.12616 ; perimeter
G1 X86.766 Y98.962 E1.14295 ; perimeter
G1 X85.832 Y98.819 E1.15974 ; perimeter
G1 X84.946 Y98.491 E1.17653 ; perimeter
G1 X84.145 Y97.991 E1.19332 ; perimeter
G1 X83.460 Y97.340 E1.21011 ; perimeter
G1 X82.921 Y96.565 E1.22690 ; perimeter
G1 X82.548 Y95.697 E1.24369 ; perimeter
G1 X82.358 Y94.772 E1.26048 ; perimeter
G1 X82.358 Y93.828 E1.27727 ; perimeter
G1 X82.548 Y92.902 E1.29407 ; perimeter
G1 X82.921 Y92.034 E1.31086 ; perimeter
G1 X83.460 Y91.259 E1.32765 ; perimeter
G1 X84.145 Y90.609 E1.34444 ; perimeter
G1 X84.946 Y90.109 E1.36123 ; perimeter
G1 X85.832 Y89.781 E1.37802 ; perimeter
G1 X86.730 Y89.643 E1.39416 ; perimeter
G1 X87.706 Y89.685 E1.41154 ; perimeter
G1 X88.623 Y89.922 E1.42838 ; perimeter
G1 X89.471 Y90.338 E1.44517 ; perimeter
G1 X90.218 Y90.917 E1.46196 ; perimeter
G1 X90.833 Y91.633 E1.47875 ; perimeter
G1 X91.292 Y92.459 E1.49555 ; perimeter
G1 X91.575 Y93.360 E1.51234 ; perimeter
G1 X91.670 Y94.300 E1.52913 ; perimeter
G1 X91.575 Y95.239 E1.54592 ; perimeter
G1 X91.292 Y96.141 E1.56271 ; perimeter
G1 X90.833 Y96.966 E1.57950 ; perimeter
G1 X90.257 Y97.638 E1.59522 ; perimeter
G1 X89.910 Y97.359 F6000.000 ; move to first perimeter point
G1 F1500
G1 X89.235 Y97.882 E1.60690 ; perimeter
G1 X88.468 Y98.258 E1.61857 ; perimeter
G1 X87.641 Y98.472 E1.63024 ; perimeter
G1 X86.788 Y98.516 E1.64191 ; perimeter
G1 X85.944 Y98.386 E1.65358 ; perimeter
G1 X85.143 Y98.090 E1.66525 ; perimeter
G1 X84.418 Y97.638 E1.67692 ; perimeter
G1 X83.799 Y97.049 E1.68859 ; perimeter
G1 X83.311 Y96.348 E1.70026 ; perimeter
G1 X82.975 Y95.563 E1.71193 ; perimeter
G1 X82.803 Y94.727 E1.72360 ; perimeter
G1 X82.803 Y93.873 E1.73527 ; perimeter
G1 X82.975 Y93.036 E1.74694 ; perimeter
G1 X83.311 Y92.251 E1.75861 ; perimeter
G1 X83.799 Y91.550 E1.77028 ; perimeter
G1 X84.418 Y90.962 E1.78195 ; perimeter
G1 X85.143 Y90.510 E1.79362 ; perimeter
G1 X85.944 Y90.213 E1.80529 ; perimeter
G1 X86.754 Y90.089 E1.81649 ; perimeter
G1 X87.641 Y90.127 E1.82861 ; perimeter
G1 X88.468 Y90.341 E1.84030 ; perimeter
G1 X89.235 Y90.718 E1.85197 ; perimeter
G1 X89.910 Y91.240 E1.86364 ; perimeter
G1 X90.467 Y91.888 E1.87531 ; perimeter
G1 X90.881 Y92.635 E1.88698 ; perimeter
G1 X91.137 Y93.450 E1.89865 ; perimeter
G1 X91.223 Y94.300 E1.91032 ; perimeter
G1 X91.137 Y95.149 E1.92199 ; perimeter
G1 X90.881 Y95.964 E1.93366 ; perimeter
G1 X90.467 Y96.711 E1.94533 ; perimeter
G1 X89.949 Y97.314 E1.95618 ; perimeter
G1 X89.910 Y97.359 F6000.000 ; move inwards before travel
G1 E1.45618 F420.00000 ; retract extruder 0
G92 E0 ; reset extrusion distance
G1 X87.971 Y113.001 F6000.000 ; move to first perimeter point
G1 E0.50000 F420.00000 ; unretract extruder 0
G1 F2100
G1 X71.354 Y113.001 E0.79542 ; perimeter
G1 X71.355 Y104.787 E0.94145 ; perimeter
G1 X79.788 Y90.179 E1.24132 ; perimeter
G1 X80.413 Y89.244 E1.26131 ; perimeter
G1 X81.129 Y88.427 E1.28063 ; perimeter
G1 X81.946 Y87.711 E1.29994 ; perimeter
G1 X82.849 Y87.107 E1.31925 ; perimeter
G1 X83.824 Y86.626 E1.33857 ; perimeter
G1 X84.863 Y86.274 E1.35807 ; perimeter
G1 X85.633 Y86.106 E1.37210 ; perimeter
G1 X85.903 Y86.065 E1.37694 ; perimeter
G1 X86.657 Y86.000 E1.39040 ; perimeter
G1 X87.708 Y86.022 E1.40909 ; perimeter
G1 X88.077 Y86.062 E1.41569 ; perimeter
G1 X88.737 Y86.175 E1.42759 ; perimeter
G1 X89.146 Y86.274 E1.43508 ; perimeter
G1 X89.739 Y86.456 E1.44609 ; perimeter
G1 X90.179 Y86.624 E1.45446 ; perimeter
G1 X90.697 Y86.859 E1.46459 ; perimeter
G1 X91.156 Y87.105 E1.47384 ; perimeter
G1 X91.598 Y87.380 E1.48309 ; perimeter
G1 X92.062 Y87.711 E1.49322 ; perimeter
G1 X92.427 Y88.008 E1.50159 ; perimeter
G1 X92.881 Y88.430 E1.51261 ; perimeter
G1 X93.171 Y88.735 E1.52010 ; perimeter
G1 X93.599 Y89.250 E1.53199 ; perimeter
G1 X93.818 Y89.550 E1.53860 ; perimeter
G1 X94.203 Y90.157 E1.55137 ; perimeter
G1 X94.358 Y90.439 E1.55710 ; perimeter
G1 X94.779 Y91.380 E1.57543 ; perimeter
G1 X95.088 Y92.403 E1.59443 ; perimeter
G1 X95.262 Y93.432 E1.61298 ; perimeter
G1 X95.306 Y94.474 E1.63152 ; perimeter
G1 X95.219 Y95.513 E1.65006 ; perimeter
G1 X95.002 Y96.533 E1.66860 ; perimeter
G1 X94.659 Y97.518 E1.68715 ; perimeter
G1 X94.179 Y98.486 E1.70634 ; perimeter
G1 X87.970 Y109.239 E1.92709 ; perimeter
G1 X87.971 Y112.941 E1.99291 ; perimeter
G1 X88.474 Y113.504 F6000.000 ; move to first perimeter point
G1 F2100
G1 X70.851 Y113.504 E2.30621 ; perimeter
G1 X70.852 Y104.652 E2.46357 ; perimeter
G1 X79.361 Y89.913 E2.76612 ; perimeter
G1 X80.013 Y88.937 E2.78699 ; perimeter
G1 X80.773 Y88.071 E2.80748 ; perimeter
G1 X81.639 Y87.311 E2.82797 ; perimeter
G1 X82.598 Y86.671 E2.84845 ; perimeter
G1 X83.631 Y86.161 E2.86894 ; perimeter
G1 X84.728 Y85.789 E2.88953 ; perimeter
G1 X85.542 Y85.611 E2.90435 ; perimeter
G1 X85.844 Y85.566 E2.90976 ; perimeter
G1 X86.635 Y85.497 E2.92388 ; perimeter
G1 X87.745 Y85.521 E2.94363 ; perimeter
G1 X88.147 Y85.564 E2.95081 ; perimeter
G1 X88.838 Y85.683 E2.96328 ; perimeter
G1 X89.279 Y85.789 E2.97134 ; perimeter
G1 X89.902 Y85.980 E2.98293 ; perimeter
G1 X90.372 Y86.159 E2.99187 ; perimeter
G1 X90.920 Y86.409 E3.00258 ; perimeter
G1 X91.407 Y86.670 E3.01240 ; perimeter
G1 X91.877 Y86.961 E3.02223 ; perimeter
G1 X92.367 Y87.311 E3.03293 ; perimeter
G1 X92.757 Y87.629 E3.04187 ; perimeter
G1 X93.235 Y88.072 E3.05346 ; perimeter
G1 X93.547 Y88.401 E3.06152 ; perimeter
G1 X93.995 Y88.941 E3.07399 ; perimeter
G1 X94.233 Y89.267 E3.08117 ; perimeter
G1 X94.636 Y89.901 E3.09452 ; perimeter
G1 X94.806 Y90.211 E3.10082 ; perimeter
G1 X95.145 Y90.936 E3.11505 ; perimeter
G1 X95.255 Y91.215 E3.12037 ; perimeter
G1 X95.579 Y92.288 E3.14030 ; perimeter
G1 X95.763 Y93.379 E3.15997 ; perimeter
G1 X95.810 Y94.484 E3.17964 ; perimeter
G1 X95.717 Y95.587 E3.19930 ; perimeter
G1 X95.487 Y96.669 E3.21897 ; perimeter
G1 X95.123 Y97.714 E3.23864 ; perimeter
G1 X94.622 Y98.723 E3.25868 ; perimeter
G1 X88.473 Y109.373 E3.47731 ; perimeter
G1 X88.474 Y113.444 E3.54967 ; perimeter
G1 X88.918 Y113.948 F6000.000 ; move to first perimeter point
G1 F1050
G1 X70.406 Y113.948 E3.80263 ; perimeter
G1 X70.408 Y104.533 E3.93128 ; perimeter
G1 X78.983 Y89.678 E4.16565 ; perimeter
G1 X79.660 Y88.666 E4.18229 ; perimeter
G1 X80.458 Y87.756 E4.19884 ; perimeter
G1 X81.368 Y86.958 E4.21538 ; perimeter
G1 X82.375 Y86.285 E4.23192 ; perimeter
G1 X83.461 Y85.750 E4.24846 ; perimeter
G1 X84.609 Y85.360 E4.26503 ; perimeter
G1 X85.462 Y85.174 E4.27696 ; perimeter
G1 X85.791 Y85.124 E4.28151 ; perimeter
G1 X86.615 Y85.053 E4.29281 ; perimeter
G1 X87.173 Y85.052 E4.30044 ; perimeter
G1 X87.779 Y85.077 E4.30872 ; perimeter
G1 X88.209 Y85.124 E4.31463 ; perimeter
G1 X88.928 Y85.247 E4.32460 ; perimeter
G1 X89.396 Y85.360 E4.33118 ; perimeter
G1 X90.047 Y85.560 E4.34048 ; perimeter
G1 X90.543 Y85.749 E4.34774 ; perimeter
G1 X91.118 Y86.010 E4.35636 ; perimeter
G1 X91.630 Y86.285 E4.36430 ; perimeter
G1 X92.124 Y86.591 E4.37224 ; perimeter
G1 X92.637 Y86.958 E4.38086 ; perimeter
G1 X93.049 Y87.293 E4.38813 ; perimeter
G1 X93.547 Y87.756 E4.39742 ; perimeter
G1 X93.879 Y88.106 E4.40401 ; perimeter
G1 X94.346 Y88.667 E4.41398 ; perimeter
G1 X94.601 Y89.016 E4.41989 ; perimeter
G1 X95.019 Y89.674 E4.43054 ; perimeter
G1 X95.203 Y90.010 E4.43577 ; perimeter
G1 X95.554 Y90.761 E4.44710 ; perimeter
G1 X95.675 Y91.069 E4.45162 ; perimeter
G1 X96.012 Y92.186 E4.46757 ; perimeter
G1 X96.206 Y93.332 E4.48345 ; perimeter
G1 X96.255 Y94.494 E4.49933 ; perimeter
G1 X96.158 Y95.652 E4.51522 ; perimeter
G1 X95.916 Y96.789 E4.53110 ; perimeter
G1 X95.534 Y97.886 E4.54698 ; perimeter
G1 X95.014 Y98.933 E4.56295 ; perimeter
G1 X88.917 Y109.492 E4.72956 ; perimeter
G1 X88.918 Y113.888 E4.78963 ; perimeter
G1 X88.601 Y113.705 F6000.000 ; move inwards before travel
G1 E4.28963 F420.00000 ; retract extruder 0
G92 E0 ; reset extrusion distance
G1 X81.035 Y112.574 F6000.000 ; move to first infill point
G1 E0.50000 F420.00000 ; unretract extruder 0
G1 F2700
G1 X81.545 Y112.574 E0.50920 ; infill
G1 X81.545 Y95.733 E0.81292 ; infill
G1 X81.584 Y95.924 E0.81645 ; infill
G1 X82.055 Y97.005 E0.83771 ; infill
G1 X82.055 Y112.574 E1.11848 ; infill
G1 X82.565 Y112.574 E1.12767 ; infill
G1 X82.565 Y97.738 E1.39523 ; infill
G1 X82.694 Y97.923 E1.39931 ; infill
G1 X83.075 Y98.285 E1.40878 ; infill
G1 X83.075 Y112.574 E1.66647 ; infill
G1 X83.584 Y112.574 E1.67567 ; infill
G1 X83.584 Y98.751 E1.92495 ; infill
G1 X84.094 Y99.069 E1.93579 ; infill
G1 X84.094 Y112.574 E2.17935 ; infill
G1 X84.604 Y112.574 E2.18854 ; infill
G1 X84.604 Y99.361 E2.42684 ; infill
G1 X85.114 Y99.549 E2.43664 ; infill
G1 X85.114 Y112.574 E2.67153 ; infill
G1 X85.624 Y112.574 E2.68073 ; infill
G1 X85.624 Y99.728 E2.91238 ; infill
G1 X86.134 Y99.807 E2.92169 ; infill
G1 X86.134 Y112.574 E3.15194 ; infill
G1 X86.644 Y112.574 E3.16113 ; infill
G1 X86.644 Y99.885 E3.38997 ; infill
G1 X87.154 Y99.873 E3.39917 ; infill
G1 X87.154 Y112.574 E3.62822 ; infill
G1 X87.468 Y112.574 E3.63389 ; infill
G1 X87.467 Y109.180 E3.69511 ; infill
G1 X87.664 Y108.839 E3.70220 ; infill
G1 X87.664 Y99.847 E3.86436 ; infill
G1 X87.862 Y99.837 E3.86794 ; infill
G1 X88.174 Y99.757 E3.87374 ; infill
G1 X88.174 Y107.956 E4.02161 ; infill
G1 X88.684 Y107.073 E4.04000 ; infill
G1 X88.684 Y99.625 E4.17433 ; infill
G1 X88.974 Y99.549 E4.17974 ; infill
G1 X89.193 Y99.442 E4.18415 ; infill
G1 X89.193 Y106.190 E4.30584 ; infill
G1 X89.703 Y105.307 E4.32423 ; infill
G1 X89.703 Y99.192 E4.43451 ; infill
G1 X90.006 Y99.043 E4.44059 ; infill
G1 X90.213 Y98.883 E4.44532 ; infill
G1 X90.213 Y104.424 E4.54524 ; infill
G1 X90.723 Y103.540 E4.56363 ; infill
G1 X90.723 Y98.488 E4.65475 ; infill
G1 X90.914 Y98.340 E4.65911 ; infill
G1 X91.233 Y97.969 E4.66794 ; infill
G1 X91.233 Y102.657 E4.75249 ; infill
G1 X91.743 Y101.774 E4.77088 ; infill
G1 X91.743 Y97.324 E4.85114 ; infill
G1 X92.220 Y96.464 E4.86888 ; infill
G1 X92.253 Y96.360 E4.87084 ; infill
G1 X92.253 Y100.891 E4.95256 ; infill
G1 E4.45256 F420.00000 ; retract extruder 0
G92 E0 ; reset extrusion distance
G1 X94.803 Y94.540 F6000.000 ; move to first infill point
G1 E0.50000 F420.00000 ; unretract extruder 0
G1 F2700
G1 X94.762 Y93.409 E0.52041 ; infill
G1 X94.598 Y92.443 E0.53808 ; infill
G1 X94.293 Y91.447 E0.55687 ; infill
G1 X94.293 Y97.117 E0.65913 ; infill
G1 X94.195 Y97.399 E0.66450 ; infill
G1 X93.783 Y98.229 E0.68121 ; infill
G1 X93.783 Y90.360 E0.82311 ; infill
G1 X93.273 Y89.580 E0.83992 ; infill
G1 X93.273 Y99.125 E1.01204 ; infill
G1 X92.763 Y100.008 E1.03044 ; infill
G1 X92.763 Y88.960 E1.22967 ; infill
G1 X92.253 Y88.457 E1.24259 ; infill
G1 X92.253 Y92.240 E1.31081 ; infill
G1 X92.220 Y92.136 E1.31277 ; infill
G1 X91.743 Y91.276 E1.33051 ; infill
G1 X91.743 Y88.025 E1.38913 ; infill
G1 X91.233 Y87.669 E1.40035 ; infill
G1 X91.233 Y90.631 E1.45376 ; infill
G1 X90.914 Y90.260 E1.46258 ; infill
G1 X90.723 Y90.112 E1.46694 ; infill
G1 X90.723 Y87.368 E1.51642 ; infill
G1 X90.213 Y87.116 E1.52667 ; infill
G1 X90.213 Y89.717 E1.57358 ; infill
G1 X90.006 Y89.556 E1.57831 ; infill
G1 X89.703 Y89.408 E1.58438 ; infill
G1 X89.703 Y86.905 E1.62952 ; infill
G1 X89.193 Y86.739 E1.63919 ; infill
G1 X89.193 Y89.158 E1.68282 ; infill
G1 X88.974 Y89.050 E1.68722 ; infill
G1 X88.684 Y88.975 E1.69264 ; infill
G1 X88.684 Y86.604 E1.73539 ; infill
G1 X88.174 Y86.513 E1.74474 ; infill
G1 X88.174 Y88.843 E1.78675 ; infill
G1 X87.855 Y88.761 E1.79268 ; infill
G1 X87.664 Y88.752 E1.79614 ; infill
