; generated by Slic3r 1.3.0 on 2019-10-30 at 13:37:58

; external perimeters extrusion width = 0.44mm (3.38mm^3/s)
; perimeters extrusion width = 0.56mm (8.80mm^3/s)
; infill extrusion width = 0.50mm (10.04mm^3/s)
; solid infill extrusion width = 0.56mm (11.31mm^3/s)
; top infill extrusion width = 0.56mm (6.28mm^3/s)

G28 ; home all axes
; Filament gcode

G21 ; set units to millimeters
G90 ; use absolute coordinates
M82 ; use absolute distances for extrusion
G92 E0 ; reset extrusion distance
G1 E-0.50000 F420.00000 ; retract extruder 0
G92 E0 ; reset extrusion distance
G1 Z0.250 F6000.000 ; move to next layer (0)
G1 X81.906 Y81.614 F6000.000 ; move to first skirt point
G1 E0.50000 F420.00000 ; unretract extruder 0
G1 F1800
G1 X83.659 Y80.169 E0.54039 ; skirt
G1 X86.855 Y79.329 E0.59913 ; skirt
G1 X105.807 Y79.329 E0.93606 ; skirt
G1 X108.044 Y79.726 E0.97645 ; skirt
G1 X110.008 Y80.868 E1.01684 ; skirt
G1 X111.829 Y83.378 E1.07197 ; skirt
G1 X118.547 Y99.890 E1.38887 ; skirt
G1 X118.938 Y101.014 E1.41003 ; skirt
G1 X119.158 Y101.800 E1.42454 ; skirt
G1 X119.405 Y102.964 E1.44570 ; skirt
G1 X119.524 Y103.772 E1.46022 ; skirt
G1 X119.624 Y104.958 E1.48137 ; skirt
G1 X119.641 Y105.774 E1.49589 ; skirt
G1 X119.591 Y106.963 E1.51704 ; skirt
G1 X119.506 Y107.775 E1.53156 ; skirt
G1 X119.307 Y108.948 E1.55271 ; skirt
G1 X119.121 Y109.743 E1.56723 ; skirt
G1 X118.777 Y110.882 E1.58838 ; skirt
G1 X118.604 Y111.381 E1.59776 ; skirt
G1 X118.316 Y112.080 E1.61120 ; skirt
G1 X117.766 Y113.223 E1.63375 ; skirt
G1 X117.367 Y113.922 E1.64806 ; skirt
G1 X116.702 Y114.944 E1.66973 ; skirt
G1 X116.188 Y115.626 E1.68493 ; skirt
G1 X115.429 Y116.516 E1.70572 ; skirt
G1 X114.797 Y117.164 E1.72180 ; skirt
G1 X114.289 Y117.636 E1.73415 ; skirt
G1 X113.968 Y117.916 E1.74171 ; skirt
G1 X113.220 Y118.508 E1.75867 ; skirt
G1 X112.695 Y118.883 E1.77013 ; skirt
G1 X111.835 Y119.433 E1.78828 ; skirt
G1 X110.957 Y119.918 E1.80612 ; skirt
G1 X110.575 Y120.107 E1.81369 ; skirt
G1 X109.988 Y120.374 E1.82515 ; skirt
G1 X109.102 Y120.725 E1.84211 ; skirt
G1 X108.699 Y120.864 E1.84968 ; skirt
G1 X107.641 Y121.176 E1.86928 ; skirt
G1 X106.742 Y121.377 E1.88566 ; skirt
G1 X106.009 Y121.503 E1.89889 ; skirt
G1 X105.160 Y121.607 E1.91409 ; skirt
G1 X104.736 Y121.639 E1.92165 ; skirt
G1 X103.943 Y121.672 E1.93576 ; skirt
G1 X103.138 Y121.668 E1.95008 ; skirt
G1 X102.713 Y121.646 E1.95764 ; skirt
G1 X101.467 Y121.525 E1.97989 ; skirt
G1 X100.706 Y121.396 E1.99363 ; skirt
G1 X99.833 Y121.206 E2.00950 ; skirt
G1 X99.128 Y121.010 E2.02250 ; skirt
G1 X97.955 Y120.612 E2.04454 ; skirt
G1 X97.169 Y120.286 E2.05966 ; skirt
G1 X96.057 Y119.738 E2.08169 ; skirt
G1 X95.321 Y119.313 E2.09681 ; skirt
G1 X94.290 Y118.624 E2.11885 ; skirt
G1 X93.615 Y118.106 E2.13397 ; skirt
G1 X92.683 Y117.289 E2.15600 ; skirt
G1 X92.082 Y116.688 E2.17113 ; skirt
G1 X91.265 Y115.756 E2.19316 ; skirt
G1 X90.747 Y115.081 E2.20828 ; skirt
G1 X89.836 Y113.693 E2.23780 ; skirt
G1 X81.223 Y98.774 E2.54405 ; skirt
G1 X80.354 Y95.540 E2.60359 ; skirt
G1 X80.352 Y85.809 E2.77657 ; skirt
G1 X80.757 Y83.574 E2.81696 ; skirt
G1 X81.876 Y81.665 E2.85629 ; skirt
G1 E2.35629 F420.00000 ; retract extruder 0
G92 E0 ; reset extrusion distance
G1 X107.235 Y109.450 F6000.000 ; move to first perimeter point
G1 E0.50000 F420.00000 ; unretract extruder 0
G1 F1500
G1 X106.407 Y110.090 E0.51861 ; perimeter
G1 X105.468 Y110.551 E0.53722 ; perimeter
G1 X104.454 Y110.814 E0.55583 ; perimeter
G1 X103.409 Y110.867 E0.57443 ; perimeter
G1 X102.374 Y110.708 E0.59304 ; perimeter
G1 X101.393 Y110.345 E0.61165 ; perimeter
G1 X100.504 Y109.791 E0.63026 ; perimeter
G1 X99.746 Y109.070 E0.64887 ; perimeter
G1 X99.148 Y108.211 E0.66748 ; perimeter
G1 X98.735 Y107.249 E0.68608 ; perimeter
G1 X98.524 Y106.224 E0.70469 ; perimeter
G1 X98.524 Y105.177 E0.72330 ; perimeter
G1 X98.735 Y104.152 E0.74191 ; perimeter
G1 X99.148 Y103.190 E0.76052 ; perimeter
G1 X99.746 Y102.331 E0.77913 ; perimeter
G1 X100.504 Y101.609 E0.79773 ; perimeter
G1 X101.397 Y101.053 E0.81643 ; perimeter
G1 X102.412 Y100.686 E0.83562 ; perimeter
G1 X103.409 Y100.534 E0.85355 ; perimeter
G1 X104.454 Y100.587 E0.87216 ; perimeter
G1 X105.468 Y100.849 E0.89076 ; perimeter
G1 X106.407 Y101.310 E0.90937 ; perimeter
G1 X107.235 Y101.951 E0.92798 ; perimeter
G1 X107.917 Y102.745 E0.94659 ; perimeter
G1 X108.425 Y103.660 E0.96520 ; perimeter
G1 X108.738 Y104.659 E0.98381 ; perimeter
G1 X108.844 Y105.700 E1.00242 ; perimeter
G1 X108.738 Y106.742 E1.02102 ; perimeter
G1 X108.425 Y107.740 E1.03963 ; perimeter
G1 X107.917 Y108.655 E1.05824 ; perimeter
G1 X107.274 Y109.404 E1.07578 ; perimeter
G1 X106.887 Y109.083 F6000.000 ; move to first perimeter point
G1 F1500
G1 X106.140 Y109.662 E1.09257 ; perimeter
G1 X105.292 Y110.078 E1.10936 ; perimeter
G1 X104.378 Y110.314 E1.12616 ; perimeter
G1 X103.435 Y110.362 E1.14295 ; perimeter
G1 X102.501 Y110.219 E1.15974 ; perimeter
G1 X101.615 Y109.891 E1.17653 ; perimeter
G1 X100.814 Y109.391 E1.19332 ; perimeter
G1 X100.129 Y108.741 E1.21011 ; perimeter
G1 X99.590 Y107.966 E1.22690 ; perimeter
G1 X99.217 Y107.098 E1.24369 ; perimeter
G1 X99.027 Y106.172 E1.26048 ; perimeter
G1 X99.027 Y105.228 E1.27727 ; perimeter
G1 X99.217 Y104.303 E1.29407 ; perimeter
G1 X99.590 Y103.435 E1.31086 ; perimeter
G1 X100.129 Y102.660 E1.32765 ; perimeter
G1 X100.814 Y102.009 E1.34444 ; perimeter
G1 X101.618 Y101.508 E1.36128 ; perimeter
G1 X102.537 Y101.176 E1.37866 ; perimeter
G1 X103.435 Y101.038 E1.39480 ; perimeter
G1 X104.378 Y101.086 E1.41159 ; perimeter
G1 X105.292 Y101.323 E1.42838 ; perimeter
G1 X106.140 Y101.739 E1.44517 ; perimeter
G1 X106.887 Y102.317 E1.46196 ; perimeter
G1 X107.502 Y103.034 E1.47875 ; perimeter
G1 X107.961 Y103.859 E1.49555 ; perimeter
G1 X108.243 Y104.761 E1.51234 ; perimeter
G1 X108.339 Y105.700 E1.52913 ; perimeter
G1 X108.243 Y106.640 E1.54592 ; perimeter
G1 X107.961 Y107.541 E1.56271 ; perimeter
G1 X107.502 Y108.367 E1.57950 ; perimeter
G1 X106.926 Y109.038 E1.59522 ; perimeter
G1 X106.579 Y108.760 F6000.000 ; move to first perimeter point
G1 F1500
G1 X105.904 Y109.282 E1.60689 ; perimeter
G1 X105.137 Y109.659 E1.61857 ; perimeter
G1 X104.310 Y109.873 E1.63024 ; perimeter
G1 X103.457 Y109.916 E1.64191 ; perimeter
G1 X102.613 Y109.787 E1.65358 ; perimeter
G1 X101.812 Y109.490 E1.66525 ; perimeter
G1 X101.087 Y109.038 E1.67692 ; perimeter
G1 X100.468 Y108.450 E1.68859 ; perimeter
G1 X99.980 Y107.749 E1.70026 ; perimeter
G1 X99.643 Y106.964 E1.71193 ; perimeter
G1 X99.471 Y106.127 E1.72360 ; perimeter
G1 X99.471 Y105.273 E1.73527 ; perimeter
G1 X99.643 Y104.437 E1.74694 ; perimeter
G1 X99.980 Y103.652 E1.75861 ; perimeter
G1 X100.468 Y102.951 E1.77028 ; perimeter
G1 X101.087 Y102.362 E1.78195 ; perimeter
G1 X101.813 Y101.910 E1.79364 ; perimeter
G1 X102.647 Y101.609 E1.80576 ; perimeter
G1 X103.457 Y101.484 E1.81696 ; perimeter
G1 X104.310 Y101.528 E1.82863 ; perimeter
G1 X105.137 Y101.742 E1.84030 ; perimeter
G1 X105.904 Y102.118 E1.85197 ; perimeter
G1 X106.579 Y102.641 E1.86364 ; perimeter
G1 X107.136 Y103.289 E1.87531 ; perimeter
G1 X107.550 Y104.036 E1.88698 ; perimeter
G1 X107.806 Y104.850 E1.89865 ; perimeter
G1 X107.892 Y105.700 E1.91032 ; perimeter
G1 X107.806 Y106.550 E1.92199 ; perimeter
G1 X107.550 Y107.365 E1.93366 ; perimeter
G1 X107.136 Y108.112 E1.94533 ; perimeter
G1 X106.618 Y108.714 E1.95618 ; perimeter
G1 X106.579 Y108.760 F6000.000 ; move inwards before travel
G1 E1.45618 F420.00000 ; retract extruder 0
G92 E0 ; reset extrusion distance
G1 X104.643 Y86.999 F6000.000 ; move to first perimeter point
G1 E0.50000 F420.00000 ; unretract extruder 0
G1 F2100
G1 X104.638 Y90.761 E0.56688 ; perimeter
G1 X110.848 Y101.514 E0.78763 ; perimeter
G1 X111.328 Y102.482 E0.80683 ; perimeter
G1 X111.671 Y103.467 E0.82537 ; perimeter
G1 X111.888 Y104.487 E0.84392 ; perimeter
G1 X111.975 Y105.526 E0.86246 ; perimeter
G1 X111.931 Y106.568 E0.88100 ; perimeter
G1 X111.757 Y107.597 E0.89955 ; perimeter
G1 X111.448 Y108.620 E0.91855 ; perimeter
G1 X111.027 Y109.561 E0.93688 ; perimeter
G1 X110.872 Y109.843 E0.94261 ; perimeter
G1 X110.487 Y110.450 E0.95538 ; perimeter
G1 X110.267 Y110.750 E0.96199 ; perimeter
G1 X109.839 Y111.265 E0.97388 ; perimeter
G1 X109.550 Y111.570 E0.98137 ; perimeter
G1 X109.096 Y111.992 E0.99238 ; perimeter
G1 X108.731 Y112.289 E1.00075 ; perimeter
G1 X108.267 Y112.620 E1.01089 ; perimeter
G1 X107.825 Y112.895 E1.02014 ; perimeter
G1 X107.366 Y113.141 E1.02939 ; perimeter
G1 X106.847 Y113.376 E1.03952 ; perimeter
G1 X106.407 Y113.544 E1.04789 ; perimeter
G1 X105.815 Y113.726 E1.05890 ; perimeter
G1 X105.406 Y113.825 E1.06639 ; perimeter
G1 X104.746 Y113.938 E1.07829 ; perimeter
G1 X104.377 Y113.978 E1.08489 ; perimeter
G1 X103.659 Y114.008 E1.09767 ; perimeter
G1 X103.337 Y114.001 E1.10339 ; perimeter
G1 X102.571 Y113.935 E1.11705 ; perimeter
G1 X102.302 Y113.894 E1.12189 ; perimeter
G1 X101.531 Y113.726 E1.13591 ; perimeter
G1 X100.493 Y113.374 E1.15542 ; perimeter
G1 X99.518 Y112.893 E1.17473 ; perimeter
G1 X98.615 Y112.289 E1.19405 ; perimeter
G1 X97.798 Y111.573 E1.21336 ; perimeter
G1 X97.082 Y110.756 E1.23267 ; perimeter
G1 X96.457 Y109.821 E1.25267 ; perimeter
G1 X88.024 Y95.213 E1.55253 ; perimeter
G1 X88.022 Y86.999 E1.69857 ; perimeter
G1 X104.583 Y86.999 E1.99297 ; perimeter
G1 X105.145 Y86.496 F6000.000 ; move to first perimeter point
G1 F2100
G1 X105.141 Y90.626 E2.06639 ; perimeter
G1 X111.291 Y101.277 E2.28503 ; perimeter
G1 X111.792 Y102.286 E2.30507 ; perimeter
G1 X112.156 Y103.331 E2.32474 ; perimeter
G1 X112.386 Y104.413 E2.34440 ; perimeter
G1 X112.478 Y105.516 E2.36407 ; perimeter
G1 X112.432 Y106.621 E2.38374 ; perimeter
G1 X112.248 Y107.712 E2.40341 ; perimeter
G1 X111.924 Y108.785 E2.42334 ; perimeter
G1 X111.814 Y109.064 E2.42866 ; perimeter
G1 X111.475 Y109.789 E2.44289 ; perimeter
G1 X111.304 Y110.099 E2.44919 ; perimeter
G1 X110.902 Y110.733 E2.46254 ; perimeter
G1 X110.664 Y111.059 E2.46972 ; perimeter
G1 X110.215 Y111.599 E2.48219 ; perimeter
G1 X109.903 Y111.928 E2.49025 ; perimeter
G1 X109.426 Y112.371 E2.50183 ; perimeter
G1 X109.036 Y112.689 E2.51078 ; perimeter
G1 X108.546 Y113.039 E2.52148 ; perimeter
G1 X108.076 Y113.330 E2.53131 ; perimeter
G1 X107.589 Y113.591 E2.54113 ; perimeter
G1 X107.041 Y113.841 E2.55184 ; perimeter
G1 X106.571 Y114.020 E2.56078 ; perimeter
G1 X105.948 Y114.211 E2.57237 ; perimeter
G1 X105.507 Y114.317 E2.58043 ; perimeter
G1 X104.816 Y114.436 E2.59290 ; perimeter
G1 X104.414 Y114.479 E2.60008 ; perimeter
G1 X103.664 Y114.511 E2.61343 ; perimeter
G1 X103.310 Y114.503 E2.61972 ; perimeter
G1 X102.512 Y114.434 E2.63395 ; perimeter
G1 X102.211 Y114.389 E2.63937 ; perimeter
G1 X101.397 Y114.211 E2.65419 ; perimeter
G1 X100.300 Y113.839 E2.67478 ; perimeter
G1 X99.266 Y113.329 E2.69527 ; perimeter
G1 X98.308 Y112.689 E2.71575 ; perimeter
G1 X97.442 Y111.929 E2.73624 ; perimeter
G1 X96.682 Y111.063 E2.75672 ; perimeter
G1 X96.030 Y110.087 E2.77760 ; perimeter
G1 X87.521 Y95.348 E3.08015 ; perimeter
G1 X87.520 Y86.496 E3.23751 ; perimeter
G1 X105.085 Y86.496 E3.54978 ; perimeter
G1 X105.588 Y86.052 F6000.000 ; move to first perimeter point
G1 F1050
G1 X105.586 Y90.508 E3.61066 ; perimeter
G1 X111.683 Y101.067 E3.77727 ; perimeter
G1 X112.203 Y102.114 E3.79324 ; perimeter
G1 X112.585 Y103.211 E3.80912 ; perimeter
G1 X112.826 Y104.348 E3.82501 ; perimeter
G1 X112.924 Y105.506 E3.84089 ; perimeter
G1 X112.875 Y106.668 E3.85677 ; perimeter
G1 X112.681 Y107.814 E3.87265 ; perimeter
G1 X112.344 Y108.931 E3.88860 ; perimeter
G1 X112.223 Y109.239 E3.89313 ; perimeter
G1 X111.872 Y109.990 E3.90445 ; perimeter
G1 X111.687 Y110.326 E3.90968 ; perimeter
G1 X111.270 Y110.984 E3.92033 ; perimeter
G1 X111.015 Y111.333 E3.92624 ; perimeter
G1 X110.548 Y111.894 E3.93621 ; perimeter
G1 X110.216 Y112.244 E3.94280 ; perimeter
G1 X109.718 Y112.707 E3.95210 ; perimeter
G1 X109.306 Y113.042 E3.95936 ; perimeter
G1 X108.792 Y113.409 E3.96798 ; perimeter
G1 X108.299 Y113.715 E3.97592 ; perimeter
G1 X107.786 Y113.990 E3.98386 ; perimeter
G1 X107.212 Y114.251 E3.99248 ; perimeter
G1 X106.715 Y114.440 E3.99974 ; perimeter
G1 X106.065 Y114.640 E4.00904 ; perimeter
G1 X105.597 Y114.753 E4.01562 ; perimeter
G1 X104.877 Y114.876 E4.02560 ; perimeter
G1 X104.447 Y114.923 E4.03150 ; perimeter
G1 X103.669 Y114.955 E4.04215 ; perimeter
G1 X103.286 Y114.947 E4.04738 ; perimeter
G1 X102.460 Y114.876 E4.05871 ; perimeter
G1 X102.131 Y114.826 E4.06326 ; perimeter
G1 X101.278 Y114.640 E4.07519 ; perimeter
G1 X100.129 Y114.250 E4.09176 ; perimeter
G1 X99.044 Y113.715 E4.10830 ; perimeter
G1 X98.037 Y113.042 E4.12485 ; perimeter
G1 X97.339 Y112.431 E4.13753 ; perimeter
G1 X97.127 Y112.244 E4.14139 ; perimeter
G1 X96.329 Y111.334 E4.15793 ; perimeter
G1 X95.652 Y110.322 E4.17457 ; perimeter
G1 X87.077 Y95.467 E4.40894 ; perimeter
G1 X87.075 Y86.052 E4.53760 ; perimeter
G1 X105.528 Y86.052 E4.78974 ; perimeter
G1 X105.445 Y86.425 F6000.000 ; move inwards before travel
G1 E4.28974 F420.00000 ; retract extruder 0
G92 E0 ; reset extrusion distance
G1 X88.525 Y87.577 F6000.000 ; move to first infill point
G1 E0.50000 F420.00000 ; unretract extruder 0
G1 F2700
G1 X88.525 Y88.244 E0.51203 ; infill
G1 X88.525 Y87.426 E0.52678 ; infill
G1 X89.035 Y87.426 E0.53598 ; infill
G1 X89.035 Y96.035 E0.69124 ; infill
G1 X89.545 Y96.919 E0.70964 ; infill
G1 X89.545 Y87.426 E0.88083 ; infill
G1 X90.055 Y87.426 E0.89003 ; infill
G1 X90.055 Y97.802 E1.07715 ; infill
G1 X90.565 Y98.685 E1.09554 ; infill
G1 X90.565 Y87.426 E1.29859 ; infill
G1 X91.075 Y87.426 E1.30779 ; infill
G1 X91.075 Y99.568 E1.52677 ; infill
G1 X91.585 Y100.452 E1.54516 ; infill
G1 X91.585 Y87.426 E1.78007 ; infill
G1 X92.095 Y87.426 E1.78927 ; infill
G1 X92.095 Y101.335 E2.04010 ; infill
G1 X92.605 Y102.218 E2.05850 ; infill
G1 X92.605 Y87.426 E2.32526 ; infill
G1 X93.114 Y87.426 E2.33446 ; infill
G1 X93.114 Y103.102 E2.61716 ; infill
G1 X93.624 Y103.985 E2.63555 ; infill
G1 X93.624 Y87.426 E2.93418 ; infill
G1 X94.134 Y87.426 E2.94337 ; infill
G1 X94.134 Y104.868 E3.25793 ; infill
G1 X94.644 Y105.751 E3.27632 ; infill
G1 X94.644 Y87.426 E3.60680 ; infill
G1 X95.154 Y87.426 E3.61600 ; infill
G1 X95.154 Y106.635 E3.96241 ; infill
G1 X95.664 Y107.518 E3.98080 ; infill
G1 X95.664 Y87.426 E4.34315 ; infill
G1 X96.174 Y87.426 E4.35234 ; infill
G1 X96.174 Y108.401 E4.73061 ; infill
G1 X96.684 Y109.284 E4.74901 ; infill
G1 X96.684 Y87.426 E5.14321 ; infill
G1 X97.194 Y87.426 E5.15240 ; infill
G1 X97.194 Y110.095 E5.56122 ; infill
G1 X97.481 Y110.525 E5.57055 ; infill
G1 X97.704 Y110.779 E5.57663 ; infill
G1 X97.704 Y87.426 E5.99778 ; infill
G1 X98.214 Y87.426 E6.00698 ; infill
G1 X98.214 Y104.267 E6.31070 ; infill
G1 X98.253 Y104.076 E6.31423 ; infill
G1 X98.723 Y102.995 E6.33549 ; infill
G1 X98.723 Y87.426 E6.61626 ; infill
G1 X99.233 Y87.426 E6.62546 ; infill
G1 X99.233 Y102.262 E6.89302 ; infill
G1 X99.362 Y102.077 E6.89709 ; infill
G1 X99.743 Y101.715 E6.90657 ; infill
G1 X99.743 Y87.426 E7.16426 ; infill
G1 X100.253 Y87.426 E7.17345 ; infill
G1 X100.253 Y101.249 E7.42274 ; infill
G1 X100.763 Y100.931 E7.43358 ; infill
G1 X100.763 Y87.426 E7.67713 ; infill
G1 X101.273 Y87.426 E7.68633 ; infill
G1 X101.273 Y100.639 E7.92461 ; infill
G1 X101.783 Y100.455 E7.93439 ; infill
G1 X101.783 Y87.426 E8.16935 ; infill
G1 X102.293 Y87.426 E8.17855 ; infill
G1 X102.293 Y100.272 E8.41021 ; infill
G1 X102.803 Y100.193 E8.41951 ; infill
G1 X102.803 Y87.426 E8.64976 ; infill
G1 X103.313 Y87.426 E8.65896 ; infill
G1 X103.313 Y100.115 E8.88780 ; infill
G1 X103.823 Y100.127 E8.89700 ; infill
G1 X103.823 Y87.426 E9.12605 ; infill
G1 X104.139 Y87.426 E9.13176 ; infill
G1 X104.136 Y90.820 E9.19296 ; infill
G1 X104.333 Y91.161 E9.20006 ; infill
G1 X104.333 Y100.153 E9.36223 ; infill
G1 X104.531 Y100.163 E9.36581 ; infill
G1 X104.842 Y100.243 E9.37161 ; infill
G1 X104.842 Y92.044 E9.51948 ; infill
G1 X105.352 Y92.927 E9.53787 ; infill
G1 X105.352 Y100.375 E9.67220 ; infill
G1 X105.643 Y100.451 E9.67762 ; infill
