; generated by Slic3r 1.3.0 on 2019-10-30 at 13:52:23

; external perimeters extrusion width = 0.44mm (3.38mm^3/s)
; perimeters extrusion width = 0.56mm (8.80mm^3/s)
; infill extrusion width = 0.50mm (10.04mm^3/s)
; solid infill extrusion width = 0.56mm (11.31mm^3/s)
; top infill extrusion width = 0.56mm (6.28mm^3/s)

G28 ; home all axes
; Filament gcode

G21 ; set units to millimeters
G90 ; use absolute coordinates
M82 ; use absolute distances for extrusion
G92 E0 ; reset extrusion distance
G1 E-0.50000 F420.00000 ; retract extruder 0
G92 E0 ; reset extrusion distance
G1 Z0.250 F6000.000 ; move to next layer (0)
G1 X84.912 Y83.623 F6000.000 ; move to first skirt point
G1 E0.50000 F420.00000 ; unretract extruder 0
G1 F1800
G1 X85.711 Y82.863 E0.51961 ; skirt
G1 X86.032 Y82.584 E0.52717 ; skirt
G1 X86.780 Y81.992 E0.54413 ; skirt
G1 X87.305 Y81.617 E0.55559 ; skirt
G1 X88.165 Y81.067 E0.57374 ; skirt
G1 X89.043 Y80.582 E0.59158 ; skirt
G1 X89.425 Y80.393 E0.59915 ; skirt
G1 X90.389 Y79.969 E0.61787 ; skirt
G1 X91.301 Y79.636 E0.63513 ; skirt
G1 X91.965 Y79.432 E0.64748 ; skirt
G1 X92.841 Y79.208 E0.66356 ; skirt
G1 X93.258 Y79.123 E0.67112 ; skirt
G1 X93.991 Y78.997 E0.68435 ; skirt
G1 X94.840 Y78.892 E0.69955 ; skirt
G1 X95.264 Y78.861 E0.70711 ; skirt
G1 X96.465 Y78.823 E0.72848 ; skirt
G1 X97.287 Y78.854 E0.74310 ; skirt
G1 X98.127 Y78.927 E0.75809 ; skirt
G1 X98.876 Y79.027 E0.77152 ; skirt
G1 X99.394 Y79.126 E0.78090 ; skirt
G1 X100.553 Y79.398 E0.80205 ; skirt
G1 X101.334 Y79.634 E0.81657 ; skirt
G1 X102.450 Y80.049 E0.83773 ; skirt
G1 X103.196 Y80.381 E0.85224 ; skirt
G1 X103.429 Y80.503 E0.85693 ; skirt
G1 X104.250 Y80.932 E0.87340 ; skirt
G1 X104.949 Y81.355 E0.88791 ; skirt
G1 X105.926 Y82.034 E0.90907 ; skirt
G1 X106.566 Y82.541 E0.92359 ; skirt
G1 X107.450 Y83.338 E0.94474 ; skirt
G1 X108.021 Y83.921 E0.95926 ; skirt
G1 X108.799 Y84.822 E0.98041 ; skirt
G1 X109.293 Y85.472 E0.99493 ; skirt
G1 X110.165 Y86.808 E1.02330 ; skirt
G1 X118.777 Y101.722 E1.32946 ; skirt
G1 X119.648 Y104.972 E1.38927 ; skirt
G1 X119.644 Y114.677 E1.56181 ; skirt
G1 X119.242 Y116.913 E1.60220 ; skirt
G1 X118.096 Y118.875 E1.64259 ; skirt
G1 X116.345 Y120.323 E1.68299 ; skirt
G1 X113.141 Y121.167 E1.74189 ; skirt
G1 X94.196 Y121.167 E2.07868 ; skirt
G1 X91.959 Y120.770 E2.11908 ; skirt
G1 X89.995 Y119.628 E2.15947 ; skirt
G1 X88.175 Y117.119 E2.21456 ; skirt
G1 X81.554 Y100.881 E2.52633 ; skirt
G1 X81.019 Y99.342 E2.55528 ; skirt
G1 X80.799 Y98.520 E2.57040 ; skirt
G1 X80.557 Y97.305 E2.59244 ; skirt
G1 X80.446 Y96.462 E2.60756 ; skirt
G1 X80.365 Y95.225 E2.62959 ; skirt
G1 X80.365 Y94.374 E2.64472 ; skirt
G1 X80.446 Y93.137 E2.66675 ; skirt
G1 X80.557 Y92.294 E2.68187 ; skirt
G1 X80.799 Y91.078 E2.70391 ; skirt
G1 X80.982 Y90.370 E2.71691 ; skirt
G1 X81.253 Y89.520 E2.73278 ; skirt
G1 X81.523 Y88.795 E2.74652 ; skirt
G1 X82.041 Y87.656 E2.76877 ; skirt
G1 X82.425 Y86.929 E2.78339 ; skirt
G1 X83.058 Y85.908 E2.80475 ; skirt
G1 X83.561 Y85.195 E2.82025 ; skirt
G1 X84.288 Y84.301 E2.84074 ; skirt
G1 X84.871 Y83.667 E2.85606 ; skirt
G1 E2.35606 F420.00000 ; retract extruder 0
G92 E0 ; reset extrusion distance
G1 X111.770 Y113.668 F6000.000 ; move to first perimeter point
G1 E0.50000 F420.00000 ; unretract extruder 0
G1 F1500
G1 X111.505 Y113.903 E0.50485 ; perimeter
G1 X111.191 Y114.068 E0.50970 ; perimeter
G1 X110.846 Y114.153 E0.51454 ; perimeter
G1 X110.491 Y114.153 E0.51939 ; perimeter
G1 X110.147 Y114.068 E0.52424 ; perimeter
G1 X109.833 Y113.903 E0.52909 ; perimeter
G1 X109.567 Y113.668 E0.53393 ; perimeter
G1 X109.365 Y113.375 E0.53880 ; perimeter
G1 X109.238 Y113.030 E0.54381 ; perimeter
G1 X109.197 Y112.692 E0.54847 ; perimeter
G1 X109.240 Y112.340 E0.55332 ; perimeter
G1 X109.366 Y112.008 E0.55817 ; perimeter
G1 X109.567 Y111.716 E0.56301 ; perimeter
G1 X109.833 Y111.481 E0.56786 ; perimeter
G1 X110.147 Y111.316 E0.57271 ; perimeter
G1 X110.491 Y111.231 E0.57756 ; perimeter
G1 X110.846 Y111.231 E0.58241 ; perimeter
G1 X111.192 Y111.316 E0.58727 ; perimeter
G1 X111.515 Y111.490 E0.59228 ; perimeter
G1 X111.770 Y111.716 E0.59694 ; perimeter
G1 X111.972 Y112.008 E0.60179 ; perimeter
G1 X112.098 Y112.340 E0.60664 ; perimeter
G1 X112.140 Y112.692 E0.61149 ; perimeter
G1 X112.098 Y113.044 E0.61633 ; perimeter
G1 X111.972 Y113.376 E0.62118 ; perimeter
G1 X111.804 Y113.618 E0.62521 ; perimeter
G1 X111.770 Y113.668 F6000.000 ; move inwards before travel
G1 E0.12521 F420.00000 ; retract extruder 0
G92 E0 ; reset extrusion distance
G1 X98.140 Y112.692 F6000.000 ; move to first perimeter point
G1 E0.50000 F420.00000 ; unretract extruder 0
G1 F1500
G1 X98.098 Y113.044 E0.50485 ; perimeter
G1 X97.972 Y113.376 E0.50970 ; perimeter
G1 X97.770 Y113.668 E0.51454 ; perimeter
G1 X97.505 Y113.903 E0.51939 ; perimeter
G1 X97.191 Y114.068 E0.52424 ; perimeter
G1 X96.846 Y114.153 E0.52909 ; perimeter
G1 X96.491 Y114.153 E0.53393 ; perimeter
G1 X96.147 Y114.068 E0.53878 ; perimeter
G1 X95.833 Y113.903 E0.54363 ; perimeter
G1 X95.567 Y113.668 E0.54848 ; perimeter
G1 X95.366 Y113.376 E0.55332 ; perimeter
G1 X95.240 Y113.044 E0.55817 ; perimeter
G1 X95.197 Y112.692 E0.56302 ; perimeter
G1 X95.240 Y112.340 E0.56787 ; perimeter
G1 X95.366 Y112.008 E0.57271 ; perimeter
G1 X95.567 Y111.716 E0.57756 ; perimeter
G1 X95.833 Y111.481 E0.58241 ; perimeter
G1 X96.147 Y111.316 E0.58726 ; perimeter
G1 X96.491 Y111.231 E0.59211 ; perimeter
G1 X96.846 Y111.231 E0.59695 ; perimeter
G1 X97.191 Y111.316 E0.60180 ; perimeter
G1 X97.505 Y111.481 E0.60665 ; perimeter
G1 X97.770 Y111.716 E0.61150 ; perimeter
G1 X97.972 Y112.008 E0.61634 ; perimeter
G1 X98.098 Y112.340 E0.62119 ; perimeter
G1 X98.133 Y112.632 E0.62522 ; perimeter
G1 X98.140 Y112.692 F6000.000 ; move inwards before travel
G1 E0.12522 F420.00000 ; retract extruder 0
G92 E0 ; reset extrusion distance
G1 X91.117 Y96.877 F6000.000 ; move to first perimeter point
G1 E0.50000 F420.00000 ; unretract extruder 0
G1 F1500
G1 X90.597 Y97.005 E0.50732 ; perimeter
G1 X90.061 Y97.005 E0.51464 ; perimeter
G1 X89.541 Y96.877 E0.52195 ; perimeter
G1 X89.067 Y96.628 E0.52927 ; perimeter
G1 X88.666 Y96.273 E0.53659 ; perimeter
G1 X88.362 Y95.832 E0.54391 ; perimeter
G1 X88.173 Y95.333 E0.55121 ; perimeter
G1 X88.104 Y94.827 E0.55818 ; perimeter
G1 X88.172 Y94.268 E0.56588 ; perimeter
G1 X88.362 Y93.767 E0.57319 ; perimeter
G1 X88.666 Y93.326 E0.58051 ; perimeter
G1 X89.067 Y92.971 E0.58783 ; perimeter
G1 X89.541 Y92.722 E0.59515 ; perimeter
G1 X90.061 Y92.594 E0.60247 ; perimeter
G1 X90.597 Y92.594 E0.60978 ; perimeter
G1 X91.117 Y92.722 E0.61710 ; perimeter
G1 X91.591 Y92.971 E0.62442 ; perimeter
G1 X91.992 Y93.326 E0.63174 ; perimeter
G1 X92.296 Y93.767 E0.63906 ; perimeter
G1 X92.486 Y94.266 E0.64635 ; perimeter
G1 X92.554 Y94.772 E0.65333 ; perimeter
G1 X92.486 Y95.331 E0.66102 ; perimeter
G1 X92.296 Y95.832 E0.66834 ; perimeter
G1 X91.992 Y96.273 E0.67566 ; perimeter
G1 X91.591 Y96.628 E0.68298 ; perimeter
G1 X91.170 Y96.849 E0.68948 ; perimeter
G1 X91.117 Y96.877 F6000.000 ; move inwards before travel
G1 E0.18948 F420.00000 ; retract extruder 0
G92 E0 ; reset extrusion distance
G1 X94.300 Y99.074 F6000.000 ; move to first perimeter point
G1 E0.50000 F420.00000 ; unretract extruder 0
G1 F1500
G1 X94.334 Y99.025 E0.50105 ; perimeter
G1 X94.844 Y98.586 E0.51301 ; perimeter
G1 X95.382 Y98.304 E0.52383 ; perimeter
G1 X96.007 Y98.150 E0.53527 ; perimeter
G1 X96.651 Y98.150 E0.54671 ; perimeter
G1 X97.276 Y98.304 E0.55815 ; perimeter
G1 X97.845 Y98.603 E0.56959 ; perimeter
G1 X98.327 Y99.029 E0.58103 ; perimeter
G1 X98.693 Y99.559 E0.59247 ; perimeter
G1 X98.919 Y100.156 E0.60383 ; perimeter
G1 X99.002 Y100.769 E0.61482 ; perimeter
G1 X98.921 Y101.438 E0.62681 ; perimeter
G1 X98.693 Y102.040 E0.63825 ; perimeter
G1 X98.327 Y102.570 E0.64969 ; perimeter
G1 X97.845 Y102.996 E0.66113 ; perimeter
G1 X97.276 Y103.295 E0.67257 ; perimeter
G1 X96.651 Y103.449 E0.68401 ; perimeter
G1 X96.007 Y103.449 E0.69545 ; perimeter
G1 X95.382 Y103.295 E0.70689 ; perimeter
G1 X94.813 Y102.996 E0.71833 ; perimeter
G1 X94.331 Y102.570 E0.72977 ; perimeter
G1 X93.963 Y102.036 E0.74130 ; perimeter
G1 X93.733 Y101.404 E0.75326 ; perimeter
G1 X93.660 Y100.799 E0.76408 ; perimeter
G1 X93.737 Y100.161 E0.77552 ; perimeter
G1 X93.965 Y99.559 E0.78696 ; perimeter
G1 X94.266 Y99.123 E0.79637 ; perimeter
G1 X94.666 Y99.326 F6000.000 ; move to first perimeter point
G1 F1500
G1 X95.095 Y98.956 E0.80411 ; perimeter
G1 X95.541 Y98.722 E0.81100 ; perimeter
G1 X96.061 Y98.594 E0.81831 ; perimeter
G1 X96.597 Y98.594 E0.82563 ; perimeter
G1 X97.117 Y98.722 E0.83295 ; perimeter
G1 X97.591 Y98.971 E0.84027 ; perimeter
G1 X97.992 Y99.326 E0.84759 ; perimeter
G1 X98.296 Y99.767 E0.85490 ; perimeter
G1 X98.486 Y100.266 E0.86220 ; perimeter
G1 X98.554 Y100.772 E0.86917 ; perimeter
G1 X98.486 Y101.331 E0.87687 ; perimeter
G1 X98.296 Y101.832 E0.88419 ; perimeter
G1 X97.992 Y102.273 E0.89151 ; perimeter
G1 X97.591 Y102.628 E0.89883 ; perimeter
G1 X97.117 Y102.877 E0.90614 ; perimeter
G1 X96.597 Y103.005 E0.91346 ; perimeter
G1 X96.061 Y103.005 E0.92078 ; perimeter
G1 X95.541 Y102.877 E0.92810 ; perimeter
G1 X95.067 Y102.628 E0.93542 ; perimeter
G1 X94.666 Y102.273 E0.94273 ; perimeter
G1 X94.361 Y101.831 E0.95007 ; perimeter
G1 X94.168 Y101.300 E0.95779 ; perimeter
G1 X94.107 Y100.799 E0.96468 ; perimeter
G1 X94.172 Y100.268 E0.97200 ; perimeter
G1 X94.362 Y99.767 E0.97931 ; perimeter
G1 X94.632 Y99.376 E0.98581 ; perimeter
G1 X94.665 Y99.325 F6000.000 ; move inwards before travel
G1 E0.48581 F420.00000 ; retract extruder 0
G92 E0 ; reset extrusion distance
G1 X95.382 Y97.295 F6000.000 ; move to first perimeter point
G1 E0.50000 F420.00000 ; unretract extruder 0
G1 F1500
G1 X94.813 Y96.996 E0.51144 ; perimeter
G1 X94.331 Y96.570 E0.52288 ; perimeter
G1 X93.963 Y96.036 E0.53441 ; perimeter
G1 X93.733 Y95.404 E0.54637 ; perimeter
G1 X93.660 Y94.799 E0.55719 ; perimeter
G1 X93.737 Y94.161 E0.56863 ; perimeter
G1 X93.965 Y93.559 E0.58007 ; perimeter
G1 X94.334 Y93.025 E0.59159 ; perimeter
G1 X94.844 Y92.586 E0.60355 ; perimeter
G1 X95.382 Y92.304 E0.61437 ; perimeter
G1 X96.012 Y92.148 E0.62590 ; perimeter
G1 X96.685 Y92.158 E0.63786 ; perimeter
G1 X97.276 Y92.304 E0.64868 ; perimeter
G1 X97.845 Y92.603 E0.66012 ; perimeter
G1 X98.327 Y93.029 E0.67156 ; perimeter
G1 X98.693 Y93.559 E0.68300 ; perimeter
G1 X98.919 Y94.156 E0.69436 ; perimeter
G1 X99.002 Y94.769 E0.70535 ; perimeter
G1 X98.921 Y95.438 E0.71734 ; perimeter
G1 X98.693 Y96.040 E0.72878 ; perimeter
G1 X98.324 Y96.574 E0.74030 ; perimeter
G1 X97.815 Y97.013 E0.75226 ; perimeter
G1 X97.276 Y97.295 E0.76308 ; perimeter
G1 X96.651 Y97.449 E0.77452 ; perimeter
G1 X96.007 Y97.449 E0.78596 ; perimeter
G1 X95.441 Y97.310 E0.79634 ; perimeter
G1 X95.541 Y96.877 F6000.000 ; move to first perimeter point
G1 F1500
G1 X95.067 Y96.628 E0.80366 ; perimeter
G1 X94.666 Y96.273 E0.81097 ; perimeter
G1 X94.361 Y95.831 E0.81831 ; perimeter
G1 X94.168 Y95.300 E0.82603 ; perimeter
G1 X94.107 Y94.799 E0.83292 ; perimeter
G1 X94.172 Y94.268 E0.84024 ; perimeter
G1 X94.362 Y93.767 E0.84755 ; perimeter
G1 X94.667 Y93.325 E0.85489 ; perimeter
G1 X95.095 Y92.956 E0.86261 ; perimeter
G1 X95.541 Y92.722 E0.86950 ; perimeter
G1 X96.063 Y92.594 E0.87684 ; perimeter
G1 X96.628 Y92.602 E0.88456 ; perimeter
G1 X97.117 Y92.722 E0.89144 ; perimeter
G1 X97.591 Y92.971 E0.89876 ; perimeter
G1 X97.992 Y93.326 E0.90608 ; perimeter
G1 X98.296 Y93.767 E0.91340 ; perimeter
G1 X98.486 Y94.266 E0.92069 ; perimeter
G1 X98.554 Y94.772 E0.92767 ; perimeter
G1 X98.486 Y95.331 E0.93536 ; perimeter
G1 X98.296 Y95.832 E0.94268 ; perimeter
G1 X97.991 Y96.274 E0.95002 ; perimeter
G1 X97.563 Y96.643 E0.95774 ; perimeter
G1 X97.117 Y96.877 E0.96462 ; perimeter
G1 X96.597 Y97.005 E0.97194 ; perimeter
G1 X96.061 Y97.005 E0.97926 ; perimeter
G1 X95.599 Y96.891 E0.98576 ; perimeter
G1 X95.541 Y96.877 F6000.000 ; move inwards before travel
G1 E0.48576 F420.00000 ; retract extruder 0
G92 E0 ; reset extrusion distance
G1 X93.329 Y93.819 F6000.000 ; move to first perimeter point
G1 E0.50000 F420.00000 ; unretract extruder 0
G1 F1500
G1 X93.141 Y93.324 E0.50943 ; perimeter
G1 X92.706 Y92.694 E0.52304 ; perimeter
G1 X92.133 Y92.186 E0.53665 ; perimeter
G1 X91.455 Y91.830 E0.55026 ; perimeter
G1 X90.712 Y91.647 E0.56387 ; perimeter
G1 X89.946 Y91.647 E0.57748 ; perimeter
G1 X89.203 Y91.830 E0.59109 ; perimeter
G1 X88.407 Y92.248 E0.60707 ; perimeter
G1 X88.648 Y91.634 E0.61879 ; perimeter
G1 X88.973 Y90.938 E0.63244 ; perimeter
G1 X89.128 Y90.656 E0.63817 ; perimeter
G1 X89.513 Y90.049 E0.65095 ; perimeter
G1 X89.733 Y89.749 E0.65755 ; perimeter
G1 X90.160 Y89.235 E0.66945 ; perimeter
G1 X90.450 Y88.929 E0.67693 ; perimeter
G1 X90.904 Y88.508 E0.68795 ; perimeter
G1 X91.269 Y88.211 E0.69632 ; perimeter
G1 X91.733 Y87.879 E0.70645 ; perimeter
G1 X92.175 Y87.605 E0.71570 ; perimeter
G1 X92.634 Y87.359 E0.72495 ; perimeter
G1 X93.153 Y87.123 E0.73508 ; perimeter
G1 X93.485 Y86.997 E0.74141 ; perimeter
G1 X93.622 Y87.171 E0.74535 ; perimeter
G1 X93.517 Y87.324 E0.74865 ; perimeter
G1 X93.246 Y88.039 E0.76226 ; perimeter
G1 X93.153 Y88.799 E0.77587 ; perimeter
G1 X93.241 Y89.521 E0.78879 ; perimeter
G1 X93.512 Y90.268 E0.80292 ; perimeter
G1 X93.952 Y90.905 E0.81668 ; perimeter
G1 X94.525 Y91.413 E0.83029 ; perimeter
G1 X95.261 Y91.799 E0.84508 ; perimeter
G1 X94.559 Y92.168 E0.85917 ; perimeter
G1 X93.957 Y92.687 E0.87331 ; perimeter
G1 X93.517 Y93.324 E0.88707 ; perimeter
G1 X93.350 Y93.763 E0.89543 ; perimeter
G1 E0.39543 F420.00000 ; retract extruder 0
G92 E0 ; reset extrusion distance
G1 X97.397 Y91.799 F6000.000 ; move to first perimeter point
G1 E0.50000 F420.00000 ; unretract extruder 0
G1 F1500
G1 X98.133 Y91.413 E0.51478 ; perimeter
G1 X98.706 Y90.905 E0.52839 ; perimeter
G1 X99.141 Y90.275 E0.54200 ; perimeter
G1 X99.412 Y89.559 E0.55561 ; perimeter
G1 X99.505 Y88.799 E0.56922 ; perimeter
G1 X99.412 Y88.039 E0.58283 ; perimeter
G1 X99.141 Y87.324 E0.59644 ; perimeter
G1 X99.051 Y87.193 E0.59928 ; perimeter
G1 X99.186 Y87.018 E0.60321 ; perimeter
G1 X99.707 Y87.212 E0.61309 ; perimeter
G1 X100.632 Y87.695 E0.63163 ; perimeter
G1 X101.488 Y88.290 E0.65017 ; perimeter
G1 X102.263 Y88.988 E0.66872 ; perimeter
G1 X102.945 Y89.778 E0.68726 ; perimeter
G1 X103.542 Y90.677 E0.70646 ; perimeter
G1 X104.332 Y92.044 E0.73452 ; perimeter
G1 X104.175 Y92.208 E0.73855 ; perimeter
G1 X103.455 Y91.830 E0.75300 ; perimeter
G1 X102.712 Y91.647 E0.76661 ; perimeter
G1 X101.946 Y91.647 E0.78022 ; perimeter
G1 X101.203 Y91.830 E0.79383 ; perimeter
G1 X100.559 Y92.168 E0.80676 ; perimeter
G1 X99.957 Y92.687 E0.82089 ; perimeter
G1 X99.517 Y93.324 E0.83465 ; perimeter
G1 X99.329 Y93.819 E0.84408 ; perimeter
G1 X99.141 Y93.324 E0.85350 ; perimeter
G1 X98.706 Y92.694 E0.86711 ; perimeter
G1 X98.133 Y92.186 E0.88073 ; perimeter
G1 X97.450 Y91.827 E0.89444 ; perimeter
G1 E0.39444 F420.00000 ; retract extruder 0
G92 E0 ; reset extrusion distance
G1 X99.965 Y93.559 F6000.000 ; move to first perimeter point
G1 E0.50000 F420.00000 ; unretract extruder 0
G1 F1500
G1 X100.334 Y93.025 E0.51152 ; perimeter
G1 X100.844 Y92.586 E0.52349 ; perimeter
G1 X101.382 Y92.304 E0.53431 ; perimeter
G1 X102.007 Y92.150 E0.54575 ; perimeter
G1 X102.651 Y92.150 E0.55719 ; perimeter
G1 X103.276 Y92.304 E0.56863 ; perimeter
G1 X103.845 Y92.603 E0.58007 ; perimeter
G1 X104.327 Y93.029 E0.59151 ; perimeter
G1 X104.693 Y93.559 E0.60295 ; perimeter
G1 X104.919 Y94.156 E0.61431 ; perimeter
G1 X105.002 Y94.769 E0.62530 ; perimeter
G1 X104.921 Y95.438 E0.63728 ; perimeter
G1 X104.693 Y96.040 E0.64872 ; perimeter
G1 X104.327 Y96.570 E0.66016 ; perimeter
G1 X103.845 Y96.996 E0.67160 ; perimeter
G1 X103.276 Y97.295 E0.68305 ; perimeter
G1 X102.651 Y97.449 E0.69449 ; perimeter
G1 X102.007 Y97.449 E0.70593 ; perimeter
G1 X101.382 Y97.295 E0.71737 ; perimeter
G1 X100.813 Y96.996 E0.72881 ; perimeter
G1 X100.331 Y96.570 E0.74025 ; perimeter
G1 X99.965 Y96.040 E0.75169 ; perimeter
