; generated by Slic3r 1.3.0 on 2019-10-25 at 10:57:31

; external perimeters extrusion width = 0.44mm (3.38mm^3/s)
; perimeters extrusion width = 0.56mm (8.80mm^3/s)
; infill extrusion width = 0.50mm (10.04mm^3/s)
; solid infill extrusion width = 0.56mm (11.31mm^3/s)
; top infill extrusion width = 0.56mm (6.28mm^3/s)

G28 ; home all axes
; Filament gcode

G21 ; set units to millimeters
G90 ; use absolute coordinates
M82 ; use absolute distances for extrusion
G92 E0 ; reset extrusion distance
G1 E-0.50000 F420.00000 ; retract extruder 0
G92 E0 ; reset extrusion distance
G1 Z0.250 F6000.000 ; move to next layer (0)
G1 X62.052 Y72.491 F6000.000 ; move to first skirt point
G1 E0.50000 F420.00000 ; unretract extruder 0
G1 F1800
G1 X63.138 Y71.604 E0.52493 ; skirt
G1 X68.016 Y67.775 E0.63518 ; skirt
G1 X69.056 Y67.124 E0.65700 ; skirt
G1 X69.488 Y66.907 E0.66558 ; skirt
G1 X72.402 Y66.218 E0.71882 ; skirt
G1 X127.598 Y66.218 E1.70008 ; skirt
G1 X130.512 Y66.907 E1.75332 ; skirt
G1 X130.944 Y67.124 E1.76190 ; skirt
G1 X131.978 Y67.770 E1.78358 ; skirt
G1 X136.862 Y71.604 E1.89398 ; skirt
G1 X137.948 Y72.491 E1.91890 ; skirt
G1 X138.491 Y72.989 E1.93198 ; skirt
G1 X139.264 Y73.783 E1.95169 ; skirt
G1 X139.630 Y74.193 E1.96146 ; skirt
G1 X140.402 Y75.168 E1.98357 ; skirt
G1 X140.782 Y75.702 E1.99522 ; skirt
G1 X141.388 Y76.648 E2.01519 ; skirt
G1 X141.655 Y77.105 E2.02460 ; skirt
G1 X142.234 Y78.251 E2.04744 ; skirt
G1 X142.482 Y78.805 E2.05823 ; skirt
G1 X142.903 Y79.880 E2.07875 ; skirt
G1 X143.089 Y80.427 E2.08901 ; skirt
G1 X143.404 Y81.503 E2.10896 ; skirt
G1 X143.536 Y82.036 E2.11872 ; skirt
G1 X143.756 Y83.123 E2.13844 ; skirt
G1 X143.841 Y83.653 E2.14798 ; skirt
G1 X143.974 Y84.778 E2.16812 ; skirt
G1 X144.013 Y85.465 E2.18035 ; skirt
G1 X144.054 Y122.525 E2.83918 ; skirt
G1 X143.240 Y125.675 E2.89702 ; skirt
G1 X142.061 Y127.804 E2.94029 ; skirt
G1 X141.147 Y129.068 E2.96803 ; skirt
G1 X139.583 Y130.760 E3.00899 ; skirt
G1 X137.319 Y132.344 E3.05811 ; skirt
G1 X136.529 Y132.675 E3.07333 ; skirt
G1 X134.018 Y133.179 E3.11886 ; skirt
G1 X65.981 Y133.179 E4.32841 ; skirt
G1 X63.470 Y132.675 E4.37394 ; skirt
G1 X62.681 Y132.344 E4.38917 ; skirt
G1 X60.417 Y130.760 E4.43828 ; skirt
G1 X58.853 Y129.068 E4.47924 ; skirt
G1 X57.939 Y127.804 E4.50698 ; skirt
G1 X56.760 Y125.675 E4.55025 ; skirt
G1 X55.946 Y122.525 E4.60809 ; skirt
G1 X55.987 Y85.465 E5.26693 ; skirt
G1 X56.026 Y84.777 E5.27917 ; skirt
G1 X56.159 Y83.653 E5.29930 ; skirt
G1 X56.244 Y83.123 E5.30884 ; skirt
G1 X56.464 Y82.036 E5.32856 ; skirt
G1 X56.596 Y81.503 E5.33832 ; skirt
G1 X56.911 Y80.427 E5.35826 ; skirt
G1 X57.097 Y79.880 E5.36852 ; skirt
G1 X57.518 Y78.806 E5.38904 ; skirt
G1 X57.766 Y78.251 E5.39983 ; skirt
G1 X58.341 Y77.113 E5.42250 ; skirt
G1 X58.612 Y76.648 E5.43208 ; skirt
G1 X59.284 Y75.601 E5.45419 ; skirt
G1 X59.598 Y75.168 E5.46370 ; skirt
G1 X60.289 Y74.293 E5.48352 ; skirt
G1 X60.736 Y73.783 E5.49558 ; skirt
G1 X61.509 Y72.989 E5.51529 ; skirt
G1 X62.007 Y72.532 E5.52730 ; skirt
G1 E5.02730 F420.00000 ; retract extruder 0
G92 E0 ; reset extrusion distance
G1 X125.164 Y124.416 F6000.000 ; move to first perimeter point
G1 E0.50000 F420.00000 ; unretract extruder 0
G1 F2100
G1 X74.835 Y124.416 E1.39474 ; perimeter
G1 X74.835 Y86.087 E2.07614 ; perimeter
G1 X125.164 Y86.087 E2.97088 ; perimeter
G1 X125.164 Y124.356 E3.65122 ; perimeter
G1 X124.720 Y123.972 F6000.000 ; move to first perimeter point
G1 F1050
G1 X75.280 Y123.972 E4.32678 ; perimeter
G1 X75.280 Y86.532 E4.83837 ; perimeter
G1 X124.720 Y86.532 E5.51394 ; perimeter
G1 X124.720 Y123.912 E6.02471 ; perimeter
G1 X124.841 Y124.353 F6000.000 ; move inwards before travel
G1 E5.52471 F420.00000 ; retract extruder 0
G92 E0 ; reset extrusion distance
G1 X96.084 Y79.374 F6000.000 ; move to first perimeter point
G1 E0.50000 F420.00000 ; unretract extruder 0
G1 F1500
G1 X95.746 Y79.554 E0.50680 ; perimeter
G1 X95.381 Y79.665 E0.51360 ; perimeter
G1 X95.000 Y79.702 E0.52039 ; perimeter
G1 X94.619 Y79.665 E0.52719 ; perimeter
G1 X94.254 Y79.554 E0.53399 ; perimeter
G1 X93.916 Y79.374 E0.54079 ; perimeter
G1 X93.621 Y79.131 E0.54759 ; perimeter
G1 X93.378 Y78.836 E0.55438 ; perimeter
G1 X93.198 Y78.498 E0.56118 ; perimeter
G1 X93.087 Y78.132 E0.56798 ; perimeter
G1 X93.049 Y77.752 E0.57478 ; perimeter
G1 X93.087 Y77.371 E0.58157 ; perimeter
G1 X93.198 Y77.005 E0.58837 ; perimeter
G1 X93.378 Y76.668 E0.59517 ; perimeter
G1 X93.621 Y76.373 E0.60197 ; perimeter
G1 X93.916 Y76.130 E0.60876 ; perimeter
G1 X94.254 Y75.950 E0.61556 ; perimeter
G1 X94.619 Y75.839 E0.62236 ; perimeter
G1 X95.000 Y75.801 E0.62916 ; perimeter
G1 X95.381 Y75.839 E0.63595 ; perimeter
G1 X95.746 Y75.950 E0.64275 ; perimeter
G1 X96.084 Y76.130 E0.64955 ; perimeter
G1 X96.379 Y76.373 E0.65635 ; perimeter
G1 X96.622 Y76.668 E0.66315 ; perimeter
G1 X96.802 Y77.005 E0.66994 ; perimeter
G1 X96.913 Y77.371 E0.67674 ; perimeter
G1 X96.951 Y77.752 E0.68354 ; perimeter
G1 X96.913 Y78.132 E0.69034 ; perimeter
G1 X96.802 Y78.498 E0.69713 ; perimeter
G1 X96.622 Y78.836 E0.70393 ; perimeter
G1 X96.379 Y79.131 E0.71073 ; perimeter
G1 X96.130 Y79.336 E0.71646 ; perimeter
G1 X95.836 Y79.002 F6000.000 ; move to first perimeter point
G1 F1500
G1 X95.576 Y79.141 E0.72049 ; perimeter
G1 X95.293 Y79.227 E0.72452 ; perimeter
G1 X95.000 Y79.256 E0.72855 ; perimeter
G1 X94.707 Y79.227 E0.73257 ; perimeter
G1 X94.424 Y79.141 E0.73660 ; perimeter
G1 X94.164 Y79.002 E0.74063 ; perimeter
G1 X93.937 Y78.815 E0.74466 ; perimeter
G1 X93.750 Y78.587 E0.74869 ; perimeter
G1 X93.611 Y78.327 E0.75272 ; perimeter
G1 X93.525 Y78.045 E0.75675 ; perimeter
G1 X93.496 Y77.752 E0.76077 ; perimeter
G1 X93.525 Y77.458 E0.76480 ; perimeter
G1 X93.611 Y77.176 E0.76883 ; perimeter
G1 X93.750 Y76.916 E0.77286 ; perimeter
G1 X93.937 Y76.689 E0.77689 ; perimeter
G1 X94.164 Y76.501 E0.78092 ; perimeter
G1 X94.424 Y76.362 E0.78494 ; perimeter
G1 X94.707 Y76.277 E0.78897 ; perimeter
G1 X95.000 Y76.248 E0.79300 ; perimeter
G1 X95.293 Y76.277 E0.79703 ; perimeter
G1 X95.575 Y76.362 E0.80106 ; perimeter
G1 X95.836 Y76.501 E0.80509 ; perimeter
G1 X96.063 Y76.688 E0.80912 ; perimeter
G1 X96.250 Y76.916 E0.81314 ; perimeter
G1 X96.389 Y77.176 E0.81717 ; perimeter
G1 X96.475 Y77.458 E0.82120 ; perimeter
G1 X96.504 Y77.752 E0.82523 ; perimeter
G1 X96.475 Y78.045 E0.82926 ; perimeter
G1 X96.389 Y78.327 E0.83329 ; perimeter
G1 X96.250 Y78.587 E0.83731 ; perimeter
G1 X96.063 Y78.815 E0.84134 ; perimeter
G1 X95.882 Y78.964 E0.84455 ; perimeter
G1 X95.836 Y79.002 F6000.000 ; move inwards before travel
G1 E0.34455 F420.00000 ; retract extruder 0
G92 E0 ; reset extrusion distance
G1 X103.087 Y78.132 F6000.000 ; move to first perimeter point
G1 E0.50000 F420.00000 ; unretract extruder 0
G1 F1500
G1 X103.049 Y77.752 E0.50680 ; perimeter
G1 X103.087 Y77.371 E0.51360 ; perimeter
G1 X103.198 Y77.005 E0.52039 ; perimeter
G1 X103.378 Y76.668 E0.52719 ; perimeter
G1 X103.621 Y76.373 E0.53399 ; perimeter
G1 X103.916 Y76.130 E0.54079 ; perimeter
G1 X104.254 Y75.950 E0.54759 ; perimeter
G1 X104.619 Y75.839 E0.55438 ; perimeter
G1 X105.000 Y75.801 E0.56118 ; perimeter
G1 X105.381 Y75.839 E0.56798 ; perimeter
G1 X105.746 Y75.950 E0.57478 ; perimeter
G1 X106.084 Y76.130 E0.58157 ; perimeter
G1 X106.379 Y76.373 E0.58837 ; perimeter
G1 X106.622 Y76.668 E0.59517 ; perimeter
G1 X106.802 Y77.005 E0.60197 ; perimeter
G1 X106.913 Y77.371 E0.60876 ; perimeter
G1 X106.951 Y77.752 E0.61556 ; perimeter
G1 X106.913 Y78.132 E0.62236 ; perimeter
G1 X106.802 Y78.498 E0.62916 ; perimeter
G1 X106.622 Y78.836 E0.63595 ; perimeter
G1 X106.379 Y79.131 E0.64275 ; perimeter
G1 X106.084 Y79.374 E0.64955 ; perimeter
G1 X105.746 Y79.554 E0.65635 ; perimeter
G1 X105.381 Y79.665 E0.66315 ; perimeter
G1 X105.000 Y79.702 E0.66994 ; perimeter
G1 X104.619 Y79.665 E0.67674 ; perimeter
G1 X104.254 Y79.554 E0.68354 ; perimeter
G1 X103.916 Y79.374 E0.69034 ; perimeter
G1 X103.621 Y79.131 E0.69714 ; perimeter
G1 X103.378 Y78.836 E0.70393 ; perimeter
G1 X103.198 Y78.498 E0.71073 ; perimeter
G1 X103.104 Y78.190 E0.71646 ; perimeter
G1 X103.525 Y78.045 F6000.000 ; move to first perimeter point
G1 F1500
G1 X103.496 Y77.752 E0.72049 ; perimeter
G1 X103.525 Y77.458 E0.72452 ; perimeter
G1 X103.611 Y77.176 E0.72855 ; perimeter
G1 X103.750 Y76.916 E0.73258 ; perimeter
G1 X103.937 Y76.688 E0.73660 ; perimeter
G1 X104.164 Y76.501 E0.74063 ; perimeter
G1 X104.424 Y76.362 E0.74466 ; perimeter
G1 X104.707 Y76.277 E0.74869 ; perimeter
G1 X105.000 Y76.248 E0.75272 ; perimeter
G1 X105.293 Y76.277 E0.75675 ; perimeter
G1 X105.575 Y76.362 E0.76077 ; perimeter
G1 X105.836 Y76.501 E0.76480 ; perimeter
G1 X106.063 Y76.688 E0.76883 ; perimeter
G1 X106.250 Y76.916 E0.77286 ; perimeter
G1 X106.389 Y77.176 E0.77689 ; perimeter
G1 X106.475 Y77.458 E0.78092 ; perimeter
G1 X106.504 Y77.752 E0.78495 ; perimeter
G1 X106.475 Y78.045 E0.78897 ; perimeter
G1 X106.389 Y78.327 E0.79300 ; perimeter
G1 X106.250 Y78.587 E0.79703 ; perimeter
G1 X106.063 Y78.815 E0.80106 ; perimeter
G1 X105.836 Y79.002 E0.80509 ; perimeter
G1 X105.576 Y79.141 E0.80912 ; perimeter
G1 X105.293 Y79.227 E0.81314 ; perimeter
G1 X105.000 Y79.256 E0.81717 ; perimeter
G1 X104.707 Y79.227 E0.82120 ; perimeter
G1 X104.424 Y79.141 E0.82523 ; perimeter
G1 X104.164 Y79.002 E0.82926 ; perimeter
G1 X103.937 Y78.815 E0.83329 ; perimeter
G1 X103.750 Y78.587 E0.83732 ; perimeter
G1 X103.611 Y78.327 E0.84134 ; perimeter
G1 X103.542 Y78.103 E0.84455 ; perimeter
G1 X103.525 Y78.045 F6000.000 ; move inwards before travel
G1 E0.34455 F420.00000 ; retract extruder 0
G92 E0 ; reset extrusion distance
G1 X134.027 Y122.668 F6000.000 ; move to first perimeter point
G1 E0.50000 F420.00000 ; unretract extruder 0
G1 F2100
G1 X134.007 Y124.147 E0.52629 ; perimeter
G1 X135.300 Y124.835 E0.55233 ; perimeter
G1 X134.456 Y125.748 E0.57443 ; perimeter
G1 X133.889 Y125.888 E0.58481 ; perimeter
G1 X133.756 Y126.012 E0.58805 ; perimeter
G1 X66.244 Y126.012 E1.78827 ; perimeter
G1 X66.111 Y125.888 E1.79150 ; perimeter
G1 X65.544 Y125.748 E1.80188 ; perimeter
G1 X64.700 Y124.835 E1.82398 ; perimeter
G1 X65.993 Y124.147 E1.85003 ; perimeter
G1 X65.973 Y122.668 E1.87631 ; perimeter
G1 X63.113 Y121.998 E1.92852 ; perimeter
G1 X63.154 Y85.534 E2.57677 ; perimeter
G1 X63.273 Y84.521 E2.59491 ; perimeter
G1 X63.483 Y83.488 E2.61364 ; perimeter
G1 X63.781 Y82.467 E2.63256 ; perimeter
G1 X64.180 Y81.449 E2.65200 ; perimeter
G1 X64.667 Y80.483 E2.67123 ; perimeter
G1 X65.241 Y79.586 E2.69016 ; perimeter
G1 X65.896 Y78.757 E2.70894 ; perimeter
G1 X66.620 Y78.014 E2.72737 ; perimeter
G1 X67.548 Y77.254 E2.74870 ; perimeter
G1 X68.367 Y76.726 E2.76603 ; perimeter
G1 X69.389 Y76.214 E2.78636 ; perimeter
G1 X72.021 Y73.738 E2.85058 ; perimeter
G1 X72.326 Y73.502 E2.85745 ; perimeter
G1 X72.515 Y73.407 E2.86122 ; perimeter
G1 X79.247 Y74.338 E2.98203 ; perimeter
G1 X120.753 Y74.338 E3.71990 ; perimeter
G1 X127.495 Y73.412 E3.84090 ; perimeter
G1 X127.674 Y73.502 E3.84445 ; perimeter
G1 X127.979 Y73.738 E3.85131 ; perimeter
G1 X130.611 Y76.214 E3.91554 ; perimeter
G1 X131.633 Y76.726 E3.93587 ; perimeter
G1 X132.452 Y77.254 E3.95320 ; perimeter
G1 X133.380 Y78.014 E3.97452 ; perimeter
G1 X134.104 Y78.757 E3.99296 ; perimeter
G1 X134.759 Y79.586 E4.01173 ; perimeter
G1 X135.333 Y80.483 E4.03067 ; perimeter
G1 X135.820 Y81.449 E4.04990 ; perimeter
G1 X136.219 Y82.467 E4.06934 ; perimeter
G1 X136.517 Y83.488 E4.08826 ; perimeter
G1 X136.727 Y84.521 E4.10699 ; perimeter
G1 X136.847 Y85.621 E4.12666 ; perimeter
G1 X136.887 Y121.998 E4.77337 ; perimeter
G1 X134.086 Y122.655 E4.82451 ; perimeter
G1 X134.467 Y123.022 F6000.000 ; move to first perimeter point
G1 F1050
G1 X134.455 Y123.882 E4.83626 ; perimeter
G1 X136.017 Y124.714 E4.86046 ; perimeter
G1 X134.692 Y126.148 E4.88714 ; perimeter
G1 X134.108 Y126.292 E4.89536 ; perimeter
G1 X133.932 Y126.456 E4.89865 ; perimeter
G1 X66.068 Y126.456 E5.82596 ; perimeter
G1 X65.892 Y126.292 E5.82926 ; perimeter
G1 X65.308 Y126.148 E5.83747 ; perimeter
G1 X63.983 Y124.714 E5.86416 ; perimeter
G1 X65.545 Y123.882 E5.88835 ; perimeter
G1 X65.533 Y123.022 E5.90010 ; perimeter
G1 X62.669 Y122.350 E5.94031 ; perimeter
G1 X62.709 Y85.508 E6.44373 ; perimeter
G1 X62.834 Y84.451 E6.45828 ; perimeter
G1 X63.051 Y83.381 E6.47319 ; perimeter
G1 X63.360 Y82.323 E6.48825 ; perimeter
G1 X63.774 Y81.267 E6.50375 ; perimeter
G1 X64.280 Y80.262 E6.51913 ; perimeter
G1 X64.879 Y79.328 E6.53429 ; perimeter
G1 X65.562 Y78.464 E6.54934 ; perimeter
G1 X66.319 Y77.686 E6.56417 ; perimeter
G1 X67.286 Y76.895 E6.58124 ; perimeter
G1 X68.146 Y76.340 E6.59524 ; perimeter
G1 X69.132 Y75.845 E6.61030 ; perimeter
G1 X71.732 Y73.400 E6.65908 ; perimeter
G1 X72.089 Y73.124 E6.66524 ; perimeter
G1 X72.440 Y72.948 E6.67060 ; perimeter
G1 X79.278 Y73.894 E6.76493 ; perimeter
G1 X120.722 Y73.894 E7.33124 ; perimeter
G1 X127.572 Y72.953 E7.42571 ; perimeter
G1 X127.911 Y73.124 E7.43091 ; perimeter
G1 X128.268 Y73.400 E7.43707 ; perimeter
G1 X130.868 Y75.845 E7.48584 ; perimeter
G1 X131.854 Y76.340 E7.50091 ; perimeter
G1 X132.714 Y76.895 E7.51490 ; perimeter
G1 X133.681 Y77.686 E7.53198 ; perimeter
G1 X134.438 Y78.464 E7.54680 ; perimeter
G1 X135.121 Y79.328 E7.56185 ; perimeter
G1 X135.720 Y80.262 E7.57702 ; perimeter
G1 X136.226 Y81.267 E7.59239 ; perimeter
G1 X136.640 Y82.323 E7.60789 ; perimeter
G1 X136.949 Y83.381 E7.62296 ; perimeter
G1 X137.166 Y84.451 E7.63787 ; perimeter
G1 X137.291 Y85.619 E7.65393 ; perimeter
G1 X137.331 Y122.350 E8.15583 ; perimeter
G1 X134.525 Y123.008 E8.19521 ; perimeter
G1 X134.114 Y123.210 F6000.000 ; move inwards before travel
G1 X133.857 Y124.561 F6000.000 ; move to first infill point
G1 F2700
G1 X134.362 Y124.830 E8.20545 ; infill
G1 X134.362 Y125.185 E8.21179 ; infill
G1 E7.71179 F420.00000 ; retract extruder 0
G92 E0 ; reset extrusion distance
G1 X136.383 Y121.675 F6000.000 ; move to first infill point
G1 E0.50000 F420.00000 ; unretract extruder 0
G1 F2700
G1 X136.344 Y85.490 E1.14671 ; infill
G1 X136.230 Y84.525 E1.16407 ; infill
G1 X136.029 Y83.534 E1.18215 ; infill
G1 X135.878 Y83.018 E1.19176 ; infill
G1 X135.878 Y121.794 E1.88477 ; infill
G1 X135.373 Y121.912 E1.89405 ; infill
G1 X135.373 Y81.610 E2.61433 ; infill
G1 X134.867 Y80.612 E2.63432 ; infill
G1 X134.867 Y122.030 E3.37455 ; infill
G1 X134.362 Y122.149 E3.38382 ; infill
G1 X134.362 Y79.823 E4.14027 ; infill
G1 X133.857 Y79.180 E4.15489 ; infill
G1 X133.857 Y122.267 E4.92495 ; infill
G1 X133.530 Y122.344 E4.93095 ; infill
G1 X133.500 Y124.522 E4.96987 ; infill
G1 X133.857 Y124.712 E4.97710 ; infill
G1 X133.857 Y125.453 E4.99036 ; infill
G1 X133.641 Y125.506 E4.99432 ; infill
G1 X133.558 Y125.585 E4.99637 ; infill
G1 X133.351 Y125.585 E5.00006 ; infill
G1 X133.351 Y78.630 E5.83925 ; infill
G1 X133.040 Y78.310 E5.84722 ; infill
G1 X132.846 Y78.151 E5.85170 ; infill
G1 X132.846 Y125.585 E6.69945 ; infill
G1 X132.341 Y125.585 E6.70848 ; infill
G1 X132.341 Y77.737 E7.56361 ; infill
G1 X132.156 Y77.586 E7.56789 ; infill
G1 X131.835 Y77.380 E7.57470 ; infill
G1 X131.835 Y125.585 E8.43623 ; infill
G1 X131.330 Y125.585 E8.44526 ; infill
G1 X131.330 Y77.061 E9.31248 ; infill
G1 X130.825 Y76.808 E9.32258 ; infill
G1 X130.825 Y125.585 E10.19433 ; infill
G1 X130.319 Y125.585 E10.20336 ; infill
G1 X130.319 Y76.554 E11.07964 ; infill
G1 X129.814 Y76.079 E11.09204 ; infill
G1 X129.814 Y125.585 E11.97682 ; infill
G1 X129.309 Y125.585 E11.98585 ; infill
G1 X129.309 Y75.603 E12.87913 ; infill
G1 X128.803 Y75.128 E12.89153 ; infill
G1 X128.803 Y125.585 E13.79330 ; infill
G1 X128.298 Y125.585 E13.80233 ; infill
G1 X128.298 Y74.653 E14.71259 ; infill
G1 X127.793 Y74.177 E14.72499 ; infill
G1 X127.793 Y125.585 E15.64375 ; infill
G1 X127.288 Y125.585 E15.65278 ; infill
G1 X127.288 Y73.873 E16.57698 ; infill
G1 X126.782 Y73.942 E16.58610 ; infill
G1 X126.782 Y125.585 E17.50906 ; infill
G1 X126.277 Y125.585 E17.51809 ; infill
G1 X126.277 Y74.012 E18.43981 ; infill
G1 X125.772 Y74.081 E18.44893 ; infill
G1 X125.772 Y125.585 E19.36941 ; infill
