; generated by Slic3r 1.3.0 on 2019-10-30 at 16:46:19

; external perimeters extrusion width = 0.44mm (3.38mm^3/s)
; perimeters extrusion width = 0.56mm (8.80mm^3/s)
; infill extrusion width = 0.50mm (10.04mm^3/s)
; solid infill extrusion width = 0.56mm (11.31mm^3/s)
; top infill extrusion width = 0.56mm (6.28mm^3/s)

G28 ; home all axes
; Filament gcode

G21 ; set units to millimeters
G90 ; use absolute coordinates
M82 ; use absolute distances for extrusion
G92 E0 ; reset extrusion distance
G1 E-0.50000 F420.00000 ; retract extruder 0
G92 E0 ; reset extrusion distance
G1 Z0.250 F6000.000 ; move to next layer (0)
G1 X87.606 Y76.346 F6000.000 ; move to first skirt point
G1 E0.50000 F420.00000 ; unretract extruder 0
G1 F1800
G1 X89.441 Y75.006 E0.54039 ; skirt
G1 X92.300 Y74.344 E0.59256 ; skirt
G1 X97.700 Y74.344 E0.68856 ; skirt
G1 X99.937 Y74.741 E0.72895 ; skirt
G1 X101.901 Y75.883 E0.76934 ; skirt
G1 X103.692 Y78.322 E0.82314 ; skirt
G1 X114.272 Y103.442 E1.30771 ; skirt
G1 X114.591 Y104.317 E1.32427 ; skirt
G1 X114.784 Y104.943 E1.33592 ; skirt
G1 X114.906 Y105.398 E1.34429 ; skirt
G1 X115.129 Y106.430 E1.36305 ; skirt
G1 X115.273 Y107.421 E1.38086 ; skirt
G1 X115.339 Y108.172 E1.39426 ; skirt
G1 X115.372 Y109.004 E1.40906 ; skirt
G1 X115.366 Y109.475 E1.41744 ; skirt
G1 X115.323 Y110.352 E1.43304 ; skirt
G1 X115.255 Y111.057 E1.44564 ; skirt
G1 X114.998 Y112.507 E1.47181 ; skirt
G1 X114.789 Y113.318 E1.48671 ; skirt
G1 X114.389 Y114.539 E1.50954 ; skirt
G1 X114.047 Y115.380 E1.52569 ; skirt
G1 X113.520 Y116.453 E1.54694 ; skirt
G1 X113.089 Y117.202 E1.56229 ; skirt
G1 X112.445 Y118.166 E1.58292 ; skirt
G1 X111.927 Y118.841 E1.59804 ; skirt
G1 X111.162 Y119.714 E1.61867 ; skirt
G1 X110.540 Y120.345 E1.63443 ; skirt
G1 X109.594 Y121.161 E1.65663 ; skirt
G1 X109.224 Y121.451 E1.66500 ; skirt
G1 X108.498 Y121.961 E1.68077 ; skirt
G1 X107.906 Y122.335 E1.69321 ; skirt
G1 X106.983 Y122.847 E1.71198 ; skirt
G1 X106.077 Y123.273 E1.72978 ; skirt
G1 X105.641 Y123.452 E1.73815 ; skirt
G1 X104.976 Y123.697 E1.75076 ; skirt
G1 X104.138 Y123.958 E1.76636 ; skirt
G1 X102.868 Y124.253 E1.78954 ; skirt
G1 X102.126 Y124.379 E1.80293 ; skirt
G1 X101.658 Y124.432 E1.81130 ; skirt
G1 X100.703 Y124.506 E1.82832 ; skirt
G1 X99.882 Y124.517 E1.84292 ; skirt
G1 X98.599 Y124.453 E1.86575 ; skirt
G1 X97.681 Y124.342 E1.88220 ; skirt
G1 X96.464 Y124.106 E1.90424 ; skirt
G1 X95.614 Y123.880 E1.91988 ; skirt
G1 X94.515 Y123.507 E1.94050 ; skirt
G1 X93.729 Y123.181 E1.95563 ; skirt
G1 X92.688 Y122.668 E1.97626 ; skirt
G1 X92.221 Y122.413 E1.98572 ; skirt
G1 X91.612 Y122.032 E1.99849 ; skirt
G1 X90.898 Y121.538 E2.01393 ; skirt
G1 X90.521 Y121.256 E2.02230 ; skirt
G1 X89.874 Y120.717 E2.03727 ; skirt
G1 X88.991 Y119.882 E2.05887 ; skirt
G1 X88.339 Y119.169 E2.07605 ; skirt
G1 X87.945 Y118.690 E2.08708 ; skirt
G1 X87.658 Y118.316 E2.09545 ; skirt
G1 X87.039 Y117.419 E2.11483 ; skirt
G1 X86.547 Y116.587 E2.13202 ; skirt
G1 X86.183 Y115.887 E2.14604 ; skirt
G1 X85.850 Y115.162 E2.16022 ; skirt
G1 X85.676 Y114.724 E2.16860 ; skirt
G1 X85.371 Y113.864 E2.18482 ; skirt
G1 X85.149 Y113.090 E2.19914 ; skirt
G1 X84.872 Y111.836 E2.22197 ; skirt
G1 X84.736 Y110.905 E2.23870 ; skirt
G1 X84.643 Y109.624 E2.26153 ; skirt
G1 X84.626 Y109.174 E2.26953 ; skirt
G1 X84.610 Y104.107 E2.35961 ; skirt
G1 X84.643 Y99.247 E2.44601 ; skirt
G1 X85.810 Y80.444 E2.78094 ; skirt
G1 X86.345 Y78.236 E2.82133 ; skirt
G1 X87.573 Y76.396 E2.86066 ; skirt
G1 E2.36066 F420.00000 ; retract extruder 0
G92 E0 ; reset extrusion distance
G1 X96.135 Y94.793 F6000.000 ; move to first perimeter point
G1 E0.50000 F420.00000 ; unretract extruder 0
G1 F1500
G1 X95.836 Y95.058 E0.50546 ; perimeter
G1 X95.522 Y95.223 E0.51030 ; perimeter
G1 X95.177 Y95.308 E0.51515 ; perimeter
G1 X94.823 Y95.308 E0.52000 ; perimeter
G1 X94.478 Y95.223 E0.52485 ; perimeter
G1 X94.164 Y95.058 E0.52970 ; perimeter
G1 X93.898 Y94.823 E0.53454 ; perimeter
G1 X93.696 Y94.530 E0.53941 ; perimeter
G1 X93.570 Y94.185 E0.54442 ; perimeter
G1 X93.528 Y93.847 E0.54908 ; perimeter
G1 X93.571 Y93.495 E0.55393 ; perimeter
G1 X93.697 Y93.163 E0.55878 ; perimeter
G1 X93.898 Y92.871 E0.56362 ; perimeter
G1 X94.164 Y92.636 E0.56847 ; perimeter
G1 X94.478 Y92.471 E0.57332 ; perimeter
G1 X94.824 Y92.386 E0.57818 ; perimeter
G1 X95.191 Y92.389 E0.58320 ; perimeter
G1 X95.522 Y92.471 E0.58786 ; perimeter
G1 X95.836 Y92.636 E0.59271 ; perimeter
G1 X96.102 Y92.871 E0.59755 ; perimeter
G1 X96.304 Y93.164 E0.60242 ; perimeter
G1 X96.430 Y93.508 E0.60743 ; perimeter
G1 X96.472 Y93.847 E0.61209 ; perimeter
G1 X96.429 Y94.199 E0.61694 ; perimeter
G1 X96.305 Y94.527 E0.62173 ; perimeter
G1 X96.167 Y94.742 E0.62522 ; perimeter
G1 X96.135 Y94.793 F6000.000 ; move inwards before travel
G1 E0.12522 F420.00000 ; retract extruder 0
G92 E0 ; reset extrusion distance
G1 X99.027 Y104.888 F6000.000 ; move to first perimeter point
G1 E0.50000 F420.00000 ; unretract extruder 0
G1 F1500
G1 X100.000 Y104.779 E0.51741 ; perimeter
G1 X100.973 Y104.888 E0.53483 ; perimeter
G1 X101.898 Y105.212 E0.55224 ; perimeter
G1 X102.727 Y105.733 E0.56966 ; perimeter
G1 X103.420 Y106.426 E0.58707 ; perimeter
G1 X103.941 Y107.255 E0.60449 ; perimeter
G1 X104.265 Y108.180 E0.62190 ; perimeter
G1 X104.375 Y109.153 E0.63932 ; perimeter
G1 X104.265 Y110.127 E0.65673 ; perimeter
G1 X103.941 Y111.051 E0.67415 ; perimeter
G1 X103.420 Y111.881 E0.69156 ; perimeter
G1 X102.727 Y112.573 E0.70898 ; perimeter
G1 X101.898 Y113.095 E0.72639 ; perimeter
G1 X100.973 Y113.418 E0.74381 ; perimeter
G1 X100.000 Y113.528 E0.76122 ; perimeter
G1 X99.027 Y113.418 E0.77864 ; perimeter
G1 X98.102 Y113.095 E0.79605 ; perimeter
G1 X97.273 Y112.573 E0.81347 ; perimeter
G1 X96.580 Y111.881 E0.83088 ; perimeter
G1 X96.059 Y111.051 E0.84830 ; perimeter
G1 X95.735 Y110.127 E0.86571 ; perimeter
G1 X95.625 Y109.153 E0.88313 ; perimeter
G1 X95.735 Y108.180 E0.90054 ; perimeter
G1 X96.059 Y107.255 E0.91796 ; perimeter
G1 X96.580 Y106.426 E0.93537 ; perimeter
G1 X97.273 Y105.733 E0.95279 ; perimeter
G1 X98.102 Y105.212 E0.97020 ; perimeter
G1 X98.970 Y104.908 E0.98655 ; perimeter
G1 X99.139 Y105.382 F6000.000 ; move to first perimeter point
G1 F1500
G1 X100.000 Y105.285 E1.00195 ; perimeter
G1 X100.861 Y105.382 E1.01735 ; perimeter
G1 X101.679 Y105.668 E1.03275 ; perimeter
G1 X102.412 Y106.129 E1.04815 ; perimeter
G1 X103.025 Y106.741 E1.06356 ; perimeter
G1 X103.486 Y107.475 E1.07896 ; perimeter
G1 X103.772 Y108.292 E1.09436 ; perimeter
G1 X103.869 Y109.153 E1.10976 ; perimeter
G1 X103.772 Y110.014 E1.12516 ; perimeter
G1 X103.486 Y110.832 E1.14056 ; perimeter
G1 X103.025 Y111.565 E1.15596 ; perimeter
G1 X102.412 Y112.178 E1.17136 ; perimeter
G1 X101.679 Y112.639 E1.18676 ; perimeter
G1 X100.861 Y112.925 E1.20217 ; perimeter
G1 X100.000 Y113.022 E1.21757 ; perimeter
G1 X99.139 Y112.925 E1.23297 ; perimeter
G1 X98.321 Y112.639 E1.24837 ; perimeter
G1 X97.588 Y112.178 E1.26377 ; perimeter
G1 X96.975 Y111.565 E1.27917 ; perimeter
G1 X96.514 Y110.832 E1.29457 ; perimeter
G1 X96.228 Y110.014 E1.30997 ; perimeter
G1 X96.131 Y109.153 E1.32538 ; perimeter
G1 X96.228 Y108.292 E1.34078 ; perimeter
G1 X96.514 Y107.475 E1.35618 ; perimeter
G1 X96.975 Y106.741 E1.37158 ; perimeter
G1 X97.588 Y106.129 E1.38698 ; perimeter
G1 X98.321 Y105.668 E1.40238 ; perimeter
G1 X99.082 Y105.401 E1.41672 ; perimeter
G1 X99.239 Y105.818 F6000.000 ; move to first perimeter point
G1 F1500
G1 X100.000 Y105.732 E1.42718 ; perimeter
G1 X100.761 Y105.818 E1.43765 ; perimeter
G1 X101.484 Y106.071 E1.44812 ; perimeter
G1 X102.133 Y106.478 E1.45859 ; perimeter
G1 X102.675 Y107.020 E1.46906 ; perimeter
G1 X103.083 Y107.669 E1.47953 ; perimeter
G1 X103.336 Y108.392 E1.49000 ; perimeter
G1 X103.421 Y109.153 E1.50047 ; perimeter
G1 X103.336 Y109.915 E1.51094 ; perimeter
G1 X103.083 Y110.638 E1.52140 ; perimeter
G1 X102.675 Y111.287 E1.53187 ; perimeter
G1 X102.133 Y111.828 E1.54234 ; perimeter
G1 X101.484 Y112.236 E1.55281 ; perimeter
G1 X100.761 Y112.489 E1.56328 ; perimeter
G1 X100.000 Y112.575 E1.57375 ; perimeter
G1 X99.239 Y112.489 E1.58422 ; perimeter
G1 X98.516 Y112.236 E1.59469 ; perimeter
G1 X97.867 Y111.828 E1.60516 ; perimeter
G1 X97.325 Y111.287 E1.61562 ; perimeter
G1 X96.917 Y110.638 E1.62609 ; perimeter
G1 X96.664 Y109.915 E1.63656 ; perimeter
G1 X96.579 Y109.153 E1.64703 ; perimeter
G1 X96.664 Y108.392 E1.65750 ; perimeter
G1 X96.917 Y107.669 E1.66797 ; perimeter
G1 X97.325 Y107.020 E1.67844 ; perimeter
G1 X97.867 Y106.478 E1.68891 ; perimeter
G1 X98.516 Y106.071 E1.69938 ; perimeter
G1 X99.182 Y105.838 E1.70902 ; perimeter
G1 X99.357 Y105.435 F6000.000 ; move inwards before travel
G1 E1.20902 F420.00000 ; retract extruder 0
G92 E0 ; reset extrusion distance
G1 X97.707 Y101.594 F6000.000 ; move to first perimeter point
G1 E0.50000 F420.00000 ; unretract extruder 0
G1 F2100
G1 X99.736 Y101.455 E0.53615 ; perimeter
G1 X100.601 Y101.474 E0.55153 ; perimeter
G1 X100.995 Y101.515 E0.55858 ; perimeter
G1 X101.702 Y101.640 E0.57134 ; perimeter
G1 X101.976 Y101.708 E0.57635 ; perimeter
G1 X102.744 Y101.957 E0.59070 ; perimeter
G1 X103.764 Y102.435 E0.61074 ; perimeter
G1 X104.691 Y103.046 E0.63047 ; perimeter
G1 X105.446 Y103.707 E0.64832 ; perimeter
G1 X106.110 Y104.465 E0.66623 ; perimeter
G1 X106.684 Y105.324 E0.68459 ; perimeter
G1 X106.825 Y105.581 E0.68980 ; perimeter
G1 X107.120 Y106.214 E0.70222 ; perimeter
G1 X107.272 Y106.611 E0.70978 ; perimeter
G1 X107.441 Y107.160 E0.72000 ; perimeter
G1 X107.564 Y107.696 E0.72976 ; perimeter
G1 X107.636 Y108.141 E0.73778 ; perimeter
G1 X107.696 Y108.811 E0.74974 ; perimeter
G1 X107.703 Y109.138 E0.75555 ; perimeter
G1 X107.664 Y109.934 E0.76973 ; perimeter
G1 X107.476 Y111.004 E0.78904 ; perimeter
G1 X107.125 Y112.075 E0.80907 ; perimeter
G1 X106.669 Y113.005 E0.82749 ; perimeter
G1 X106.110 Y113.842 E0.84538 ; perimeter
G1 X105.428 Y114.620 E0.86377 ; perimeter
G1 X104.680 Y115.272 E0.88142 ; perimeter
G1 X104.372 Y115.496 E0.88818 ; perimeter
G1 X103.848 Y115.826 E0.89919 ; perimeter
G1 X103.403 Y116.064 E0.90817 ; perimeter
G1 X102.952 Y116.269 E0.91697 ; perimeter
G1 X102.362 Y116.486 E0.92815 ; perimeter
G1 X102.006 Y116.591 E0.93475 ; perimeter
G1 X101.026 Y116.788 E0.95252 ; perimeter
G1 X100.188 Y116.853 E0.96747 ; perimeter
G1 X99.062 Y116.797 E0.98751 ; perimeter
G1 X98.004 Y116.592 E1.00666 ; perimeter
G1 X97.053 Y116.269 E1.02452 ; perimeter
G1 X96.124 Y115.810 E1.04294 ; perimeter
G1 X95.299 Y115.256 E1.06061 ; perimeter
G1 X95.037 Y115.045 E1.06659 ; perimeter
G1 X94.548 Y114.596 E1.07839 ; perimeter
G1 X94.233 Y114.260 E1.08657 ; perimeter
G1 X93.889 Y113.844 E1.09617 ; perimeter
G1 X93.551 Y113.367 E1.10656 ; perimeter
G1 X93.334 Y113.013 E1.11395 ; perimeter
G1 X93.007 Y112.385 E1.12654 ; perimeter
G1 X92.890 Y112.118 E1.13172 ; perimeter
G1 X92.623 Y111.366 E1.14591 ; perimeter
G1 X92.380 Y110.265 E1.16595 ; perimeter
G1 X92.296 Y109.109 E1.18655 ; perimeter
G1 X92.280 Y104.087 E1.27584 ; perimeter
G1 X92.298 Y100.179 E1.34531 ; perimeter
G1 X92.484 Y100.015 E1.34972 ; perimeter
G1 X93.467 Y99.250 E1.37188 ; perimeter
G1 X93.467 Y95.762 E1.43388 ; perimeter
G1 X94.140 Y96.115 E1.44739 ; perimeter
G1 X94.708 Y96.255 E1.45778 ; perimeter
G1 X95.292 Y96.255 E1.46818 ; perimeter
G1 X95.860 Y96.115 E1.47857 ; perimeter
G1 X96.533 Y95.762 E1.49208 ; perimeter
G1 X96.533 Y97.723 E1.52696 ; perimeter
G1 X97.716 Y97.537 E1.54825 ; perimeter
G1 X97.708 Y101.534 E1.61929 ; perimeter
G1 X98.211 Y101.055 F6000.000 ; move to first perimeter point
G1 F2100
G1 X99.724 Y100.952 E1.64625 ; perimeter
G1 X100.632 Y100.971 E1.66240 ; perimeter
G1 X101.065 Y101.016 E1.67014 ; perimeter
G1 X101.806 Y101.148 E1.68352 ; perimeter
G1 X102.114 Y101.224 E1.68915 ; perimeter
G1 X102.929 Y101.488 E1.70438 ; perimeter
G1 X104.011 Y101.995 E1.72562 ; perimeter
G1 X104.997 Y102.645 E1.74661 ; perimeter
G1 X105.802 Y103.351 E1.76566 ; perimeter
G1 X106.510 Y104.158 E1.78474 ; perimeter
G1 X107.114 Y105.063 E1.80408 ; perimeter
G1 X107.273 Y105.353 E1.80996 ; perimeter
G1 X107.584 Y106.018 E1.82300 ; perimeter
G1 X107.747 Y106.447 E1.83118 ; perimeter
G1 X107.927 Y107.030 E1.84201 ; perimeter
G1 X108.058 Y107.599 E1.85239 ; perimeter
G1 X108.136 Y108.078 E1.86102 ; perimeter
G1 X108.198 Y108.783 E1.87361 ; perimeter
G1 X108.206 Y109.144 E1.88003 ; perimeter
G1 X108.138 Y110.211 E1.89904 ; perimeter
G1 X107.964 Y111.129 E1.91565 ; perimeter
G1 X107.592 Y112.265 E1.93689 ; perimeter
G1 X107.106 Y113.257 E1.95653 ; perimeter
G1 X106.510 Y114.148 E1.97560 ; perimeter
G1 X105.792 Y114.967 E1.99495 ; perimeter
G1 X105.585 Y115.166 E2.00006 ; perimeter
G1 X104.990 Y115.668 E2.01389 ; perimeter
G1 X104.654 Y115.912 E2.02128 ; perimeter
G1 X104.101 Y116.261 E2.03290 ; perimeter
G1 X103.625 Y116.515 E2.04249 ; perimeter
G1 X103.143 Y116.734 E2.05191 ; perimeter
G1 X102.520 Y116.963 E2.06371 ; perimeter
G1 X102.131 Y117.078 E2.07092 ; perimeter
G1 X101.362 Y117.246 E2.08492 ; perimeter
G1 X101.083 Y117.288 E2.08993 ; perimeter
G1 X100.194 Y117.356 E2.10577 ; perimeter
G1 X99.001 Y117.297 E2.12701 ; perimeter
G1 X97.875 Y117.079 E2.14741 ; perimeter
G1 X96.860 Y116.734 E2.16647 ; perimeter
G1 X95.883 Y116.252 E2.18584 ; perimeter
G1 X94.998 Y115.659 E2.20478 ; perimeter
G1 X94.709 Y115.426 E2.21137 ; perimeter
G1 X94.195 Y114.953 E2.22379 ; perimeter
G1 X93.855 Y114.593 E2.23259 ; perimeter
G1 X93.490 Y114.150 E2.24280 ; perimeter
G1 X93.132 Y113.645 E2.25381 ; perimeter
G1 X92.896 Y113.261 E2.26181 ; perimeter
G1 X92.553 Y112.602 E2.27502 ; perimeter
G1 X92.422 Y112.303 E2.28082 ; perimeter
G1 X92.139 Y111.505 E2.29589 ; perimeter
G1 X91.881 Y110.338 E2.31713 ; perimeter
G1 X91.793 Y109.128 E2.33869 ; perimeter
G1 X91.777 Y104.087 E2.42832 ; perimeter
G1 X91.796 Y99.951 E2.50184 ; perimeter
G1 X92.163 Y99.628 E2.51053 ; perimeter
G1 X92.965 Y99.004 E2.52859 ; perimeter
G1 X92.965 Y94.548 E2.60780 ; perimeter
G1 X93.213 Y94.504 E2.61229 ; perimeter
G1 X93.299 Y94.736 E2.61669 ; perimeter
G1 X93.563 Y95.119 E2.62497 ; perimeter
G1 X93.910 Y95.426 E2.63320 ; perimeter
G1 X94.319 Y95.641 E2.64142 ; perimeter
G1 X94.769 Y95.752 E2.64965 ; perimeter
G1 X95.231 Y95.752 E2.65788 ; perimeter
G1 X95.681 Y95.641 E2.66610 ; perimeter
G1 X96.090 Y95.426 E2.67433 ; perimeter
G1 X96.476 Y95.084 E2.68349 ; perimeter
G1 X96.704 Y94.727 E2.69103 ; perimeter
G1 X96.788 Y94.505 E2.69525 ; perimeter
G1 X97.035 Y94.550 E2.69972 ; perimeter
G1 X97.035 Y97.136 E2.74569 ; perimeter
G1 X98.220 Y96.949 E2.76700 ; perimeter
G1 X98.211 Y100.995 E2.83893 ; perimeter
G1 E2.33893 F420.00000 ; retract extruder 0
G92 E0 ; reset extrusion distance
G1 X96.533 Y91.932 F6000.000 ; move to first perimeter point
G1 E0.50000 F420.00000 ; unretract extruder 0
G1 F1500
G1 X95.860 Y91.579 E0.51351 ; perimeter
G1 X95.310 Y91.443 E0.52358 ; perimeter
G1 X94.713 Y91.437 E0.53419 ; perimeter
G1 X94.140 Y91.579 E0.54469 ; perimeter
G1 X93.467 Y91.932 E0.55819 ; perimeter
G1 X93.467 Y85.762 E0.66788 ; perimeter
G1 X94.140 Y86.115 E0.68139 ; perimeter
G1 X94.708 Y86.255 E0.69178 ; perimeter
G1 X95.292 Y86.255 E0.70218 ; perimeter
G1 X95.860 Y86.115 E0.71257 ; perimeter
G1 X96.533 Y85.762 E0.72608 ; perimeter
G1 X96.533 Y91.872 E0.83470 ; perimeter
G1 X96.787 Y93.189 F6000.000 ; move to first perimeter point
G1 F1500
G1 X96.701 Y92.957 E0.83910 ; perimeter
G1 X96.437 Y92.574 E0.84738 ; perimeter
G1 X96.090 Y92.267 E0.85561 ; perimeter
G1 X95.681 Y92.052 E0.86383 ; perimeter
G1 X95.247 Y91.945 E0.87178 ; perimeter
G1 X94.772 Y91.941 E0.88022 ; perimeter
G1 X94.319 Y92.052 E0.88850 ; perimeter
G1 X93.910 Y92.267 E0.89673 ; perimeter
G1 X93.563 Y92.574 E0.90496 ; perimeter
G1 X93.300 Y92.955 E0.91318 ; perimeter
G1 X93.212 Y93.189 E0.91763 ; perimeter
G1 X92.965 Y93.143 E0.92210 ; perimeter
G1 X92.965 Y84.548 E1.07490 ; perimeter
G1 X93.213 Y84.504 E1.07939 ; perimeter
G1 X93.299 Y84.736 E1.08379 ; perimeter
G1 X93.563 Y85.119 E1.09207 ; perimeter
G1 X93.910 Y85.426 E1.10030 ; perimeter
G1 X94.319 Y85.641 E1.10852 ; perimeter
