; generated by Slic3r 1.3.0 on 2019-10-30 at 12:38:27

; external perimeters extrusion width = 0.44mm (3.38mm^3/s)
; perimeters extrusion width = 0.56mm (8.80mm^3/s)
; infill extrusion width = 0.50mm (10.04mm^3/s)
; solid infill extrusion width = 0.56mm (11.31mm^3/s)
; top infill extrusion width = 0.56mm (6.28mm^3/s)

G28 ; home all axes
; Filament gcode

G21 ; set units to millimeters
G90 ; use absolute coordinates
M82 ; use absolute distances for extrusion
G92 E0 ; reset extrusion distance
G1 E-0.50000 F420.00000 ; retract extruder 0
G92 E0 ; reset extrusion distance
G1 Z0.250 F6000.000 ; move to next layer (0)
G1 X84.694 Y72.179 F6000.000 ; move to first skirt point
G1 E0.50000 F420.00000 ; unretract extruder 0
G1 F1800
G1 X85.222 Y71.594 E0.51402 ; skirt
G1 X85.686 Y71.131 E0.52567 ; skirt
G1 X86.271 Y70.602 E0.53968 ; skirt
G1 X86.691 Y70.253 E0.54939 ; skirt
G1 X87.109 Y69.935 E0.55874 ; skirt
G1 X87.743 Y69.508 E0.57232 ; skirt
G1 X88.874 Y68.840 E0.59567 ; skirt
G1 X89.467 Y68.530 E0.60757 ; skirt
G1 X91.774 Y67.471 E0.65270 ; skirt
G1 X92.534 Y67.178 E0.66719 ; skirt
G1 X93.065 Y67.011 E0.67708 ; skirt
G1 X93.977 Y66.794 E0.69374 ; skirt
G1 X94.750 Y66.688 E0.70761 ; skirt
G1 X95.599 Y66.654 E0.72272 ; skirt
G1 X96.268 Y66.680 E0.73462 ; skirt
G1 X97.307 Y66.818 E0.75326 ; skirt
G1 X97.659 Y66.895 E0.75966 ; skirt
G1 X97.880 Y66.946 E0.76370 ; skirt
G1 X98.957 Y67.297 E0.78384 ; skirt
G1 X101.925 Y68.646 E0.84178 ; skirt
G1 X102.617 Y69.015 E0.85573 ; skirt
G1 X103.513 Y69.564 E0.87441 ; skirt
G1 X104.053 Y69.935 E0.88606 ; skirt
G1 X104.892 Y70.602 E0.90511 ; skirt
G1 X105.477 Y71.131 E0.91913 ; skirt
G1 X105.940 Y71.594 E0.93078 ; skirt
G1 X106.469 Y72.179 E0.94480 ; skirt
G1 X106.817 Y72.599 E0.95450 ; skirt
G1 X107.136 Y73.017 E0.96385 ; skirt
G1 X107.563 Y73.651 E0.97744 ; skirt
G1 X108.230 Y74.782 E1.00078 ; skirt
G1 X108.523 Y75.338 E1.01195 ; skirt
G1 X109.639 Y77.728 E1.05885 ; skirt
G1 X109.861 Y78.265 E1.06918 ; skirt
G1 X110.131 Y79.181 E1.08616 ; skirt
G1 X110.181 Y79.412 E1.09036 ; skirt
G1 X118.623 Y123.097 E1.88134 ; skirt
G1 X118.736 Y124.588 E1.90793 ; skirt
G1 X118.715 Y125.108 E1.91718 ; skirt
G1 X118.379 Y126.929 E1.95009 ; skirt
G1 X118.213 Y127.422 E1.95934 ; skirt
G1 X117.378 Y129.074 E1.99224 ; skirt
G1 X117.079 Y129.500 E2.00150 ; skirt
G1 X115.813 Y130.850 E2.03440 ; skirt
G1 X115.406 Y131.175 E2.04366 ; skirt
G1 X113.811 Y132.113 E2.07656 ; skirt
G1 X113.329 Y132.310 E2.08581 ; skirt
G1 X111.534 Y132.761 E2.11872 ; skirt
G1 X111.016 Y132.814 E2.12797 ; skirt
G1 X109.166 Y132.741 E2.16088 ; skirt
G1 X108.655 Y132.646 E2.17013 ; skirt
G1 X106.901 Y132.055 E2.20303 ; skirt
G1 X106.436 Y131.820 E2.21229 ; skirt
G1 X105.646 Y131.347 E2.22865 ; skirt
G1 X83.992 Y116.218 E2.69826 ; skirt
G1 X82.389 Y114.609 E2.73866 ; skirt
G1 X81.436 Y112.546 E2.77905 ; skirt
G1 X81.224 Y111.002 E2.80675 ; skirt
G1 X80.733 Y81.603 E3.32947 ; skirt
G1 X80.753 Y80.735 E3.34491 ; skirt
G1 X80.912 Y79.664 E3.36416 ; skirt
G1 X81.120 Y78.845 E3.37919 ; skirt
G1 X81.432 Y77.930 E3.39636 ; skirt
G1 X81.562 Y77.638 E3.40205 ; skirt
G1 X82.767 Y75.081 E3.45231 ; skirt
G1 X83.106 Y74.454 E3.46498 ; skirt
G1 X83.656 Y73.558 E3.48367 ; skirt
G1 X84.026 Y73.017 E3.49531 ; skirt
G1 X84.655 Y72.225 E3.51330 ; skirt
G1 E3.01330 F420.00000 ; retract extruder 0
G92 E0 ; reset extrusion distance
G1 X111.058 Y124.637 F6000.000 ; move to first perimeter point
G1 E0.50000 F420.00000 ; unretract extruder 0
G1 F2100
G1 X110.999 Y124.812 E0.50329 ; perimeter
G1 X110.893 Y124.963 E0.50657 ; perimeter
G1 X110.748 Y125.079 E0.50986 ; perimeter
G1 X110.577 Y125.149 E0.51315 ; perimeter
G1 X110.393 Y125.168 E0.51644 ; perimeter
G1 X110.211 Y125.134 E0.51972 ; perimeter
G1 X109.971 Y125.013 E0.52452 ; perimeter
G1 X88.894 Y110.286 E0.98163 ; perimeter
G1 X88.921 Y84.776 E1.43513 ; perimeter
G1 X89.242 Y84.848 E1.44099 ; perimeter
G1 X90.046 Y84.833 E1.45528 ; perimeter
G1 X90.829 Y84.627 E1.46967 ; perimeter
G1 X91.552 Y84.227 E1.48435 ; perimeter
G1 X92.127 Y83.706 E1.49816 ; perimeter
G1 X92.579 Y83.041 E1.51245 ; perimeter
G1 X92.861 Y82.288 E1.52674 ; perimeter
G1 X92.956 Y81.494 E1.54095 ; perimeter
G1 X92.872 Y80.743 E1.55439 ; perimeter
G1 X92.625 Y80.033 E1.56775 ; perimeter
G1 X92.228 Y79.397 E1.58107 ; perimeter
G1 X91.719 Y78.881 E1.59396 ; perimeter
G1 X91.068 Y78.460 E1.60774 ; perimeter
G1 X90.357 Y78.206 E1.62117 ; perimeter
G1 X89.841 Y78.144 E1.63042 ; perimeter
G1 X90.163 Y77.618 E1.64137 ; perimeter
G1 X90.416 Y77.286 E1.64880 ; perimeter
G1 X90.873 Y76.781 E1.66090 ; perimeter
G1 X91.378 Y76.325 E1.67301 ; perimeter
G1 X91.702 Y76.077 E1.68026 ; perimeter
G1 X92.230 Y75.766 E1.69116 ; perimeter
G1 X92.340 Y76.431 E1.70315 ; perimeter
G1 X92.655 Y77.174 E1.71750 ; perimeter
G1 X93.153 Y77.831 E1.73216 ; perimeter
G1 X93.751 Y78.326 E1.74594 ; perimeter
G1 X94.471 Y78.677 E1.76019 ; perimeter
G1 X95.255 Y78.849 E1.77445 ; perimeter
G1 X96.062 Y78.831 E1.78881 ; perimeter
G1 X96.856 Y78.612 E1.80346 ; perimeter
G1 X97.537 Y78.241 E1.81724 ; perimeter
G1 X98.131 Y77.702 E1.83149 ; perimeter
G1 X98.581 Y77.038 E1.84576 ; perimeter
G1 X98.861 Y76.286 E1.86002 ; perimeter
G1 X98.926 Y75.748 E1.86965 ; perimeter
G1 X99.452 Y76.071 E1.88063 ; perimeter
G1 X99.785 Y76.325 E1.88806 ; perimeter
G1 X100.290 Y76.781 E1.90016 ; perimeter
G1 X100.746 Y77.286 E1.91226 ; perimeter
G1 X100.993 Y77.611 E1.91952 ; perimeter
G1 X101.305 Y78.139 E1.93042 ; perimeter
G1 X100.651 Y78.246 E1.94221 ; perimeter
G1 X99.942 Y78.540 E1.95586 ; perimeter
G1 X99.280 Y79.020 E1.97039 ; perimeter
G1 X98.766 Y79.629 E1.98456 ; perimeter
G1 X98.409 Y80.338 E1.99866 ; perimeter
G1 X98.229 Y81.107 E2.01271 ; perimeter
G1 X98.229 Y81.875 E2.02637 ; perimeter
G1 X98.419 Y82.668 E2.04086 ; perimeter
G1 X98.767 Y83.352 E2.05452 ; perimeter
G1 X99.278 Y83.956 E2.06857 ; perimeter
G1 X99.917 Y84.426 E2.08268 ; perimeter
G1 X100.652 Y84.735 E2.09685 ; perimeter
G1 X101.315 Y84.839 E2.10878 ; perimeter
G1 X100.735 Y85.717 E2.12748 ; perimeter
G1 X100.041 Y86.448 E2.14541 ; perimeter
G1 X99.816 Y86.641 E2.15067 ; perimeter
G1 X98.930 Y87.272 E2.17001 ; perimeter
G1 X98.859 Y86.684 E2.18053 ; perimeter
G1 X98.572 Y85.925 E2.19496 ; perimeter
G1 X98.112 Y85.256 E2.20939 ; perimeter
G1 X97.506 Y84.716 E2.22382 ; perimeter
G1 X96.788 Y84.337 E2.23825 ; perimeter
G1 X96.001 Y84.140 E2.25268 ; perimeter
G1 X95.189 Y84.137 E2.26711 ; perimeter
G1 X94.401 Y84.327 E2.28153 ; perimeter
G1 X93.704 Y84.687 E2.29547 ; perimeter
G1 X93.072 Y85.230 E2.31028 ; perimeter
G1 X92.603 Y85.900 E2.32481 ; perimeter
G1 X92.310 Y86.656 E2.33924 ; perimeter
G1 X92.206 Y87.461 E2.35366 ; perimeter
G1 X92.293 Y88.240 E2.36760 ; perimeter
G1 X92.574 Y89.025 E2.38242 ; perimeter
G1 X93.031 Y89.702 E2.39695 ; perimeter
G1 X93.324 Y89.967 E2.40396 ; perimeter
G1 X93.251 Y90.389 E2.41159 ; perimeter
G1 X93.251 Y111.679 E2.79008 ; perimeter
G1 X110.730 Y123.929 E3.16952 ; perimeter
G1 X110.926 Y124.113 E3.17431 ; perimeter
G1 X111.020 Y124.272 E3.17760 ; perimeter
G1 X111.065 Y124.452 E3.18089 ; perimeter
G1 X111.060 Y124.577 E3.18311 ; perimeter
G1 X111.557 Y124.729 F6000.000 ; move to first perimeter point
G1 F2100
G1 X111.452 Y125.041 E3.18896 ; perimeter
G1 X111.263 Y125.311 E3.19482 ; perimeter
G1 X111.006 Y125.516 E3.20068 ; perimeter
G1 X110.701 Y125.641 E3.20653 ; perimeter
G1 X110.373 Y125.675 E3.21239 ; perimeter
G1 X110.049 Y125.615 E3.21825 ; perimeter
G1 X109.712 Y125.445 E3.22496 ; perimeter
G1 X88.391 Y110.548 E3.68737 ; perimeter
G1 X88.419 Y84.093 E4.15767 ; perimeter
G1 X88.626 Y84.195 E4.16178 ; perimeter
G1 X89.293 Y84.344 E4.17393 ; perimeter
G1 X89.976 Y84.331 E4.18608 ; perimeter
G1 X90.640 Y84.157 E4.19828 ; perimeter
G1 X91.257 Y83.815 E4.21082 ; perimeter
G1 X91.745 Y83.373 E4.22252 ; perimeter
G1 X92.129 Y82.808 E4.23467 ; perimeter
G1 X92.369 Y82.168 E4.24682 ; perimeter
G1 X92.450 Y81.492 E4.25892 ; perimeter
G1 X92.379 Y80.855 E4.27032 ; perimeter
G1 X92.169 Y80.252 E4.28168 ; perimeter
G1 X91.831 Y79.711 E4.29301 ; perimeter
G1 X91.400 Y79.273 E4.30393 ; perimeter
G1 X90.844 Y78.914 E4.31569 ; perimeter
G1 X90.241 Y78.698 E4.32709 ; perimeter
G1 X89.609 Y78.622 E4.33840 ; perimeter
G1 X89.034 Y78.678 E4.34868 ; perimeter
G1 X89.245 Y78.154 E4.35872 ; perimeter
G1 X89.748 Y77.334 E4.37582 ; perimeter
G1 X90.029 Y76.965 E4.38408 ; perimeter
G1 X90.517 Y76.425 E4.39700 ; perimeter
G1 X91.056 Y75.938 E4.40993 ; perimeter
G1 X91.421 Y75.660 E4.41809 ; perimeter
G1 X92.470 Y75.040 E4.43974 ; perimeter
G1 X92.766 Y74.927 E4.44538 ; perimeter
G1 X92.715 Y75.617 E4.45768 ; perimeter
G1 X92.826 Y76.290 E4.46981 ; perimeter
G1 X93.094 Y76.920 E4.48198 ; perimeter
G1 X93.519 Y77.481 E4.49450 ; perimeter
G1 X94.025 Y77.900 E4.50618 ; perimeter
G1 X94.637 Y78.199 E4.51829 ; perimeter
G1 X95.304 Y78.345 E4.53042 ; perimeter
G1 X95.988 Y78.330 E4.54259 ; perimeter
G1 X96.667 Y78.143 E4.55510 ; perimeter
G1 X97.243 Y77.828 E4.56678 ; perimeter
G1 X97.748 Y77.370 E4.57890 ; perimeter
G1 X98.131 Y76.806 E4.59102 ; perimeter
G1 X98.369 Y76.167 E4.60315 ; perimeter
G1 X98.448 Y75.505 E4.61499 ; perimeter
G1 X98.408 Y74.948 E4.62492 ; perimeter
G1 X98.917 Y75.153 E4.63466 ; perimeter
G1 X99.737 Y75.656 E4.65176 ; perimeter
G1 X100.106 Y75.938 E4.66002 ; perimeter
G1 X100.646 Y76.425 E4.67294 ; perimeter
G1 X101.133 Y76.965 E4.68587 ; perimeter
G1 X101.411 Y77.330 E4.69403 ; perimeter
G1 X102.030 Y78.378 E4.71568 ; perimeter
G1 X102.143 Y78.674 E4.72131 ; perimeter
G1 X101.454 Y78.624 E4.73360 ; perimeter
G1 X100.790 Y78.732 E4.74556 ; perimeter
G1 X100.189 Y78.982 E4.75712 ; perimeter
G1 X99.625 Y79.391 E4.76952 ; perimeter
G1 X99.188 Y79.908 E4.78155 ; perimeter
G1 X98.885 Y80.510 E4.79354 ; perimeter
G1 X98.731 Y81.165 E4.80549 ; perimeter
G1 X98.731 Y81.816 E4.81706 ; perimeter
G1 X98.894 Y82.493 E4.82944 ; perimeter
G1 X99.189 Y83.072 E4.84100 ; perimeter
G1 X99.623 Y83.586 E4.85296 ; perimeter
G1 X100.167 Y83.985 E4.86495 ; perimeter
G1 X100.791 Y84.248 E4.87698 ; perimeter
G1 X101.479 Y84.356 E4.88938 ; perimeter
G1 X102.133 Y84.305 E4.90104 ; perimeter
G1 X101.929 Y84.821 E4.91089 ; perimeter
G1 X101.130 Y86.030 E4.93667 ; perimeter
G1 X100.388 Y86.812 E4.95583 ; perimeter
G1 X100.127 Y87.037 E4.96195 ; perimeter
G1 X99.337 Y87.600 E4.97920 ; perimeter
G1 X98.919 Y87.837 E4.98774 ; perimeter
G1 X98.404 Y88.071 E4.99780 ; perimeter
G1 X98.449 Y87.474 E5.00844 ; perimeter
G1 X98.368 Y86.805 E5.02043 ; perimeter
G1 X98.124 Y86.159 E5.03269 ; perimeter
G1 X97.733 Y85.591 E5.04496 ; perimeter
G1 X97.217 Y85.132 E5.05722 ; perimeter
G1 X96.607 Y84.810 E5.06949 ; perimeter
G1 X95.938 Y84.643 E5.08175 ; perimeter
G1 X95.248 Y84.640 E5.09402 ; perimeter
G1 X94.578 Y84.801 E5.10628 ; perimeter
G1 X93.987 Y85.107 E5.11809 ; perimeter
G1 X93.448 Y85.570 E5.13074 ; perimeter
G1 X93.050 Y86.138 E5.14306 ; perimeter
G1 X92.801 Y86.781 E5.15533 ; perimeter
G1 X92.712 Y87.465 E5.16759 ; perimeter
G1 X92.786 Y88.126 E5.17941 ; perimeter
G1 X93.026 Y88.796 E5.19206 ; perimeter
G1 X93.414 Y89.370 E5.20438 ; perimeter
G1 X93.850 Y89.765 E5.21484 ; perimeter
G1 X93.858 Y89.993 E5.21889 ; perimeter
G1 X93.806 Y90.127 E5.22145 ; perimeter
G1 X93.754 Y90.433 E5.22696 ; perimeter
G1 X93.754 Y111.418 E5.60003 ; perimeter
G1 X111.048 Y123.538 E5.97546 ; perimeter
G1 X111.323 Y123.796 E5.98218 ; perimeter
G1 X111.490 Y124.080 E5.98803 ; perimeter
G1 X111.570 Y124.400 E5.99389 ; perimeter
G1 X111.560 Y124.669 E5.99868 ; perimeter
G1 E5.49868 F420.00000 ; retract extruder 0
G92 E0 ; reset extrusion distance
G1 X97.573 Y88.848 F6000.000 ; move to first perimeter point
G1 E0.50000 F420.00000 ; unretract extruder 0
G1 F1050
G1 X97.778 Y88.507 E0.50544 ; perimeter
G1 X97.904 Y88.170 E0.51036 ; perimeter
G1 X97.975 Y87.844 E0.51491 ; perimeter
G1 X98.002 Y87.485 E0.51984 ; perimeter
G1 X97.933 Y86.912 E0.52773 ; perimeter
G1 X97.727 Y86.367 E0.53568 ; perimeter
G1 X97.397 Y85.887 E0.54364 ; perimeter
G1 X96.962 Y85.500 E0.55159 ; perimeter
G1 X96.447 Y85.228 E0.55955 ; perimeter
G1 X95.882 Y85.087 E0.56751 ; perimeter
G1 X95.300 Y85.084 E0.57546 ; perimeter
G1 X94.734 Y85.221 E0.58342 ; perimeter
G1 X94.238 Y85.478 E0.59106 ; perimeter
G1 X93.780 Y85.871 E0.59931 ; perimeter
G1 X93.445 Y86.349 E0.60728 ; perimeter
G1 X93.234 Y86.892 E0.61523 ; perimeter
G1 X93.160 Y87.469 E0.62319 ; perimeter
G1 X93.222 Y88.025 E0.63083 ; perimeter
G1 X93.426 Y88.593 E0.63908 ; perimeter
G1 X93.752 Y89.077 E0.64705 ; perimeter
G1 X94.183 Y89.467 E0.65499 ; perimeter
G1 X94.520 Y89.653 E0.66026 ; perimeter
G1 X94.301 Y89.945 E0.66525 ; perimeter
G1 X94.305 Y90.067 E0.66691 ; perimeter
G1 X94.237 Y90.246 E0.66952 ; perimeter
G1 X94.198 Y90.471 E0.67265 ; perimeter
G1 X94.198 Y111.187 E0.95571 ; perimeter
G1 X111.329 Y123.192 E1.24155 ; perimeter
G1 X111.674 Y123.516 E1.24802 ; perimeter
G1 X111.906 Y123.910 E1.25427 ; perimeter
G1 X112.017 Y124.353 E1.26051 ; perimeter
G1 X111.999 Y124.810 E1.26676 ; perimeter
G1 X111.853 Y125.243 E1.27301 ; perimeter
G1 X111.590 Y125.618 E1.27926 ; perimeter
G1 X111.233 Y125.904 E1.28551 ; perimeter
G1 X110.810 Y126.077 E1.29175 ; perimeter
G1 X110.355 Y126.124 E1.29800 ; perimeter
G1 X109.906 Y126.041 E1.30425 ; perimeter
G1 X109.483 Y125.827 E1.31072 ; perimeter
G1 X87.946 Y110.779 E1.66973 ; perimeter
G1 X87.975 Y83.301 E2.04520 ; perimeter
G1 X88.283 Y83.531 E2.05045 ; perimeter
G1 X88.775 Y83.773 E2.05794 ; perimeter
G1 X89.338 Y83.899 E2.06582 ; perimeter
G1 X89.915 Y83.888 E2.07371 ; perimeter
G1 X90.474 Y83.741 E2.08160 ; perimeter
G1 X90.997 Y83.451 E2.08978 ; perimeter
G1 X91.408 Y83.080 E2.09734 ; perimeter
G1 X91.732 Y82.602 E2.10522 ; perimeter
G1 X91.934 Y82.062 E2.11311 ; perimeter
G1 X92.003 Y81.490 E2.12098 ; perimeter
G1 X91.942 Y80.954 E2.12835 ; perimeter
G1 X91.765 Y80.445 E2.13572 ; perimeter
G1 X91.480 Y79.988 E2.14308 ; perimeter
G1 X91.118 Y79.620 E2.15014 ; perimeter
G1 X90.646 Y79.316 E2.15780 ; perimeter
G1 X90.138 Y79.134 E2.16518 ; perimeter
G1 X89.604 Y79.069 E2.17253 ; perimeter
G1 X89.091 Y79.119 E2.17958 ; perimeter
G1 X88.578 Y79.286 E2.18695 ; perimeter
G1 X88.449 Y79.364 E2.18901 ; perimeter
G1 X88.321 Y79.256 E2.19129 ; perimeter
G1 X88.846 Y77.953 E2.21048 ; perimeter
G1 X89.380 Y77.082 E2.22444 ; perimeter
G1 X89.687 Y76.680 E2.23135 ; perimeter
G1 X90.202 Y76.110 E2.24185 ; perimeter
G1 X90.772 Y75.595 E2.25235 ; perimeter
G1 X91.173 Y75.290 E2.25923 ; perimeter
G1 X92.276 Y74.638 E2.27674 ; perimeter
G1 X93.565 Y74.147 E2.29559 ; perimeter
G1 X93.372 Y74.502 E2.30111 ; perimeter
G1 X93.205 Y75.024 E2.30859 ; perimeter
G1 X93.162 Y75.597 E2.31645 ; perimeter
G1 X93.256 Y76.165 E2.32431 ; perimeter
G1 X93.481 Y76.696 E2.33219 ; perimeter
G1 X93.842 Y77.172 E2.34035 ; perimeter
G1 X94.268 Y77.524 E2.34790 ; perimeter
G1 X94.785 Y77.776 E2.35576 ; perimeter
G1 X95.347 Y77.900 E2.36363 ; perimeter
G1 X95.923 Y77.887 E2.37151 ; perimeter
G1 X96.499 Y77.728 E2.37967 ; perimeter
G1 X96.984 Y77.463 E2.38721 ; perimeter
G1 X97.410 Y77.077 E2.39508 ; perimeter
G1 X97.733 Y76.600 E2.40294 ; perimeter
G1 X97.934 Y76.061 E2.41081 ; perimeter
G1 X98.002 Y75.495 E2.41860 ; perimeter
G1 X97.978 Y75.158 E2.42322 ; perimeter
G1 X97.904 Y74.810 E2.42807 ; perimeter
G1 X97.778 Y74.472 E2.43301 ; perimeter
G1 X97.708 Y74.358 E2.43483 ; perimeter
G1 X97.816 Y74.231 E2.43711 ; perimeter
G1 X99.117 Y74.755 E2.45628 ; perimeter
G1 X99.988 Y75.289 E2.47024 ; perimeter
G1 X100.390 Y75.595 E2.47715 ; perimeter
G1 X100.960 Y76.110 E2.48764 ; perimeter
G1 X101.475 Y76.680 E2.49814 ; perimeter
G1 X101.781 Y77.081 E2.50502 ; perimeter
G1 X102.432 Y78.185 E2.52254 ; perimeter
G1 X102.842 Y79.259 E2.53824 ; perimeter
G1 X102.715 Y79.365 E2.54050 ; perimeter
G1 X102.583 Y79.285 E2.54260 ; perimeter
G1 X102.042 Y79.112 E2.55037 ; perimeter
G1 X101.474 Y79.071 E2.55814 ; perimeter
G1 X100.913 Y79.163 E2.56592 ; perimeter
G1 X100.408 Y79.372 E2.57338 ; perimeter
G1 X99.929 Y79.719 E2.58147 ; perimeter
G1 X99.561 Y80.155 E2.58925 ; perimeter
