; generated by Slic3r 1.3.0 on 2019-10-30 at 10:53:23

; external perimeters extrusion width = 0.44mm (3.38mm^3/s)
; perimeters extrusion width = 0.56mm (8.80mm^3/s)
; infill extrusion width = 0.50mm (10.04mm^3/s)
; solid infill extrusion width = 0.56mm (11.31mm^3/s)
; top infill extrusion width = 0.56mm (6.28mm^3/s)

G28 ; home all axes
; Filament gcode

G21 ; set units to millimeters
G90 ; use absolute coordinates
M82 ; use absolute distances for extrusion
G92 E0 ; reset extrusion distance
G1 E-0.50000 F420.00000 ; retract extruder 0
G92 E0 ; reset extrusion distance
G1 Z0.250 F6000.000 ; move to next layer (0)
G1 X77.596 Y47.650 F6000.000 ; move to first skirt point
G1 E0.50000 F420.00000 ; unretract extruder 0
G1 F1800
G1 X78.498 Y46.444 E0.52677 ; skirt
G1 X78.926 Y45.993 E0.53782 ; skirt
G1 X79.052 Y45.860 E0.54107 ; skirt
G1 X80.207 Y44.895 E0.56784 ; skirt
G1 X80.880 Y44.454 E0.58214 ; skirt
G1 X82.226 Y43.780 E0.60891 ; skirt
G1 X82.983 Y43.505 E0.62322 ; skirt
G1 X84.448 Y43.159 E0.64998 ; skirt
G1 X85.247 Y43.066 E0.66429 ; skirt
G1 X86.000 Y43.022 E0.67769 ; skirt
G1 X114.000 Y43.022 E1.17547 ; skirt
G1 X114.753 Y43.066 E1.18888 ; skirt
G1 X115.552 Y43.159 E1.20318 ; skirt
G1 X117.017 Y43.505 E1.22995 ; skirt
G1 X117.774 Y43.780 E1.24425 ; skirt
G1 X119.120 Y44.454 E1.27102 ; skirt
G1 X119.793 Y44.895 E1.28532 ; skirt
G1 X120.948 Y45.860 E1.31209 ; skirt
G1 X121.502 Y46.444 E1.32640 ; skirt
G1 X122.404 Y47.650 E1.35316 ; skirt
G1 X122.808 Y48.345 E1.36747 ; skirt
G1 X123.409 Y49.726 E1.39423 ; skirt
G1 X123.643 Y50.496 E1.40854 ; skirt
G1 X123.819 Y51.228 E1.42193 ; skirt
G1 X131.870 Y95.895 E2.22879 ; skirt
G1 X131.973 Y97.045 E2.24933 ; skirt
G1 X131.978 Y125.002 E2.74634 ; skirt
G1 X131.955 Y125.549 E2.75607 ; skirt
G1 X131.848 Y126.807 E2.77851 ; skirt
G1 X131.663 Y127.889 E2.79802 ; skirt
G1 X131.347 Y129.110 E2.82046 ; skirt
G1 X130.983 Y130.146 E2.83998 ; skirt
G1 X130.465 Y131.297 E2.86242 ; skirt
G1 X130.219 Y131.788 E2.87218 ; skirt
G1 X120.219 Y149.788 E3.23825 ; skirt
G1 X119.851 Y150.374 E3.25054 ; skirt
G1 X118.938 Y151.672 E3.27876 ; skirt
G1 X118.027 Y152.710 E3.30331 ; skirt
G1 X116.860 Y153.786 E3.33152 ; skirt
G1 X115.751 Y154.608 E3.35607 ; skirt
G1 X114.383 Y155.413 E3.38429 ; skirt
G1 X113.126 Y155.983 E3.40883 ; skirt
G1 X111.618 Y156.481 E3.43705 ; skirt
G1 X110.269 Y156.773 E3.46160 ; skirt
G1 X108.690 Y156.941 E3.48982 ; skirt
G1 X108.000 Y156.978 E3.50211 ; skirt
G1 X86.000 Y156.978 E3.89322 ; skirt
G1 X85.248 Y156.934 E3.90661 ; skirt
G1 X83.990 Y156.788 E3.92913 ; skirt
G1 X82.526 Y156.442 E3.95587 ; skirt
G1 X81.336 Y156.011 E3.97838 ; skirt
G1 X79.990 Y155.338 E4.00512 ; skirt
G1 X78.931 Y154.644 E4.02764 ; skirt
G1 X77.776 Y153.681 E4.05438 ; skirt
G1 X76.904 Y152.762 E4.07689 ; skirt
G1 X76.418 Y152.187 E4.09028 ; skirt
G1 X70.418 Y144.187 E4.26806 ; skirt
G1 X70.030 Y143.607 E4.28045 ; skirt
G1 X69.431 Y142.600 E4.30129 ; skirt
G1 X68.852 Y141.334 E4.32604 ; skirt
G1 X68.481 Y140.222 E4.34688 ; skirt
G1 X68.185 Y138.862 E4.37163 ; skirt
G1 X68.059 Y137.696 E4.39247 ; skirt
G1 X68.022 Y137.001 E4.40484 ; skirt
G1 X68.027 Y97.046 E5.11516 ; skirt
G1 X68.130 Y95.895 E5.13570 ; skirt
G1 X76.181 Y51.228 E5.94257 ; skirt
G1 X76.357 Y50.496 E5.95596 ; skirt
G1 X76.591 Y49.726 E5.97026 ; skirt
G1 X77.192 Y48.345 E5.99703 ; skirt
G1 X77.566 Y47.702 E6.01027 ; skirt
G1 E5.51027 F420.00000 ; retract extruder 0
G92 E0 ; reset extrusion distance
G1 X124.303 Y97.152 F6000.000 ; move to first perimeter point
G1 E0.50000 F420.00000 ; unretract extruder 0
G1 F2100
G1 X124.308 Y124.951 E0.99420 ; perimeter
G1 X124.214 Y126.060 E1.01400 ; perimeter
G1 X123.947 Y127.091 E1.03292 ; perimeter
G1 X123.490 Y128.107 E1.05272 ; perimeter
G1 X113.544 Y146.009 E1.41681 ; perimeter
G1 X112.738 Y147.154 E1.44171 ; perimeter
G1 X111.754 Y148.061 E1.46549 ; perimeter
G1 X110.601 Y148.740 E1.48928 ; perimeter
G1 X109.330 Y149.159 E1.51307 ; perimeter
G1 X107.938 Y149.308 E1.53797 ; perimeter
G1 X86.068 Y149.308 E1.92677 ; perimeter
G1 X85.012 Y149.185 E1.94566 ; perimeter
G1 X84.077 Y148.846 E1.96335 ; perimeter
G1 X83.245 Y148.301 E1.98103 ; perimeter
G1 X82.513 Y147.531 E1.99992 ; perimeter
G1 X76.591 Y139.635 E2.17538 ; perimeter
G1 X76.088 Y138.789 E2.19288 ; perimeter
G1 X75.797 Y137.916 E2.20925 ; perimeter
G1 X75.692 Y136.937 E2.22674 ; perimeter
G1 X75.697 Y97.152 E2.93404 ; perimeter
G1 X83.717 Y52.657 E3.73780 ; perimeter
G1 X83.891 Y52.082 E3.74848 ; perimeter
G1 X84.159 Y51.622 E3.75795 ; perimeter
G1 X84.525 Y51.235 E3.76742 ; perimeter
G1 X84.970 Y50.943 E3.77689 ; perimeter
G1 X85.471 Y50.761 E3.78635 ; perimeter
G1 X86.068 Y50.692 E3.79703 ; perimeter
G1 X113.932 Y50.692 E4.29240 ; perimeter
G1 X114.529 Y50.761 E4.30308 ; perimeter
G1 X115.030 Y50.943 E4.31255 ; perimeter
G1 X115.475 Y51.235 E4.32202 ; perimeter
G1 X115.841 Y51.622 E4.33149 ; perimeter
G1 X116.109 Y52.082 E4.34096 ; perimeter
G1 X116.283 Y52.657 E4.35164 ; perimeter
G1 X124.292 Y97.093 E5.15433 ; perimeter
G1 X124.798 Y97.063 F6000.000 ; move to first perimeter point
G1 F2100
G1 X124.811 Y124.972 E5.65050 ; perimeter
G1 X124.711 Y126.145 E5.67143 ; perimeter
G1 X124.423 Y127.258 E5.69187 ; perimeter
G1 X123.940 Y128.332 E5.71281 ; perimeter
G1 X113.971 Y146.277 E6.07774 ; perimeter
G1 X113.118 Y147.488 E6.10407 ; perimeter
G1 X112.055 Y148.467 E6.12977 ; perimeter
G1 X110.810 Y149.200 E6.15546 ; perimeter
G1 X109.437 Y149.653 E6.18116 ; perimeter
G1 X107.965 Y149.811 E6.20749 ; perimeter
G1 X86.039 Y149.811 E6.59728 ; perimeter
G1 X84.896 Y149.678 E6.61774 ; perimeter
G1 X83.851 Y149.299 E6.63750 ; perimeter
G1 X82.920 Y148.690 E6.65726 ; perimeter
G1 X82.128 Y147.856 E6.67772 ; perimeter
G1 X76.173 Y139.915 E6.85418 ; perimeter
G1 X75.629 Y138.999 E6.87311 ; perimeter
G1 X75.303 Y138.023 E6.89140 ; perimeter
G1 X75.189 Y136.964 E6.91034 ; perimeter
G1 X75.195 Y97.107 E7.61891 ; perimeter
G1 X83.227 Y52.539 E8.42400 ; perimeter
G1 X83.427 Y51.880 E8.43624 ; perimeter
G1 X83.753 Y51.318 E8.44779 ; perimeter
G1 X84.200 Y50.847 E8.45934 ; perimeter
G1 X84.744 Y50.491 E8.47089 ; perimeter
G1 X85.355 Y50.269 E8.48244 ; perimeter
G1 X86.039 Y50.189 E8.49468 ; perimeter
G1 X113.961 Y50.189 E8.99109 ; perimeter
G1 X114.645 Y50.269 E9.00333 ; perimeter
G1 X115.256 Y50.491 E9.01488 ; perimeter
G1 X115.800 Y50.847 E9.02643 ; perimeter
G1 X116.247 Y51.318 E9.03798 ; perimeter
G1 X116.573 Y51.880 E9.04954 ; perimeter
G1 X116.773 Y52.539 E9.06178 ; perimeter
G1 X124.787 Y97.004 E9.86499 ; perimeter
G1 X125.235 Y96.984 F6000.000 ; move to first perimeter point
G1 F1050
G1 X125.250 Y97.067 E9.86615 ; perimeter
G1 X125.255 Y124.991 E10.24771 ; perimeter
G1 X125.151 Y126.220 E10.26457 ; perimeter
G1 X124.844 Y127.406 E10.28131 ; perimeter
G1 X124.338 Y128.532 E10.29817 ; perimeter
G1 X114.348 Y146.513 E10.57925 ; perimeter
G1 X113.454 Y147.782 E10.60046 ; perimeter
G1 X112.322 Y148.826 E10.62150 ; perimeter
G1 X110.994 Y149.607 E10.64255 ; perimeter
G1 X109.532 Y150.090 E10.66360 ; perimeter
G1 X107.988 Y150.255 E10.68481 ; perimeter
G1 X86.013 Y150.255 E10.98509 ; perimeter
G1 X84.793 Y150.113 E11.00187 ; perimeter
G1 X83.650 Y149.699 E11.01847 ; perimeter
G1 X82.634 Y149.034 E11.03508 ; perimeter
G1 X81.788 Y148.143 E11.05186 ; perimeter
G1 X75.803 Y140.163 E11.18817 ; perimeter
G1 X75.222 Y139.185 E11.20370 ; perimeter
G1 X74.866 Y138.118 E11.21907 ; perimeter
G1 X74.745 Y136.988 E11.23460 ; perimeter
G1 X74.750 Y97.067 E11.78009 ; perimeter
G1 X82.794 Y52.435 E12.39979 ; perimeter
G1 X83.017 Y51.702 E12.41026 ; perimeter
G1 X83.395 Y51.050 E12.42055 ; perimeter
G1 X83.913 Y50.503 E12.43085 ; perimeter
G1 X84.544 Y50.090 E12.44114 ; perimeter
G1 X85.252 Y49.833 E12.45144 ; perimeter
G1 X86.013 Y49.745 E12.46191 ; perimeter
G1 X113.987 Y49.745 E12.84416 ; perimeter
G1 X114.748 Y49.833 E12.85463 ; perimeter
G1 X115.456 Y50.090 E12.86492 ; perimeter
G1 X116.087 Y50.503 E12.87522 ; perimeter
G1 X116.605 Y51.050 E12.88551 ; perimeter
G1 X116.983 Y51.702 E12.89581 ; perimeter
G1 X117.206 Y52.435 E12.90628 ; perimeter
G1 X125.224 Y96.925 E13.52400 ; perimeter
G1 X125.170 Y97.039 F6000.000 ; move inwards before travel
G1 E13.02400 F420.00000 ; retract extruder 0
G92 E0 ; reset extrusion distance
G1 X123.805 Y125.006 F6000.000 ; move to first infill point
G1 E0.50000 F420.00000 ; unretract extruder 0
G1 F2700
G1 X123.800 Y97.121 E0.99952 ; infill
G1 X123.299 Y94.340 E1.05015 ; infill
G1 X123.299 Y127.382 E1.64207 ; infill
G1 X123.041 Y127.956 E1.65335 ; infill
G1 X122.792 Y128.403 E1.66250 ; infill
G1 X122.792 Y91.529 E2.32305 ; infill
G1 X122.286 Y88.719 E2.37420 ; infill
G1 X122.286 Y129.315 E3.10142 ; infill
G1 X121.779 Y130.227 E3.12011 ; infill
G1 X121.779 Y85.909 E3.91400 ; infill
G1 X121.273 Y83.099 E3.96515 ; infill
G1 X121.273 Y131.138 E4.82572 ; infill
G1 X120.766 Y132.050 E4.84440 ; infill
G1 X120.766 Y80.288 E5.77164 ; infill
G1 X120.260 Y77.478 E5.82280 ; infill
G1 X120.260 Y132.962 E6.81671 ; infill
G1 X119.753 Y133.873 E6.83539 ; infill
G1 X119.753 Y74.668 E7.89598 ; infill
G1 X119.247 Y71.858 E7.94713 ; infill
G1 X119.247 Y134.785 E9.07439 ; infill
G1 X118.740 Y135.697 E9.09308 ; infill
G1 X118.740 Y69.047 E10.28701 ; infill
G1 X118.234 Y66.237 E10.33816 ; infill
G1 X118.234 Y136.609 E11.59877 ; infill
G1 X117.727 Y137.520 E11.61745 ; infill
G1 X117.727 Y63.427 E12.94473 ; infill
G1 X117.221 Y60.617 E12.99589 ; infill
G1 X117.221 Y138.432 E14.38984 ; infill
G1 X116.714 Y139.344 E14.40852 ; infill
G1 X116.714 Y57.806 E15.86915 ; infill
G1 X116.208 Y54.996 E15.92030 ; infill
G1 X116.208 Y140.255 E17.44760 ; infill
G1 X115.701 Y141.167 E17.46629 ; infill
G1 X115.701 Y52.394 E19.05653 ; infill
G1 X115.645 Y52.209 E19.06000 ; infill
G1 X115.436 Y51.849 E19.06745 ; infill
G1 X115.195 Y51.595 E19.07373 ; infill
G1 X115.195 Y142.079 E20.69463 ; infill
G1 X114.688 Y142.990 E20.71331 ; infill
G1 X114.688 Y51.282 E22.35614 ; infill
G1 X114.371 Y51.174 E22.36215 ; infill
G1 X114.182 Y51.152 E22.36556 ; infill
G1 X114.182 Y143.902 E24.02705 ; infill
G1 X113.675 Y144.814 E24.04574 ; infill
G1 X113.675 Y51.119 E25.72415 ; infill
G1 X113.169 Y51.119 E25.73322 ; infill
G1 X113.169 Y145.725 E27.42796 ; infill
G1 X112.662 Y146.464 E27.44401 ; infill
G1 X112.662 Y51.119 E29.15198 ; infill
G1 X112.156 Y51.119 E29.16106 ; infill
G1 X112.156 Y147.083 E30.88011 ; infill
G1 X111.649 Y147.549 E30.89245 ; infill
G1 X111.649 Y51.119 E32.61987 ; infill
G1 X111.143 Y51.119 E32.62894 ; infill
G1 X111.143 Y147.913 E34.36287 ; infill
G1 X110.636 Y148.211 E34.37339 ; infill
G1 X110.636 Y51.119 E36.11266 ; infill
G1 X110.130 Y51.119 E36.12173 ; infill
G1 X110.130 Y148.441 E37.86512 ; infill
G1 X109.623 Y148.609 E37.87468 ; infill
G1 X109.623 Y51.119 E39.62107 ; infill
G1 X109.117 Y51.119 E39.63014 ; infill
G1 X109.117 Y148.752 E41.37910 ; infill
G1 X108.610 Y148.806 E41.38823 ; infill
G1 X108.610 Y51.119 E43.13816 ; infill
G1 X108.104 Y51.119 E43.14723 ; infill
G1 X108.104 Y148.860 E44.89813 ; infill
G1 X107.911 Y148.881 E44.90160 ; infill
G1 X107.597 Y148.881 E44.90722 ; infill
G1 X107.597 Y51.119 E46.65849 ; infill
G1 X107.091 Y51.119 E46.66756 ; infill
G1 X107.091 Y148.881 E48.41882 ; infill
G1 X106.584 Y148.881 E48.42790 ; infill
G1 X106.584 Y51.119 E50.17916 ; infill
G1 X106.078 Y51.119 E50.18824 ; infill
G1 X106.078 Y148.881 E51.93950 ; infill
G1 X105.571 Y148.881 E51.94858 ; infill
G1 X105.571 Y51.119 E53.69984 ; infill
G1 X105.065 Y51.119 E53.70891 ; infill
G1 X105.065 Y148.881 E55.46018 ; infill
G1 X104.558 Y148.881 E55.46925 ; infill
G1 X104.558 Y51.119 E57.22052 ; infill
G1 X104.052 Y51.119 E57.22959 ; infill
G1 X104.052 Y148.881 E58.98086 ; infill
G1 X103.545 Y148.881 E58.98993 ; infill
G1 X103.545 Y51.119 E60.74120 ; infill
G1 X103.039 Y51.119 E60.75027 ; infill
G1 X103.039 Y148.881 E62.50154 ; infill
G1 X102.532 Y148.881 E62.51061 ; infill
G1 X102.532 Y51.119 E64.26188 ; infill
G1 X102.026 Y51.119 E64.27095 ; infill
G1 X102.026 Y148.881 E66.02222 ; infill
G1 X101.519 Y148.881 E66.03129 ; infill
G1 X101.519 Y51.119 E67.78256 ; infill
G1 X101.013 Y51.119 E67.79163 ; infill
G1 X101.013 Y148.881 E69.54289 ; infill
G1 X100.506 Y148.881 E69.55197 ; infill
G1 X100.507 Y51.119 E71.30323 ; infill
G1 X100.000 Y51.119 E71.31231 ; infill
G1 X100.000 Y148.881 E73.06357 ; infill
G1 X99.493 Y148.881 E73.07265 ; infill
G1 X99.494 Y51.119 E74.82391 ; infill
G1 X98.987 Y51.119 E74.83299 ; infill
G1 X98.987 Y148.881 E76.58425 ; infill
G1 X98.481 Y148.881 E76.59332 ; infill
G1 X98.481 Y51.119 E78.34459 ; infill
G1 X97.974 Y51.119 E78.35366 ; infill
G1 X97.974 Y148.881 E80.10493 ; infill
G1 X97.468 Y148.881 E80.11400 ; infill
G1 X97.468 Y51.119 E81.86527 ; infill
G1 X96.961 Y51.119 E81.87434 ; infill
G1 X96.961 Y148.881 E83.62561 ; infill
G1 X96.455 Y148.881 E83.63468 ; infill
G1 X96.455 Y51.119 E85.38595 ; infill
G1 X95.948 Y51.119 E85.39502 ; infill
G1 X95.948 Y148.881 E87.14629 ; infill
G1 X95.442 Y148.881 E87.15536 ; infill
G1 X95.442 Y51.119 E88.90663 ; infill
G1 X94.935 Y51.119 E88.91570 ; infill
G1 X94.935 Y148.881 E90.66696 ; infill
G1 X94.429 Y148.881 E90.67604 ; infill
G1 X94.429 Y51.119 E92.42730 ; infill
G1 X93.922 Y51.119 E92.43638 ; infill
G1 X93.922 Y148.881 E94.18764 ; infill
G1 X93.416 Y148.881 E94.19672 ; infill
G1 X93.416 Y51.119 E95.94798 ; infill
G1 X92.909 Y51.119 E95.95705 ; infill
G1 X92.909 Y148.881 E97.70832 ; infill
G1 X92.403 Y148.881 E97.71739 ; infill
G1 X92.403 Y51.119 E99.46866 ; infill
G1 X91.896 Y51.119 E99.47773 ; infill
G1 X91.896 Y148.881 E101.22900 ; infill
G1 X91.390 Y148.881 E101.23807 ; infill
G1 X91.390 Y51.119 E102.98934 ; infill
G1 X90.883 Y51.119 E102.99841 ; infill
G1 X90.883 Y148.881 E104.74968 ; infill
G1 X90.377 Y148.881 E104.75875 ; infill
G1 X90.377 Y51.119 E106.51002 ; infill
G1 X89.870 Y51.119 E106.51909 ; infill
G1 X89.870 Y148.881 E108.27036 ; infill
G1 X89.364 Y148.881 E108.27943 ; infill
G1 X89.364 Y51.119 E110.03069 ; infill
G1 X88.857 Y51.119 E110.03977 ; infill
G1 X88.857 Y148.881 E111.79103 ; infill
G1 X88.351 Y148.881 E111.80011 ; infill
G1 X88.351 Y51.119 E113.55137 ; infill
G1 X87.844 Y51.119 E113.56045 ; infill
G1 X87.844 Y148.881 E115.31171 ; infill
G1 X87.338 Y148.881 E115.32079 ; infill
G1 X87.338 Y51.119 E117.07205 ; infill
G1 X86.831 Y51.119 E117.08112 ; infill
G1 X86.831 Y148.881 E118.83239 ; infill
G1 X86.325 Y148.881 E118.84146 ; infill
G1 X86.325 Y51.119 E120.59273 ; infill
G1 X86.097 Y51.119 E120.59681 ; infill
G1 X85.818 Y51.152 E120.60184 ; infill
G1 X85.818 Y148.848 E122.35194 ; infill
G1 X85.312 Y148.789 E122.36107 ; infill
G1 X85.312 Y51.279 E124.10785 ; infill
G1 X85.197 Y51.320 E124.11003 ; infill
G1 X84.849 Y51.548 E124.11747 ; infill
G1 X84.805 Y51.595 E124.11863 ; infill
G1 X84.805 Y148.651 E125.85726 ; infill
G1 X84.299 Y148.466 E125.86691 ; infill
G1 X84.299 Y52.394 E127.58791 ; infill
G1 X84.206 Y52.700 E127.59362 ; infill
G1 X83.792 Y54.996 E127.63543 ; infill
G1 X83.792 Y148.134 E129.30387 ; infill
G1 X83.569 Y147.988 E129.30865 ; infill
G1 X83.286 Y147.690 E129.31602 ; infill
G1 X83.286 Y57.806 E130.92616 ; infill
G1 X82.779 Y60.617 E130.97732 ; infill
G1 X82.779 Y147.123 E132.52697 ; infill
G1 X82.273 Y146.448 E132.54209 ; infill
G1 X82.273 Y63.427 E134.02930 ; infill
G1 X81.766 Y66.237 E134.08045 ; infill
G1 X81.766 Y145.773 E135.50522 ; infill
G1 X81.260 Y145.097 E135.52034 ; infill
G1 X81.260 Y69.047 E136.88267 ; infill
G1 X80.753 Y71.858 E136.93383 ; infill
G1 X80.753 Y144.422 E138.23372 ; infill
G1 X80.247 Y143.747 E138.24884 ; infill
G1 X80.247 Y74.668 E139.48629 ; infill
G1 X79.740 Y77.478 E139.53745 ; infill
G1 X79.740 Y143.071 E140.71246 ; infill
G1 X79.234 Y142.396 E140.72758 ; infill
G1 X79.234 Y80.288 E141.84015 ; infill
G1 X78.727 Y83.099 E141.89131 ; infill
G1 X78.727 Y141.721 E142.94144 ; infill
G1 X78.221 Y141.045 E142.95656 ; infill
G1 X78.221 Y85.909 E143.94426 ; infill
G1 X77.714 Y88.719 E143.99541 ; infill
G1 X77.714 Y140.370 E144.92067 ; infill
G1 X77.208 Y139.695 E144.93579 ; infill
G1 X77.208 Y91.529 E145.79861 ; infill
