; generated by Slic3r 1.3.0 on 2019-10-30 at 15:37:01

; external perimeters extrusion width = 0.44mm (3.38mm^3/s)
; perimeters extrusion width = 0.56mm (8.80mm^3/s)
; infill extrusion width = 0.50mm (10.04mm^3/s)
; solid infill extrusion width = 0.56mm (11.31mm^3/s)
; top infill extrusion width = 0.56mm (6.28mm^3/s)

G28 ; home all axes
; Filament gcode

G21 ; set units to millimeters
G90 ; use absolute coordinates
M82 ; use absolute distances for extrusion
G92 E0 ; reset extrusion distance
G1 E-0.50000 F420.00000 ; retract extruder 0
G92 E0 ; reset extrusion distance
G1 Z0.250 F6000.000 ; move to next layer (0)
G1 X83.857 Y83.024 F6000.000 ; move to first skirt point
G1 E0.50000 F420.00000 ; unretract extruder 0
G1 F1800
G1 X85.965 Y81.445 E0.54681 ; skirt
G1 X86.132 Y81.367 E0.55009 ; skirt
G1 X87.307 Y80.946 E0.57229 ; skirt
G1 X89.000 Y80.722 E0.60264 ; skirt
G1 X122.000 Y80.722 E1.18930 ; skirt
G1 X124.237 Y81.119 E1.22970 ; skirt
G1 X126.201 Y82.261 E1.27009 ; skirt
G1 X127.652 Y84.010 E1.31048 ; skirt
G1 X128.502 Y87.225 E1.36960 ; skirt
G1 X128.502 Y112.775 E1.82383 ; skirt
G1 X128.105 Y115.012 E1.86423 ; skirt
G1 X126.963 Y116.976 E1.90462 ; skirt
G1 X125.215 Y118.427 E1.94501 ; skirt
G1 X122.000 Y119.278 E2.00413 ; skirt
G1 X89.000 Y119.278 E2.59080 ; skirt
G1 X87.307 Y119.054 E2.62115 ; skirt
G1 X86.132 Y118.633 E2.64335 ; skirt
G1 X85.965 Y118.555 E2.64662 ; skirt
G1 X83.857 Y116.976 E2.69344 ; skirt
G1 X83.723 Y116.825 E2.69702 ; skirt
G1 X82.690 Y115.243 E2.73062 ; skirt
G1 X82.647 Y115.149 E2.73245 ; skirt
G1 X82.185 Y113.750 E2.75865 ; skirt
G1 X82.023 Y112.300 E2.78459 ; skirt
G1 X82.023 Y87.700 E3.22192 ; skirt
G1 X82.185 Y86.250 E3.24786 ; skirt
G1 X82.647 Y84.851 E3.27406 ; skirt
G1 X82.690 Y84.757 E3.27589 ; skirt
G1 X83.723 Y83.175 E3.30949 ; skirt
G1 X83.817 Y83.068 E3.31200 ; skirt
G1 E2.81200 F420.00000 ; retract extruder 0
G92 E0 ; reset extrusion distance
G1 X120.832 Y111.608 F6000.000 ; move to first perimeter point
G1 E0.50000 F420.00000 ; unretract extruder 0
G1 F2100
G1 X89.693 Y111.608 E1.05360 ; perimeter
G1 X89.693 Y88.392 E1.46633 ; perimeter
G1 X120.832 Y88.392 E2.01992 ; perimeter
G1 X120.832 Y111.548 E2.43159 ; perimeter
G1 X121.335 Y112.111 F6000.000 ; move to first perimeter point
G1 F2100
G1 X89.190 Y112.111 E3.00306 ; perimeter
G1 X89.190 Y87.889 E3.43366 ; perimeter
G1 X121.335 Y87.889 E4.00513 ; perimeter
G1 X121.335 Y112.051 E4.43467 ; perimeter
G1 X121.780 Y112.555 F6000.000 ; move to first perimeter point
G1 F1050
G1 X89.041 Y112.555 E4.88202 ; perimeter
G1 X88.858 Y112.483 E4.88471 ; perimeter
G1 X88.781 Y112.396 E4.88630 ; perimeter
G1 X88.745 Y112.277 E4.88799 ; perimeter
G1 X88.745 Y87.723 E5.22351 ; perimeter
G1 X88.781 Y87.604 E5.22520 ; perimeter
G1 X88.858 Y87.517 E5.22680 ; perimeter
G1 X89.041 Y87.445 E5.22949 ; perimeter
G1 X121.780 Y87.445 E5.67684 ; perimeter
G1 X121.780 Y112.495 E6.01913 ; perimeter
G1 X121.389 Y112.469 F6000.000 ; move inwards before travel
G1 X120.330 Y111.181 F6000.000 ; move to first infill point
G1 F2700
G1 X120.330 Y88.819 E6.42308 ; infill
G1 X119.819 Y88.819 E6.43230 ; infill
G1 X119.819 Y111.181 E6.83625 ; infill
G1 X119.308 Y111.181 E6.84547 ; infill
G1 X119.308 Y88.819 E7.24942 ; infill
G1 X118.797 Y88.819 E7.25864 ; infill
G1 X118.797 Y111.181 E7.66259 ; infill
G1 X118.287 Y111.181 E7.67181 ; infill
G1 X118.287 Y88.819 E8.07576 ; infill
G1 X117.776 Y88.819 E8.08498 ; infill
G1 X117.776 Y111.181 E8.48893 ; infill
G1 X117.265 Y111.181 E8.49815 ; infill
G1 X117.265 Y88.819 E8.90210 ; infill
G1 X116.754 Y88.819 E8.91132 ; infill
G1 X116.754 Y111.181 E9.31527 ; infill
G1 X116.244 Y111.181 E9.32449 ; infill
G1 X116.244 Y88.819 E9.72844 ; infill
G1 X115.733 Y88.819 E9.73766 ; infill
G1 X115.733 Y111.181 E10.14161 ; infill
G1 X115.222 Y111.181 E10.15083 ; infill
G1 X115.222 Y88.819 E10.55478 ; infill
G1 X114.711 Y88.819 E10.56400 ; infill
G1 X114.711 Y111.181 E10.96795 ; infill
G1 X114.201 Y111.181 E10.97717 ; infill
G1 X114.201 Y88.819 E11.38112 ; infill
G1 X113.690 Y88.819 E11.39034 ; infill
G1 X113.690 Y111.181 E11.79429 ; infill
G1 X113.179 Y111.181 E11.80351 ; infill
G1 X113.179 Y88.819 E12.20746 ; infill
G1 X112.668 Y88.819 E12.21668 ; infill
G1 X112.668 Y111.181 E12.62063 ; infill
G1 X112.158 Y111.181 E12.62985 ; infill
G1 X112.158 Y88.819 E13.03379 ; infill
G1 X111.647 Y88.819 E13.04302 ; infill
G1 X111.647 Y111.181 E13.44696 ; infill
G1 X111.136 Y111.181 E13.45619 ; infill
G1 X111.136 Y88.819 E13.86013 ; infill
G1 X110.625 Y88.819 E13.86936 ; infill
G1 X110.625 Y111.181 E14.27330 ; infill
G1 X110.115 Y111.181 E14.28253 ; infill
G1 X110.115 Y88.819 E14.68647 ; infill
G1 X109.604 Y88.819 E14.69570 ; infill
G1 X109.604 Y111.181 E15.09964 ; infill
G1 X109.093 Y111.181 E15.10887 ; infill
G1 X109.093 Y88.819 E15.51281 ; infill
G1 X108.582 Y88.819 E15.52204 ; infill
G1 X108.582 Y111.181 E15.92598 ; infill
G1 X108.072 Y111.181 E15.93521 ; infill
G1 X108.072 Y88.819 E16.33915 ; infill
G1 X107.561 Y88.819 E16.34838 ; infill
G1 X107.561 Y111.181 E16.75232 ; infill
G1 X107.050 Y111.181 E16.76155 ; infill
G1 X107.050 Y88.819 E17.16549 ; infill
G1 X106.539 Y88.819 E17.17472 ; infill
G1 X106.539 Y111.181 E17.57866 ; infill
G1 X106.029 Y111.181 E17.58789 ; infill
G1 X106.029 Y88.819 E17.99183 ; infill
G1 X105.518 Y88.819 E18.00106 ; infill
G1 X105.518 Y111.181 E18.40500 ; infill
G1 X105.007 Y111.181 E18.41423 ; infill
G1 X105.007 Y88.819 E18.81817 ; infill
G1 X104.496 Y88.819 E18.82740 ; infill
G1 X104.496 Y111.181 E19.23134 ; infill
G1 X103.986 Y111.181 E19.24057 ; infill
G1 X103.986 Y88.819 E19.64451 ; infill
G1 X103.475 Y88.819 E19.65374 ; infill
G1 X103.475 Y111.181 E20.05768 ; infill
G1 X102.964 Y111.181 E20.06691 ; infill
G1 X102.964 Y88.819 E20.47085 ; infill
G1 X102.453 Y88.819 E20.48008 ; infill
G1 X102.453 Y111.181 E20.88402 ; infill
G1 X101.943 Y111.181 E20.89325 ; infill
G1 X101.943 Y88.819 E21.29719 ; infill
G1 X101.432 Y88.819 E21.30642 ; infill
G1 X101.432 Y111.181 E21.71036 ; infill
G1 X100.921 Y111.181 E21.71959 ; infill
G1 X100.921 Y88.819 E22.12353 ; infill
G1 X100.410 Y88.819 E22.13276 ; infill
G1 X100.410 Y111.181 E22.53670 ; infill
G1 X99.900 Y111.181 E22.54593 ; infill
G1 X99.900 Y88.819 E22.94987 ; infill
G1 X99.389 Y88.819 E22.95910 ; infill
G1 X99.389 Y111.181 E23.36304 ; infill
G1 X98.878 Y111.181 E23.37227 ; infill
G1 X98.878 Y88.819 E23.77621 ; infill
G1 X98.367 Y88.819 E23.78544 ; infill
G1 X98.367 Y111.181 E24.18938 ; infill
G1 X97.857 Y111.181 E24.19861 ; infill
G1 X97.857 Y88.819 E24.60255 ; infill
G1 X97.346 Y88.819 E24.61178 ; infill
G1 X97.346 Y111.181 E25.01572 ; infill
G1 X96.835 Y111.181 E25.02495 ; infill
G1 X96.835 Y88.819 E25.42889 ; infill
G1 X96.324 Y88.819 E25.43812 ; infill
G1 X96.324 Y111.181 E25.84206 ; infill
G1 X95.814 Y111.181 E25.85129 ; infill
G1 X95.814 Y88.819 E26.25523 ; infill
G1 X95.303 Y88.819 E26.26446 ; infill
G1 X95.303 Y111.181 E26.66840 ; infill
G1 X94.792 Y111.181 E26.67763 ; infill
G1 X94.792 Y88.819 E27.08157 ; infill
G1 X94.281 Y88.819 E27.09079 ; infill
G1 X94.281 Y111.181 E27.49474 ; infill
G1 X93.771 Y111.181 E27.50396 ; infill
G1 X93.771 Y88.819 E27.90791 ; infill
G1 X93.260 Y88.819 E27.91713 ; infill
G1 X93.260 Y111.181 E28.32108 ; infill
G1 X92.749 Y111.181 E28.33030 ; infill
G1 X92.749 Y88.819 E28.73425 ; infill
G1 X92.238 Y88.819 E28.74347 ; infill
G1 X92.238 Y111.181 E29.14742 ; infill
G1 X91.728 Y111.181 E29.15664 ; infill
G1 X91.728 Y88.819 E29.56059 ; infill
G1 X91.217 Y88.819 E29.56981 ; infill
G1 X91.217 Y111.181 E29.97376 ; infill
G1 X90.706 Y111.181 E29.98298 ; infill
G1 X90.706 Y88.819 E30.38693 ; infill
G1 X90.195 Y88.819 E30.39615 ; infill
G1 X90.195 Y111.181 E30.80010 ; infill
G1 X90.195 Y88.970 E31.20132 ; infill
G1 E30.70132 F420.00000 ; retract extruder 0
G92 E0 ; reset extrusion distance
G1 Z0.500 F6000.000 ; move to next layer (1)
G1 X120.832 Y111.913 F6000.000 ; move to first perimeter point
G1 E0.50000 F420.00000 ; unretract extruder 0
G1 F4200
G1 X89.378 Y111.913 E1.05920 ; perimeter
G1 X89.378 Y88.087 E1.48278 ; perimeter
G1 X120.832 Y88.087 E2.04198 ; perimeter
G1 X120.832 Y111.853 E2.46449 ; perimeter
G1 X121.335 Y112.416 F6000.000 ; move to first perimeter point
G1 F4200
G1 X89.082 Y112.416 E3.03788 ; perimeter
G1 X88.894 Y112.368 E3.04133 ; perimeter
G1 X88.875 Y112.247 E3.04349 ; perimeter
G1 X88.875 Y87.753 E3.47896 ; perimeter
G1 X88.893 Y87.638 E3.48101 ; perimeter
G1 X89.089 Y87.584 E3.48463 ; perimeter
G1 X121.335 Y87.584 E4.05789 ; perimeter
G1 X121.335 Y112.356 E4.49827 ; perimeter
G1 X121.780 Y112.860 F6000.000 ; move to first perimeter point
G1 F2100
G1 X89.026 Y112.860 E4.94583 ; perimeter
G1 X88.759 Y112.792 E4.94959 ; perimeter
G1 X88.655 Y112.722 E4.95130 ; perimeter
G1 X88.531 Y112.602 E4.95367 ; perimeter
G1 X88.458 Y112.455 E4.95591 ; perimeter
G1 X88.430 Y112.283 E4.95830 ; perimeter
G1 X88.430 Y87.717 E5.29396 ; perimeter
G1 X88.458 Y87.545 E5.29635 ; perimeter
G1 X88.536 Y87.387 E5.29875 ; perimeter
G1 X88.725 Y87.224 E5.30217 ; perimeter
G1 X89.029 Y87.140 E5.30648 ; perimeter
G1 X121.780 Y87.140 E5.75399 ; perimeter
G1 X121.780 Y112.800 E6.10463 ; perimeter
G1 X121.389 Y112.772 F6000.000 ; move inwards before travel
G1 E5.60463 F420.00000 ; retract extruder 0
G92 E0 ; reset extrusion distance
G1 X120.405 Y88.590 F6000.000 ; move to first infill point
G1 E0.50000 F420.00000 ; unretract extruder 0
G1 F5400
G1 X89.805 Y88.590 E1.04885 ; infill
G1 X89.805 Y89.097 E1.05795 ; infill
G1 X120.405 Y89.097 E1.60680 ; infill
G1 X120.405 Y89.604 E1.61590 ; infill
G1 X89.805 Y89.604 E2.16475 ; infill
G1 X89.805 Y90.111 E2.17385 ; infill
G1 X120.405 Y90.111 E2.72270 ; infill
G1 X120.405 Y90.618 E2.73179 ; infill
G1 X89.805 Y90.618 E3.28065 ; infill
G1 X89.805 Y91.125 E3.28974 ; infill
G1 X120.405 Y91.125 E3.83859 ; infill
G1 X120.405 Y91.632 E3.84769 ; infill
G1 X89.805 Y91.632 E4.39654 ; infill
G1 X89.805 Y92.139 E4.40564 ; infill
G1 X120.405 Y92.139 E4.95449 ; infill
G1 X120.405 Y92.647 E4.96359 ; infill
G1 X89.805 Y92.647 E5.51244 ; infill
G1 X89.805 Y93.154 E5.52154 ; infill
G1 X120.405 Y93.154 E6.07039 ; infill
G1 X120.405 Y93.661 E6.07948 ; infill
G1 X89.805 Y93.661 E6.62834 ; infill
G1 X89.805 Y94.168 E6.63743 ; infill
G1 X120.405 Y94.168 E7.18628 ; infill
G1 X120.405 Y94.675 E7.19538 ; infill
G1 X89.805 Y94.675 E7.74423 ; infill
G1 X89.805 Y95.182 E7.75333 ; infill
G1 X120.405 Y95.182 E8.30218 ; infill
G1 X120.405 Y95.689 E8.31128 ; infill
G1 X89.805 Y95.689 E8.86013 ; infill
G1 X89.805 Y96.197 E8.86923 ; infill
G1 X120.405 Y96.197 E9.41808 ; infill
G1 X120.405 Y96.704 E9.42717 ; infill
G1 X89.805 Y96.704 E9.97603 ; infill
G1 X89.805 Y97.211 E9.98512 ; infill
G1 X120.405 Y97.211 E10.53398 ; infill
G1 X120.405 Y97.718 E10.54307 ; infill
G1 X89.805 Y97.718 E11.09192 ; infill
G1 X89.805 Y98.225 E11.10102 ; infill
G1 X120.405 Y98.225 E11.64987 ; infill
G1 X120.405 Y98.732 E11.65897 ; infill
G1 X89.805 Y98.732 E12.20782 ; infill
G1 X89.805 Y99.239 E12.21692 ; infill
G1 X120.405 Y99.239 E12.76577 ; infill
G1 X120.405 Y99.746 E12.77486 ; infill
G1 X89.805 Y99.746 E13.32372 ; infill
G1 X89.805 Y100.254 E13.33281 ; infill
G1 X120.405 Y100.254 E13.88167 ; infill
G1 X120.405 Y100.761 E13.89076 ; infill
G1 X89.805 Y100.761 E14.43961 ; infill
G1 X89.805 Y101.268 E14.44871 ; infill
G1 X120.405 Y101.268 E14.99756 ; infill
G1 X120.405 Y101.775 E15.00666 ; infill
G1 X89.805 Y101.775 E15.55551 ; infill
G1 X89.805 Y102.282 E15.56461 ; infill
G1 X120.405 Y102.282 E16.11346 ; infill
G1 X120.405 Y102.789 E16.12256 ; infill
G1 X89.805 Y102.789 E16.67141 ; infill
G1 X89.805 Y103.296 E16.68050 ; infill
G1 X120.405 Y103.296 E17.22936 ; infill
G1 X120.405 Y103.803 E17.23845 ; infill
G1 X89.805 Y103.803 E17.78730 ; infill
G1 X89.805 Y104.311 E17.79640 ; infill
G1 X120.405 Y104.311 E18.34525 ; infill
G1 X120.405 Y104.818 E18.35435 ; infill
G1 X89.805 Y104.818 E18.90320 ; infill
G1 X89.805 Y105.325 E18.91230 ; infill
G1 X120.405 Y105.325 E19.46115 ; infill
G1 X120.405 Y105.832 E19.47025 ; infill
G1 X89.805 Y105.832 E20.01910 ; infill
G1 X89.805 Y106.339 E20.02819 ; infill
G1 X120.405 Y106.339 E20.57705 ; infill
G1 X120.405 Y106.846 E20.58614 ; infill
G1 X89.805 Y106.846 E21.13499 ; infill
G1 X89.805 Y107.353 E21.14409 ; infill
G1 X120.405 Y107.353 E21.69294 ; infill
G1 X120.405 Y107.861 E21.70204 ; infill
G1 X89.805 Y107.861 E22.25089 ; infill
G1 X89.805 Y108.368 E22.25999 ; infill
G1 X120.405 Y108.368 E22.80884 ; infill
G1 X120.405 Y108.875 E22.81794 ; infill
G1 X89.805 Y108.875 E23.36679 ; infill
G1 X89.805 Y109.382 E23.37588 ; infill
G1 X120.405 Y109.382 E23.92474 ; infill
G1 X120.405 Y109.889 E23.93383 ; infill
G1 X89.805 Y109.889 E24.48269 ; infill
G1 X89.805 Y110.396 E24.49178 ; infill
G1 X120.405 Y110.396 E25.04063 ; infill
G1 X120.405 Y110.903 E25.04973 ; infill
G1 X89.805 Y110.903 E25.59858 ; infill
G1 X89.805 Y111.410 E25.60768 ; infill
G1 X120.405 Y111.411 E26.15653 ; infill
G1 X89.956 Y111.410 E26.70268 ; infill
G1 E26.20268 F420.00000 ; retract extruder 0
G92 E0 ; reset extrusion distance
G1 Z0.750 F6000.000 ; move to next layer (2)
G1 X120.832 Y112.054 F6000.000 ; move to first perimeter point
G1 E0.50000 F420.00000 ; unretract extruder 0
G1 F4200
G1 X89.128 Y112.054 E1.06364 ; perimeter
G1 X89.128 Y87.946 E1.49224 ; perimeter
G1 X120.832 Y87.946 E2.05589 ; perimeter
G1 X120.832 Y111.994 E2.48342 ; perimeter
G1 X121.335 Y112.557 F6000.000 ; move to first perimeter point
G1 F4200
G1 X89.047 Y112.557 E3.05743 ; perimeter
G1 X88.871 Y112.523 E3.06062 ; perimeter
G1 X88.715 Y112.425 E3.06389 ; perimeter
G1 X88.641 Y112.342 E3.06586 ; perimeter
G1 X88.625 Y112.244 E3.06763 ; perimeter
G1 X88.625 Y87.753 E3.50304 ; perimeter
G1 X88.656 Y87.641 E3.50510 ; perimeter
G1 X88.812 Y87.506 E3.50877 ; perimeter
G1 X88.927 Y87.460 E3.51096 ; perimeter
G1 X89.047 Y87.443 E3.51312 ; perimeter
G1 X121.335 Y87.443 E4.08713 ; perimeter
G1 X121.335 Y112.497 E4.53253 ; perimeter
G1 X121.780 Y113.002 F6000.000 ; move to first perimeter point
G1 F2100
G1 X89.015 Y113.002 E4.98023 ; perimeter
G1 X88.807 Y112.972 E4.98311 ; perimeter
G1 X88.706 Y112.936 E4.98457 ; perimeter
G1 X88.602 Y112.890 E4.98613 ; perimeter
G1 X88.417 Y112.758 E4.98923 ; perimeter
G1 X88.284 Y112.610 E4.99195 ; perimeter
G1 X88.211 Y112.461 E4.99423 ; perimeter
G1 X88.180 Y112.282 E4.99671 ; perimeter
G1 X88.180 Y87.717 E5.33236 ; perimeter
G1 X88.208 Y87.545 E5.33474 ; perimeter
G1 X88.284 Y87.390 E5.33711 ; perimeter
G1 X88.417 Y87.242 E5.33982 ; perimeter
G1 X88.599 Y87.113 E5.34287 ; perimeter
G1 X88.811 Y87.028 E5.34600 ; perimeter
G1 X89.015 Y86.998 E5.34881 ; perimeter
G1 X121.780 Y86.998 E5.79652 ; perimeter
G1 X121.780 Y112.942 E6.15101 ; perimeter
G1 X121.390 Y112.913 F6000.000 ; move inwards before travel
G1 X120.330 Y111.627 F6000.000 ; move to first infill point
G1 F5400
G1 X120.330 Y88.373 E6.56493 ; infill
G1 X119.826 Y88.373 E6.57389 ; infill
G1 X119.826 Y111.627 E6.98780 ; infill
G1 X119.323 Y111.627 E6.99676 ; infill
G1 X119.323 Y88.373 E7.41068 ; infill
G1 X118.820 Y88.373 E7.41963 ; infill
G1 X118.820 Y111.627 E7.83355 ; infill
G1 X118.317 Y111.627 E7.84251 ; infill
G1 X118.317 Y88.373 E8.25643 ; infill
G1 X117.813 Y88.373 E8.26538 ; infill
G1 X117.813 Y111.627 E8.67930 ; infill
G1 X117.310 Y111.627 E8.68826 ; infill
G1 X117.310 Y88.373 E9.10217 ; infill
G1 X116.807 Y88.373 E9.11113 ; infill
G1 X116.807 Y111.627 E9.52505 ; infill
G1 X116.304 Y111.627 E9.53401 ; infill
G1 X116.304 Y88.373 E9.94792 ; infill
G1 X115.800 Y88.373 E9.95688 ; infill
G1 X115.800 Y111.627 E10.37080 ; infill
G1 X115.297 Y111.627 E10.37976 ; infill
G1 X115.297 Y88.373 E10.79367 ; infill
G1 X114.794 Y88.373 E10.80263 ; infill
G1 X114.794 Y111.627 E11.21655 ; infill
G1 X114.290 Y111.627 E11.22550 ; infill
G1 X114.290 Y88.373 E11.63942 ; infill
G1 X113.787 Y88.373 E11.64838 ; infill
G1 X113.787 Y111.627 E12.06229 ; infill
G1 X113.284 Y111.627 E12.07125 ; infill
G1 X113.284 Y88.373 E12.48517 ; infill
G1 X112.781 Y88.373 E12.49413 ; infill
G1 X112.781 Y111.627 E12.90804 ; infill
