; generated by Slic3r 1.3.0 on 2019-10-30 at 14:06:17

; external perimeters extrusion width = 0.44mm (3.38mm^3/s)
; perimeters extrusion width = 0.56mm (8.80mm^3/s)
; infill extrusion width = 0.50mm (10.04mm^3/s)
; solid infill extrusion width = 0.56mm (11.31mm^3/s)
; top infill extrusion width = 0.56mm (6.28mm^3/s)

G28 ; home all axes
; Filament gcode

G21 ; set units to millimeters
G90 ; use absolute coordinates
M82 ; use absolute distances for extrusion
G92 E0 ; reset extrusion distance
G1 E-0.50000 F420.00000 ; retract extruder 0
G92 E0 ; reset extrusion distance
G1 Z0.250 F6000.000 ; move to next layer (0)
G1 X100.723 Y69.447 F6000.000 ; move to first skirt point
G1 E0.50000 F420.00000 ; unretract extruder 0
G1 F1800
G1 X101.255 Y68.883 E0.51377 ; skirt
G1 X101.722 Y68.444 E0.52517 ; skirt
G1 X102.985 Y67.515 E0.55304 ; skirt
G1 X103.543 Y67.201 E0.56443 ; skirt
G1 X104.991 Y66.601 E0.59230 ; skirt
G1 X105.609 Y66.429 E0.60370 ; skirt
G1 X107.159 Y66.193 E0.63157 ; skirt
G1 X107.799 Y66.174 E0.64296 ; skirt
G1 X109.361 Y66.316 E0.67083 ; skirt
G1 X109.987 Y66.451 E0.68223 ; skirt
G1 X111.469 Y66.963 E0.71010 ; skirt
G1 X112.045 Y67.243 E0.72149 ; skirt
G1 X113.362 Y68.095 E0.74936 ; skirt
G1 X113.585 Y68.281 E0.75454 ; skirt
G1 X113.854 Y68.505 E0.76076 ; skirt
G1 X114.928 Y69.647 E0.78862 ; skirt
G1 X115.308 Y70.163 E0.80002 ; skirt
G1 X116.078 Y71.529 E0.82789 ; skirt
G1 X116.323 Y72.121 E0.83928 ; skirt
G1 X116.576 Y72.852 E0.85303 ; skirt
G1 X120.842 Y88.104 E1.13459 ; skirt
G1 X121.078 Y89.839 E1.16572 ; skirt
G1 X121.062 Y123.667 E1.76710 ; skirt
G1 X120.663 Y125.904 E1.80750 ; skirt
G1 X119.852 Y127.439 E1.83835 ; skirt
G1 X118.193 Y129.764 E1.88913 ; skirt
G1 X116.571 Y131.354 E1.92952 ; skirt
G1 X114.500 Y132.289 E1.96991 ; skirt
G1 X112.900 Y132.489 E1.99858 ; skirt
G1 X84.100 Y132.489 E2.51058 ; skirt
G1 X81.863 Y132.092 E2.55097 ; skirt
G1 X79.899 Y130.950 E2.59137 ; skirt
G1 X78.448 Y129.202 E2.63176 ; skirt
G1 X77.597 Y125.987 E2.69088 ; skirt
G1 X77.597 Y119.812 E2.80066 ; skirt
G1 X77.618 Y119.293 E2.80988 ; skirt
G1 X79.418 Y96.784 E3.21132 ; skirt
G1 X79.992 Y94.586 E3.25171 ; skirt
G1 X80.912 Y93.131 E3.28232 ; skirt
G1 X100.685 Y69.493 E3.83018 ; skirt
G1 E3.33018 F420.00000 ; retract extruder 0
G92 E0 ; reset extrusion distance
G1 X112.685 Y116.505 F6000.000 ; move to first perimeter point
G1 E0.50000 F420.00000 ; unretract extruder 0
G1 F1500
G1 X112.412 Y117.187 E0.51306 ; perimeter
G1 X112.048 Y117.714 E0.52446 ; perimeter
G1 X111.530 Y118.173 E0.53676 ; perimeter
G1 X110.917 Y118.495 E0.54906 ; perimeter
G1 X110.246 Y118.660 E0.56136 ; perimeter
G1 X109.554 Y118.660 E0.57365 ; perimeter
G1 X108.883 Y118.495 E0.58595 ; perimeter
G1 X108.270 Y118.173 E0.59825 ; perimeter
G1 X107.752 Y117.714 E0.61055 ; perimeter
G1 X107.359 Y117.145 E0.62284 ; perimeter
G1 X107.114 Y116.498 E0.63514 ; perimeter
G1 X107.031 Y115.812 E0.64744 ; perimeter
G1 X107.114 Y115.125 E0.65974 ; perimeter
G1 X107.359 Y114.478 E0.67203 ; perimeter
G1 X107.756 Y113.904 E0.68444 ; perimeter
G1 X108.315 Y113.427 E0.69750 ; perimeter
G1 X108.883 Y113.129 E0.70890 ; perimeter
G1 X109.560 Y112.962 E0.72131 ; perimeter
G1 X110.295 Y112.975 E0.73438 ; perimeter
G1 X110.917 Y113.129 E0.74578 ; perimeter
G1 X111.530 Y113.450 E0.75807 ; perimeter
G1 X112.048 Y113.909 E0.77037 ; perimeter
G1 X112.441 Y114.478 E0.78267 ; perimeter
G1 X112.686 Y115.125 E0.79497 ; perimeter
G1 X112.769 Y115.812 E0.80726 ; perimeter
G1 X112.692 Y116.445 E0.81861 ; perimeter
G1 X112.251 Y116.393 F6000.000 ; move to first perimeter point
G1 F1500
G1 X112.018 Y116.975 E0.82717 ; perimeter
G1 X111.713 Y117.418 E0.83452 ; perimeter
G1 X111.276 Y117.805 E0.84249 ; perimeter
G1 X110.759 Y118.076 E0.85047 ; perimeter
G1 X110.192 Y118.216 E0.85845 ; perimeter
G1 X109.608 Y118.216 E0.86642 ; perimeter
G1 X109.041 Y118.076 E0.87440 ; perimeter
G1 X108.524 Y117.805 E0.88238 ; perimeter
G1 X108.087 Y117.418 E0.89035 ; perimeter
G1 X107.756 Y116.937 E0.89833 ; perimeter
G1 X107.549 Y116.391 E0.90631 ; perimeter
G1 X107.478 Y115.812 E0.91429 ; perimeter
G1 X107.549 Y115.232 E0.92226 ; perimeter
G1 X107.756 Y114.686 E0.93024 ; perimeter
G1 X108.089 Y114.204 E0.93824 ; perimeter
G1 X108.565 Y113.797 E0.94681 ; perimeter
G1 X109.041 Y113.547 E0.95415 ; perimeter
G1 X109.610 Y113.407 E0.96216 ; perimeter
G1 X110.237 Y113.419 E0.97072 ; perimeter
G1 X110.759 Y113.547 E0.97807 ; perimeter
G1 X111.276 Y113.819 E0.98605 ; perimeter
G1 X111.713 Y114.206 E0.99402 ; perimeter
G1 X112.044 Y114.686 E1.00200 ; perimeter
G1 X112.251 Y115.232 E1.00998 ; perimeter
G1 X112.322 Y115.812 E1.01796 ; perimeter
G1 X112.258 Y116.334 E1.02514 ; perimeter
G1 X112.251 Y116.393 F6000.000 ; move inwards before travel
G1 E0.52514 F420.00000 ; retract extruder 0
G92 E0 ; reset extrusion distance
G1 X110.246 Y106.660 F6000.000 ; move to first perimeter point
G1 E0.50000 F420.00000 ; unretract extruder 0
G1 F1500
G1 X109.554 Y106.660 E0.51230 ; perimeter
G1 X108.883 Y106.495 E0.52459 ; perimeter
G1 X108.270 Y106.173 E0.53689 ; perimeter
G1 X107.752 Y105.714 E0.54919 ; perimeter
G1 X107.359 Y105.145 E0.56149 ; perimeter
G1 X107.114 Y104.498 E0.57378 ; perimeter
G1 X107.030 Y103.806 E0.58619 ; perimeter
G1 X107.132 Y103.078 E0.59926 ; perimeter
G1 X107.359 Y102.478 E0.61066 ; perimeter
G1 X107.752 Y101.909 E0.62295 ; perimeter
G1 X108.270 Y101.450 E0.63525 ; perimeter
G1 X108.883 Y101.129 E0.64755 ; perimeter
G1 X109.560 Y100.962 E0.65996 ; perimeter
G1 X110.295 Y100.975 E0.67302 ; perimeter
G1 X110.917 Y101.129 E0.68442 ; perimeter
G1 X111.530 Y101.450 E0.69672 ; perimeter
G1 X112.048 Y101.909 E0.70902 ; perimeter
G1 X112.444 Y102.483 E0.72142 ; perimeter
G1 X112.692 Y103.175 E0.73449 ; perimeter
G1 X112.769 Y103.812 E0.74589 ; perimeter
G1 X112.686 Y104.498 E0.75818 ; perimeter
G1 X112.441 Y105.145 E0.77048 ; perimeter
G1 X112.048 Y105.714 E0.78278 ; perimeter
G1 X111.530 Y106.173 E0.79508 ; perimeter
G1 X110.917 Y106.495 E0.80737 ; perimeter
G1 X110.304 Y106.646 E0.81861 ; perimeter
G1 X110.192 Y106.216 F6000.000 ; move to first perimeter point
G1 F1500
G1 X109.608 Y106.216 E0.82658 ; perimeter
G1 X109.041 Y106.076 E0.83456 ; perimeter
G1 X108.524 Y105.805 E0.84254 ; perimeter
G1 X108.087 Y105.418 E0.85051 ; perimeter
G1 X107.756 Y104.937 E0.85849 ; perimeter
G1 X107.549 Y104.391 E0.86647 ; perimeter
G1 X107.478 Y103.810 E0.87447 ; perimeter
G1 X107.565 Y103.189 E0.88304 ; perimeter
G1 X107.756 Y102.686 E0.89038 ; perimeter
G1 X108.087 Y102.206 E0.89836 ; perimeter
G1 X108.524 Y101.819 E0.90634 ; perimeter
G1 X109.041 Y101.547 E0.91431 ; perimeter
G1 X109.610 Y101.407 E0.92232 ; perimeter
G1 X110.237 Y101.419 E0.93088 ; perimeter
G1 X110.759 Y101.547 E0.93823 ; perimeter
G1 X111.276 Y101.819 E0.94621 ; perimeter
G1 X111.713 Y102.206 E0.95418 ; perimeter
G1 X112.045 Y102.688 E0.96219 ; perimeter
G1 X112.257 Y103.278 E0.97075 ; perimeter
G1 X112.322 Y103.812 E0.97810 ; perimeter
G1 X112.251 Y104.391 E0.98608 ; perimeter
G1 X112.044 Y104.937 E0.99405 ; perimeter
G1 X111.713 Y105.418 E1.00203 ; perimeter
G1 X111.276 Y105.805 E1.01001 ; perimeter
G1 X110.759 Y106.076 E1.01798 ; perimeter
G1 X110.250 Y106.201 E1.02514 ; perimeter
G1 X110.192 Y106.216 F6000.000 ; move inwards before travel
G1 E0.52514 F420.00000 ; retract extruder 0
G92 E0 ; reset extrusion distance
G1 X111.733 Y122.495 F6000.000 ; move to first perimeter point
G1 E0.50000 F420.00000 ; unretract extruder 0
G1 F2100
G1 X111.733 Y124.820 E0.54133 ; perimeter
G1 X85.267 Y124.820 E1.01183 ; perimeter
G1 X85.267 Y120.979 E1.08011 ; perimeter
G1 X85.951 Y120.979 E1.09227 ; perimeter
G1 X87.840 Y120.814 E1.12598 ; perimeter
G1 X89.721 Y120.310 E1.16060 ; perimeter
G1 X91.486 Y119.487 E1.19522 ; perimeter
G1 X93.081 Y118.370 E1.22984 ; perimeter
G1 X94.458 Y116.993 E1.26446 ; perimeter
G1 X95.575 Y115.397 E1.29908 ; perimeter
G1 X96.398 Y113.633 E1.33370 ; perimeter
G1 X96.902 Y111.752 E1.36832 ; perimeter
G1 X97.072 Y109.812 E1.40294 ; perimeter
G1 X96.902 Y107.872 E1.43755 ; perimeter
G1 X96.398 Y105.991 E1.47217 ; perimeter
G1 X95.575 Y104.226 E1.50679 ; perimeter
G1 X94.458 Y102.631 E1.54141 ; perimeter
G1 X93.081 Y101.254 E1.57603 ; perimeter
G1 X91.486 Y100.137 E1.61065 ; perimeter
G1 X89.721 Y99.314 E1.64527 ; perimeter
G1 X87.840 Y98.810 E1.67989 ; perimeter
G1 X87.251 Y98.758 E1.69039 ; perimeter
G1 X87.264 Y98.470 E1.69552 ; perimeter
G1 X97.879 Y98.470 E1.88423 ; perimeter
G1 X99.707 Y98.316 E1.91685 ; perimeter
G1 X101.532 Y97.848 E1.95035 ; perimeter
G1 X103.222 Y97.096 E1.98324 ; perimeter
G1 X103.758 Y96.784 E1.99425 ; perimeter
G1 X104.810 Y96.046 E2.01710 ; perimeter
G1 X105.404 Y95.542 E2.03094 ; perimeter
G1 X106.192 Y94.752 E2.05079 ; perimeter
G1 X106.796 Y94.022 E2.06763 ; perimeter
G1 X107.337 Y93.244 E2.08448 ; perimeter
G1 X107.888 Y92.272 E2.10433 ; perimeter
G1 X108.213 Y91.565 E2.11817 ; perimeter
G1 X108.642 Y90.354 E2.14102 ; perimeter
G1 X108.796 Y89.764 E2.15186 ; perimeter
G1 X108.964 Y88.747 E2.17018 ; perimeter
G1 X109.160 Y88.551 E2.17511 ; perimeter
G1 X109.168 Y86.813 E2.20600 ; perimeter
G1 X108.689 Y84.240 E2.25253 ; perimeter
G1 X106.335 Y75.790 E2.40847 ; perimeter
G1 X106.271 Y75.366 E2.41609 ; perimeter
G1 X106.303 Y75.010 E2.42244 ; perimeter
G1 X106.420 Y74.672 E2.42880 ; perimeter
G1 X106.614 Y74.372 E2.43516 ; perimeter
G1 X106.874 Y74.127 E2.44151 ; perimeter
G1 X107.186 Y73.951 E2.44787 ; perimeter
G1 X107.530 Y73.855 E2.45423 ; perimeter
G1 X107.888 Y73.845 E2.46059 ; perimeter
G1 X108.034 Y73.876 E2.46324 ; perimeter
G1 X108.237 Y73.920 E2.46694 ; perimeter
G1 X108.559 Y74.076 E2.47330 ; perimeter
G1 X108.834 Y74.305 E2.47966 ; perimeter
G1 X109.045 Y74.593 E2.48601 ; perimeter
G1 X109.210 Y74.990 E2.49364 ; perimeter
G1 X113.409 Y90.003 E2.77078 ; perimeter
G1 X113.402 Y102.926 E3.00052 ; perimeter
G1 X113.152 Y102.969 E3.00503 ; perimeter
G1 X112.895 Y102.252 E3.01857 ; perimeter
G1 X112.427 Y101.573 E3.03323 ; perimeter
G1 X111.818 Y101.034 E3.04770 ; perimeter
G1 X111.097 Y100.655 E3.06217 ; perimeter
G1 X110.360 Y100.474 E3.07565 ; perimeter
G1 X109.504 Y100.458 E3.09089 ; perimeter
G1 X108.703 Y100.655 E3.10555 ; perimeter
G1 X107.982 Y101.034 E3.12002 ; perimeter
G1 X107.373 Y101.573 E3.13448 ; perimeter
G1 X106.911 Y102.243 E3.14895 ; perimeter
G1 X106.642 Y102.952 E3.16244 ; perimeter
G1 X106.523 Y103.801 E3.17767 ; perimeter
G1 X106.622 Y104.620 E3.19233 ; perimeter
G1 X106.911 Y105.380 E3.20680 ; perimeter
G1 X107.373 Y106.050 E3.22127 ; perimeter
G1 X107.982 Y106.590 E3.23574 ; perimeter
G1 X108.703 Y106.968 E3.25020 ; perimeter
G1 X109.493 Y107.163 E3.26467 ; perimeter
G1 X110.307 Y107.163 E3.27914 ; perimeter
G1 X111.097 Y106.968 E3.29361 ; perimeter
G1 X111.818 Y106.590 E3.30807 ; perimeter
G1 X112.427 Y106.050 E3.32254 ; perimeter
G1 X112.889 Y105.380 E3.33701 ; perimeter
G1 X113.154 Y104.682 E3.35029 ; perimeter
G1 X113.401 Y104.727 E3.35476 ; perimeter
G1 X113.396 Y114.883 E3.53530 ; perimeter
G1 X113.149 Y114.928 E3.53977 ; perimeter
G1 X112.889 Y114.243 E3.55280 ; perimeter
G1 X112.427 Y113.573 E3.56727 ; perimeter
G1 X111.818 Y113.034 E3.58174 ; perimeter
G1 X111.097 Y112.655 E3.59620 ; perimeter
G1 X110.360 Y112.474 E3.60969 ; perimeter
G1 X109.504 Y112.458 E3.62492 ; perimeter
G1 X108.703 Y112.655 E3.63959 ; perimeter
G1 X108.031 Y113.008 E3.65307 ; perimeter
G1 X107.379 Y113.564 E3.66831 ; perimeter
G1 X106.911 Y114.243 E3.68297 ; perimeter
G1 X106.622 Y115.004 E3.69744 ; perimeter
G1 X106.524 Y115.812 E3.71190 ; perimeter
G1 X106.622 Y116.620 E3.72637 ; perimeter
G1 X106.911 Y117.380 E3.74084 ; perimeter
G1 X107.373 Y118.050 E3.75531 ; perimeter
G1 X107.982 Y118.590 E3.76977 ; perimeter
G1 X108.703 Y118.968 E3.78424 ; perimeter
G1 X109.493 Y119.163 E3.79871 ; perimeter
G1 X110.307 Y119.163 E3.81318 ; perimeter
G1 X111.097 Y118.968 E3.82764 ; perimeter
G1 X111.818 Y118.590 E3.84211 ; perimeter
G1 X112.427 Y118.050 E3.85658 ; perimeter
G1 X112.858 Y117.426 E3.87007 ; perimeter
G1 X113.151 Y116.694 E3.88407 ; perimeter
G1 X113.395 Y116.742 E3.88850 ; perimeter
G1 X113.392 Y122.495 E3.99078 ; perimeter
G1 X111.793 Y122.495 E4.01921 ; perimeter
G1 X112.235 Y122.997 F6000.000 ; move to first perimeter point
G1 F2100
G1 X112.235 Y125.322 E4.06055 ; perimeter
G1 X84.765 Y125.322 E4.54892 ; perimeter
G1 X84.765 Y120.476 E4.63507 ; perimeter
G1 X85.929 Y120.476 E4.65577 ; perimeter
G1 X87.752 Y120.317 E4.68831 ; perimeter
G1 X89.548 Y119.835 E4.72137 ; perimeter
G1 X91.234 Y119.050 E4.75442 ; perimeter
G1 X92.757 Y117.983 E4.78748 ; perimeter
G1 X94.071 Y116.668 E4.82054 ; perimeter
G1 X95.138 Y115.145 E4.85359 ; perimeter
G1 X95.924 Y113.460 E4.88665 ; perimeter
G1 X96.405 Y111.664 E4.91970 ; perimeter
G1 X96.567 Y109.812 E4.95276 ; perimeter
G1 X96.405 Y107.959 E4.98581 ; perimeter
G1 X95.924 Y106.163 E5.01887 ; perimeter
G1 X95.138 Y104.478 E5.05193 ; perimeter
G1 X94.071 Y102.955 E5.08498 ; perimeter
G1 X92.757 Y101.640 E5.11804 ; perimeter
G1 X91.234 Y100.574 E5.15109 ; perimeter
G1 X89.548 Y99.788 E5.18415 ; perimeter
G1 X87.752 Y99.307 E5.21720 ; perimeter
G1 X86.564 Y99.203 E5.23840 ; perimeter
G1 X86.564 Y97.967 E5.26037 ; perimeter
G1 X97.858 Y97.967 E5.46114 ; perimeter
G1 X99.623 Y97.819 E5.49263 ; perimeter
G1 X101.367 Y97.372 E5.52463 ; perimeter
G1 X102.993 Y96.648 E5.55628 ; perimeter
G1 X103.486 Y96.360 E5.56643 ; perimeter
G1 X104.503 Y95.648 E5.58849 ; perimeter
G1 X105.063 Y95.173 E5.60155 ; perimeter
G1 X105.819 Y94.413 E5.62061 ; perimeter
G1 X106.395 Y93.717 E5.63667 ; perimeter
G1 X106.911 Y92.976 E5.65273 ; perimeter
G1 X107.440 Y92.043 E5.67179 ; perimeter
G1 X107.747 Y91.376 E5.68485 ; perimeter
G1 X108.161 Y90.206 E5.70691 ; perimeter
G1 X108.304 Y89.659 E5.71696 ; perimeter
G1 X108.494 Y88.506 E5.73774 ; perimeter
G1 X108.658 Y88.342 E5.74186 ; perimeter
G1 X108.665 Y86.858 E5.76823 ; perimeter
G1 X108.199 Y84.354 E5.81353 ; perimeter
G1 X105.843 Y75.896 E5.96961 ; perimeter
G1 X105.765 Y75.382 E5.97886 ; perimeter
G1 X105.808 Y74.904 E5.98739 ; perimeter
G1 X105.965 Y74.450 E5.99591 ; perimeter
G1 X106.225 Y74.048 E6.00444 ; perimeter
G1 X106.574 Y73.719 E6.01297 ; perimeter
G1 X106.992 Y73.484 E6.02149 ; perimeter
G1 X107.454 Y73.355 E6.03002 ; perimeter
G1 X107.934 Y73.340 E6.03855 ; perimeter
G1 X108.140 Y73.385 E6.04229 ; perimeter
G1 X108.403 Y73.441 E6.04707 ; perimeter
G1 X108.834 Y73.651 E6.05560 ; perimeter
G1 X109.202 Y73.958 E6.06413 ; perimeter
G1 X109.486 Y74.345 E6.07265 ; perimeter
G1 X109.686 Y74.826 E6.08191 ; perimeter
G1 X113.911 Y89.934 E6.36080 ; perimeter
G1 X113.895 Y122.997 E6.94860 ; perimeter
G1 X112.295 Y122.997 E6.97703 ; perimeter
G1 X112.680 Y123.442 F6000.000 ; move to first perimeter point
G1 F1050
G1 X112.680 Y125.767 E7.00880 ; perimeter
G1 X84.320 Y125.767 E7.39632 ; perimeter
G1 X84.320 Y120.032 E7.47468 ; perimeter
G1 X85.910 Y120.032 E7.49640 ; perimeter
G1 X87.675 Y119.877 E7.52062 ; perimeter
G1 X89.396 Y119.416 E7.54496 ; perimeter
G1 X91.010 Y118.663 E7.56931 ; perimeter
G1 X92.470 Y117.641 E7.59365 ; perimeter
G1 X93.730 Y116.382 E7.61800 ; perimeter
G1 X94.752 Y114.922 E7.64234 ; perimeter
G1 X95.504 Y113.307 E7.66668 ; perimeter
G1 X95.966 Y111.587 E7.69103 ; perimeter
G1 X96.121 Y109.812 E7.71537 ; perimeter
G1 X95.966 Y108.037 E7.73972 ; perimeter
G1 X95.504 Y106.316 E7.76406 ; perimeter
G1 X94.752 Y104.701 E7.78841 ; perimeter
G1 X93.730 Y103.242 E7.81275 ; perimeter
G1 X92.470 Y101.982 E7.83710 ; perimeter
G1 X91.010 Y100.960 E7.86144 ; perimeter
G1 X89.396 Y100.207 E7.88578 ; perimeter
G1 X87.675 Y99.746 E7.91013 ; perimeter
G1 X86.120 Y99.610 E7.93146 ; perimeter
G1 X86.120 Y97.523 E7.95998 ; perimeter
G1 X97.839 Y97.523 E8.12011 ; perimeter
G1 X99.549 Y97.379 E8.14356 ; perimeter
G1 X101.220 Y96.950 E8.16713 ; perimeter
G1 X102.790 Y96.251 E8.19062 ; perimeter
G1 X103.247 Y95.985 E8.19783 ; perimeter
G1 X104.231 Y95.296 E8.21426 ; perimeter
G1 X104.761 Y94.846 E8.22376 ; perimeter
G1 X105.490 Y94.114 E8.23787 ; perimeter
G1 X106.041 Y93.448 E8.24968 ; perimeter
