; generated by Slic3r 1.3.0 on 2019-10-30 at 12:48:14

; external perimeters extrusion width = 0.44mm (3.38mm^3/s)
; perimeters extrusion width = 0.56mm (8.80mm^3/s)
; infill extrusion width = 0.50mm (10.04mm^3/s)
; solid infill extrusion width = 0.56mm (11.31mm^3/s)
; top infill extrusion width = 0.56mm (6.28mm^3/s)

G28 ; home all axes
; Filament gcode

G21 ; set units to millimeters
G90 ; use absolute coordinates
M82 ; use absolute distances for extrusion
G92 E0 ; reset extrusion distance
G1 E-0.50000 F420.00000 ; retract extruder 0
G92 E0 ; reset extrusion distance
G1 Z0.250 F6000.000 ; move to next layer (0)
G1 X67.426 Y80.373 F6000.000 ; move to first skirt point
G1 E0.50000 F420.00000 ; unretract extruder 0
G1 F1800
G1 X70.267 Y79.533 E0.55266 ; skirt
G1 X103.964 Y77.593 E1.15271 ; skirt
G1 X129.362 Y77.582 E1.60423 ; skirt
G1 X131.599 Y77.979 E1.64463 ; skirt
G1 X133.563 Y79.121 E1.68502 ; skirt
G1 X135.014 Y80.870 E1.72541 ; skirt
G1 X135.865 Y84.064 E1.78418 ; skirt
G1 X135.882 Y89.638 E1.88326 ; skirt
G1 X135.873 Y92.779 E1.93912 ; skirt
G1 X135.651 Y94.442 E1.96894 ; skirt
G1 X131.489 Y109.880 E2.25319 ; skirt
G1 X131.030 Y111.280 E2.27939 ; skirt
G1 X130.725 Y112.030 E2.29378 ; skirt
G1 X130.256 Y113.001 E2.31295 ; skirt
G1 X129.860 Y113.707 E2.32734 ; skirt
G1 X129.274 Y114.612 E2.34651 ; skirt
G1 X128.793 Y115.263 E2.36090 ; skirt
G1 X128.099 Y116.089 E2.38007 ; skirt
G1 X127.541 Y116.675 E2.39446 ; skirt
G1 X126.750 Y117.408 E2.41363 ; skirt
G1 X126.124 Y117.920 E2.42802 ; skirt
G1 X125.248 Y118.549 E2.44718 ; skirt
G1 X124.811 Y118.837 E2.45648 ; skirt
G1 X124.189 Y119.198 E2.46927 ; skirt
G1 X123.128 Y119.734 E2.49040 ; skirt
G1 X122.417 Y120.034 E2.50413 ; skirt
G1 X121.346 Y120.413 E2.52432 ; skirt
G1 X120.552 Y120.635 E2.53898 ; skirt
G1 X119.492 Y120.863 E2.55824 ; skirt
G1 X118.699 Y120.982 E2.57251 ; skirt
G1 X117.981 Y121.053 E2.58534 ; skirt
G1 X116.958 Y121.095 E2.60354 ; skirt
G1 X115.941 Y121.069 E2.62161 ; skirt
G1 X81.911 Y119.132 E3.22759 ; skirt
G1 X81.248 Y119.061 E3.23943 ; skirt
G1 X80.245 Y118.899 E3.25749 ; skirt
G1 X79.606 Y118.763 E3.26912 ; skirt
G1 X78.904 Y118.577 E3.28202 ; skirt
G1 X78.230 Y118.357 E3.29462 ; skirt
G1 X77.148 Y117.939 E3.31526 ; skirt
G1 X76.550 Y117.673 E3.32688 ; skirt
G1 X76.032 Y117.410 E3.33721 ; skirt
G1 X75.419 Y117.055 E3.34981 ; skirt
G1 X74.326 Y116.341 E3.37302 ; skirt
G1 X73.387 Y115.596 E3.39432 ; skirt
G1 X72.026 Y114.294 E3.42781 ; skirt
G1 X71.115 Y113.211 E3.45297 ; skirt
G1 X70.068 Y111.645 E3.48646 ; skirt
G1 X69.413 Y110.390 E3.51162 ; skirt
G1 X68.729 Y108.635 E3.54511 ; skirt
G1 X68.508 Y107.961 E3.55771 ; skirt
G1 X64.361 Y92.536 E3.84167 ; skirt
G1 X64.138 Y90.848 E3.87195 ; skirt
G1 X64.138 Y86.025 E3.95770 ; skirt
G1 X64.535 Y83.788 E3.99809 ; skirt
G1 X65.678 Y81.824 E4.03848 ; skirt
G1 X67.380 Y80.411 E4.07780 ; skirt
G1 E3.57780 F420.00000 ; retract extruder 0
G92 E0 ; reset extrusion distance
G1 X93.485 Y89.763 F6000.000 ; move to first perimeter point
G1 E0.50000 F420.00000 ; unretract extruder 0
G1 F1500
G1 X93.171 Y89.928 E0.50485 ; perimeter
G1 X92.826 Y90.013 E0.50970 ; perimeter
G1 X92.472 Y90.013 E0.51454 ; perimeter
G1 X92.127 Y89.928 E0.51939 ; perimeter
G1 X91.813 Y89.763 E0.52424 ; perimeter
G1 X91.547 Y89.528 E0.52909 ; perimeter
G1 X91.346 Y89.236 E0.53393 ; perimeter
G1 X91.220 Y88.904 E0.53878 ; perimeter
G1 X91.177 Y88.551 E0.54364 ; perimeter
G1 X91.225 Y88.187 E0.54866 ; perimeter
G1 X91.346 Y87.868 E0.55332 ; perimeter
G1 X91.547 Y87.576 E0.55817 ; perimeter
G1 X91.813 Y87.341 E0.56301 ; perimeter
G1 X92.127 Y87.176 E0.56786 ; perimeter
G1 X92.472 Y87.091 E0.57271 ; perimeter
G1 X92.826 Y87.091 E0.57756 ; perimeter
G1 X93.172 Y87.176 E0.58242 ; perimeter
G1 X93.495 Y87.350 E0.58743 ; perimeter
G1 X93.750 Y87.576 E0.59210 ; perimeter
G1 X93.952 Y87.868 E0.59694 ; perimeter
G1 X94.078 Y88.200 E0.60179 ; perimeter
G1 X94.121 Y88.552 E0.60664 ; perimeter
G1 X94.078 Y88.904 E0.61149 ; perimeter
G1 X93.952 Y89.236 E0.61633 ; perimeter
G1 X93.750 Y89.528 E0.62118 ; perimeter
G1 X93.530 Y89.723 E0.62521 ; perimeter
G1 X93.485 Y89.763 F6000.000 ; move inwards before travel
G1 E0.12521 F420.00000 ; retract extruder 0
G92 E0 ; reset extrusion distance
G1 X75.121 Y88.546 F6000.000 ; move to first perimeter point
G1 E0.50000 F420.00000 ; unretract extruder 0
G1 F1500
G1 X75.078 Y88.898 E0.50485 ; perimeter
G1 X74.953 Y89.226 E0.50964 ; perimeter
G1 X74.784 Y89.493 E0.51395 ; perimeter
G1 X74.485 Y89.757 E0.51941 ; perimeter
G1 X74.171 Y89.922 E0.52426 ; perimeter
G1 X73.826 Y90.007 E0.52910 ; perimeter
G1 X73.472 Y90.007 E0.53395 ; perimeter
G1 X73.127 Y89.922 E0.53880 ; perimeter
G1 X72.813 Y89.757 E0.54365 ; perimeter
G1 X72.547 Y89.522 E0.54850 ; perimeter
G1 X72.345 Y89.229 E0.55336 ; perimeter
G1 X72.218 Y88.885 E0.55837 ; perimeter
G1 X72.177 Y88.546 E0.56303 ; perimeter
G1 X72.220 Y88.194 E0.56788 ; perimeter
G1 X72.346 Y87.862 E0.57273 ; perimeter
G1 X72.547 Y87.570 E0.57758 ; perimeter
G1 X72.813 Y87.335 E0.58242 ; perimeter
G1 X73.127 Y87.170 E0.58727 ; perimeter
G1 X73.472 Y87.085 E0.59212 ; perimeter
G1 X73.826 Y87.085 E0.59697 ; perimeter
G1 X74.171 Y87.170 E0.60181 ; perimeter
G1 X74.485 Y87.335 E0.60666 ; perimeter
G1 X74.751 Y87.571 E0.61152 ; perimeter
G1 X74.957 Y87.875 E0.61654 ; perimeter
G1 X75.078 Y88.194 E0.62120 ; perimeter
G1 X75.113 Y88.487 E0.62523 ; perimeter
G1 X75.121 Y88.546 F6000.000 ; move inwards before travel
G1 E0.12523 F420.00000 ; retract extruder 0
G92 E0 ; reset extrusion distance
G1 X81.207 Y100.139 F6000.000 ; move to first perimeter point
G1 E0.50000 F420.00000 ; unretract extruder 0
G1 F1500
G1 X81.598 Y99.934 E0.50784 ; perimeter
G1 X82.623 Y99.681 E0.52660 ; perimeter
G1 X83.677 Y99.681 E0.54536 ; perimeter
G1 X84.708 Y99.935 E0.56423 ; perimeter
G1 X85.670 Y100.454 E0.58365 ; perimeter
G1 X86.425 Y101.123 E0.60160 ; perimeter
G1 X87.025 Y101.992 E0.62035 ; perimeter
G1 X87.399 Y102.978 E0.63911 ; perimeter
G1 X87.526 Y104.025 E0.65786 ; perimeter
G1 X87.399 Y105.072 E0.67661 ; perimeter
G1 X87.025 Y106.059 E0.69537 ; perimeter
G1 X86.421 Y106.932 E0.71424 ; perimeter
G1 X85.596 Y107.647 E0.73366 ; perimeter
G1 X84.702 Y108.116 E0.75161 ; perimeter
G1 X83.671 Y108.371 E0.77048 ; perimeter
G1 X82.579 Y108.358 E0.78990 ; perimeter
G1 X81.598 Y108.116 E0.80785 ; perimeter
G1 X80.664 Y107.626 E0.82660 ; perimeter
G1 X79.875 Y106.927 E0.84535 ; perimeter
G1 X79.275 Y106.059 E0.86411 ; perimeter
G1 X78.903 Y105.075 E0.88280 ; perimeter
G1 X78.772 Y104.046 E0.90125 ; perimeter
G1 X78.901 Y102.978 E0.92038 ; perimeter
G1 X79.275 Y101.992 E0.93913 ; perimeter
G1 X79.875 Y101.123 E0.95788 ; perimeter
G1 X80.664 Y100.424 E0.97664 ; perimeter
G1 X81.154 Y100.167 E0.98647 ; perimeter
G1 X81.441 Y100.584 F6000.000 ; move to first perimeter point
G1 F1500
G1 X81.777 Y100.407 E0.99323 ; perimeter
G1 X82.684 Y100.184 E1.00982 ; perimeter
G1 X83.616 Y100.184 E1.02640 ; perimeter
G1 X84.526 Y100.408 E1.04306 ; perimeter
G1 X85.380 Y100.869 E1.06031 ; perimeter
G1 X86.046 Y101.459 E1.07613 ; perimeter
G1 X86.576 Y102.227 E1.09272 ; perimeter
G1 X86.907 Y103.099 E1.10930 ; perimeter
G1 X87.019 Y104.025 E1.12588 ; perimeter
G1 X86.907 Y104.951 E1.14247 ; perimeter
G1 X86.576 Y105.823 E1.15905 ; perimeter
G1 X86.044 Y106.594 E1.17570 ; perimeter
G1 X85.310 Y107.229 E1.19295 ; perimeter
G1 X84.522 Y107.643 E1.20878 ; perimeter
G1 X83.613 Y107.867 E1.22543 ; perimeter
G1 X82.642 Y107.856 E1.24268 ; perimeter
G1 X81.778 Y107.643 E1.25851 ; perimeter
G1 X80.952 Y107.210 E1.27510 ; perimeter
G1 X80.254 Y106.591 E1.29168 ; perimeter
G1 X79.724 Y105.823 E1.30826 ; perimeter
G1 X79.394 Y104.953 E1.32481 ; perimeter
G1 X79.278 Y104.045 E1.34109 ; perimeter
G1 X79.393 Y103.099 E1.35802 ; perimeter
G1 X79.724 Y102.227 E1.37460 ; perimeter
G1 X80.254 Y101.459 E1.39119 ; perimeter
G1 X80.952 Y100.841 E1.40777 ; perimeter
G1 X81.388 Y100.612 E1.41652 ; perimeter
G1 X81.648 Y100.977 F6000.000 ; move to first perimeter point
G1 F1500
G1 X81.936 Y100.826 E1.42098 ; perimeter
G1 X82.738 Y100.628 E1.43225 ; perimeter
G1 X83.562 Y100.628 E1.44353 ; perimeter
G1 X84.365 Y100.826 E1.45481 ; perimeter
G1 X85.124 Y101.236 E1.46660 ; perimeter
G1 X85.711 Y101.756 E1.47732 ; perimeter
G1 X86.180 Y102.435 E1.48860 ; perimeter
G1 X86.472 Y103.206 E1.49987 ; perimeter
G1 X86.572 Y104.025 E1.51114 ; perimeter
G1 X86.472 Y104.844 E1.52241 ; perimeter
G1 X86.180 Y105.615 E1.53368 ; perimeter
G1 X85.710 Y106.295 E1.54497 ; perimeter
G1 X85.058 Y106.860 E1.55675 ; perimeter
G1 X84.363 Y107.224 E1.56748 ; perimeter
G1 X83.561 Y107.422 E1.57877 ; perimeter
G1 X82.699 Y107.412 E1.59055 ; perimeter
G1 X81.937 Y107.224 E1.60128 ; perimeter
G1 X81.206 Y106.841 E1.61255 ; perimeter
G1 X80.589 Y106.294 E1.62382 ; perimeter
G1 X80.120 Y105.615 E1.63509 ; perimeter
G1 X79.828 Y104.845 E1.64635 ; perimeter
G1 X79.726 Y104.043 E1.65739 ; perimeter
G1 X79.828 Y103.206 E1.66891 ; perimeter
G1 X80.120 Y102.435 E1.68018 ; perimeter
G1 X80.589 Y101.756 E1.69145 ; perimeter
G1 X81.206 Y101.209 E1.70273 ; perimeter
G1 X81.594 Y101.005 E1.70872 ; perimeter
G1 X81.644 Y100.652 F6000.000 ; move inwards before travel
G1 E1.20872 F420.00000 ; retract extruder 0
G92 E0 ; reset extrusion distance
G1 X71.808 Y90.132 F6000.000 ; move to first perimeter point
G1 E0.50000 F420.00000 ; unretract extruder 0
G1 F2100
G1 X72.271 Y90.543 E0.51100 ; perimeter
G1 X72.789 Y90.814 E0.52139 ; perimeter
G1 X73.357 Y90.954 E0.53179 ; perimeter
G1 X73.941 Y90.954 E0.54219 ; perimeter
G1 X74.509 Y90.814 E0.55258 ; perimeter
G1 X75.027 Y90.543 E0.56298 ; perimeter
G1 X75.511 Y90.113 E0.57448 ; perimeter
G1 X75.805 Y89.653 E0.58419 ; perimeter
G1 X76.004 Y89.127 E0.59419 ; perimeter
G1 X76.075 Y88.546 E0.60459 ; perimeter
G1 X76.004 Y87.966 E0.61499 ; perimeter
G1 X75.803 Y87.436 E0.62506 ; perimeter
G1 X75.638 Y87.192 E0.63029 ; perimeter
G1 X90.661 Y87.192 E0.89737 ; perimeter
G1 X90.501 Y87.425 E0.90238 ; perimeter
G1 X90.300 Y87.954 E0.91246 ; perimeter
G1 X90.223 Y88.546 E0.92307 ; perimeter
G1 X90.294 Y89.132 E0.93357 ; perimeter
G1 X90.501 Y89.679 E0.94396 ; perimeter
G1 X90.833 Y90.160 E0.95436 ; perimeter
G1 X91.271 Y90.548 E0.96476 ; perimeter
G1 X91.789 Y90.820 E0.97515 ; perimeter
G1 X92.357 Y90.960 E0.98555 ; perimeter
G1 X92.941 Y90.960 E0.99594 ; perimeter
G1 X93.509 Y90.820 E1.00634 ; perimeter
G1 X94.027 Y90.548 E1.01674 ; perimeter
G1 X94.492 Y90.136 E1.02778 ; perimeter
G1 X94.492 Y90.694 E1.03770 ; perimeter
G1 X90.400 Y105.913 E1.31787 ; perimeter
G1 X89.845 Y107.374 E1.34566 ; perimeter
G1 X89.040 Y108.645 E1.37240 ; perimeter
G1 X87.998 Y109.729 E1.39914 ; perimeter
G1 X86.727 Y110.606 E1.42658 ; perimeter
G1 X86.332 Y110.806 E1.43446 ; perimeter
G1 X85.363 Y111.181 E1.45292 ; perimeter
G1 X84.780 Y111.336 E1.46365 ; perimeter
G1 X83.898 Y111.478 E1.47954 ; perimeter
G1 X83.150 Y111.515 E1.49284 ; perimeter
G1 X82.402 Y111.478 E1.50615 ; perimeter
G1 X81.520 Y111.336 E1.52203 ; perimeter
G1 X80.937 Y111.181 E1.53276 ; perimeter
G1 X79.968 Y110.806 E1.55122 ; perimeter
G1 X79.560 Y110.599 E1.55937 ; perimeter
G1 X78.610 Y109.979 E1.57953 ; perimeter
G1 X77.419 Y108.839 E1.60884 ; perimeter
G1 X76.513 Y107.486 E1.63779 ; perimeter
G1 X75.899 Y105.909 E1.66789 ; perimeter
G1 X71.808 Y90.694 E1.94798 ; perimeter
G1 X71.808 Y90.192 E1.95689 ; perimeter
G1 E1.45689 F420.00000 ; retract extruder 0
G92 E0 ; reset extrusion distance
G1 X71.305 Y86.690 F6000.000 ; move to first perimeter point
G1 E0.50000 F420.00000 ; unretract extruder 0
G1 F2100
G1 X72.593 Y86.690 E0.52289 ; perimeter
G1 X72.649 Y86.919 E0.52709 ; perimeter
G1 X72.559 Y86.967 E0.52891 ; perimeter
G1 X72.212 Y87.273 E0.53714 ; perimeter
G1 X71.949 Y87.654 E0.54536 ; perimeter
G1 X71.785 Y88.087 E0.55359 ; perimeter
G1 X71.730 Y88.546 E0.56181 ; perimeter
G1 X71.783 Y88.990 E0.56976 ; perimeter
G1 X71.948 Y89.436 E0.57820 ; perimeter
G1 X72.212 Y89.819 E0.58649 ; perimeter
G1 X72.559 Y90.126 E0.59471 ; perimeter
G1 X72.968 Y90.341 E0.60294 ; perimeter
G1 X73.418 Y90.452 E0.61116 ; perimeter
G1 X73.880 Y90.452 E0.61939 ; perimeter
G1 X74.330 Y90.341 E0.62761 ; perimeter
G1 X74.739 Y90.126 E0.63584 ; perimeter
G1 X75.125 Y89.784 E0.64501 ; perimeter
G1 X75.353 Y89.427 E0.65254 ; perimeter
G1 X75.513 Y89.006 E0.66054 ; perimeter
G1 X75.568 Y88.546 E0.66877 ; perimeter
G1 X75.513 Y88.087 E0.67700 ; perimeter
G1 X75.354 Y87.669 E0.68494 ; perimeter
G1 X75.088 Y87.276 E0.69339 ; perimeter
G1 X74.739 Y86.967 E0.70167 ; perimeter
G1 X74.649 Y86.919 E0.70349 ; perimeter
G1 X74.705 Y86.690 E0.70769 ; perimeter
G1 X91.604 Y86.690 E1.00811 ; perimeter
G1 X91.660 Y86.919 E1.01231 ; perimeter
G1 X91.559 Y86.972 E1.01435 ; perimeter
G1 X91.212 Y87.279 E1.02257 ; perimeter
G1 X90.949 Y87.660 E1.03080 ; perimeter
G1 X90.791 Y88.078 E1.03874 ; perimeter
G1 X90.729 Y88.549 E1.04719 ; perimeter
G1 X90.785 Y89.011 E1.05547 ; perimeter
G1 X90.949 Y89.444 E1.06370 ; perimeter
G1 X91.212 Y89.825 E1.07192 ; perimeter
G1 X91.559 Y90.131 E1.08015 ; perimeter
G1 X91.968 Y90.347 E1.08837 ; perimeter
G1 X92.418 Y90.457 E1.09660 ; perimeter
G1 X92.880 Y90.457 E1.10483 ; perimeter
G1 X93.330 Y90.347 E1.11305 ; perimeter
G1 X93.739 Y90.131 E1.12128 ; perimeter
G1 X94.086 Y89.825 E1.12950 ; perimeter
G1 X94.348 Y89.444 E1.13773 ; perimeter
G1 X94.513 Y89.011 E1.14596 ; perimeter
G1 X94.568 Y88.552 E1.15418 ; perimeter
G1 X94.513 Y88.093 E1.16241 ; perimeter
G1 X94.348 Y87.660 E1.17063 ; perimeter
G1 X94.086 Y87.279 E1.17886 ; perimeter
G1 X93.751 Y86.983 E1.18681 ; perimeter
G1 X93.630 Y86.918 E1.18925 ; perimeter
G1 X93.687 Y86.690 E1.19343 ; perimeter
G1 X94.994 Y86.690 E1.21667 ; perimeter
G1 X94.995 Y90.760 E1.28904 ; perimeter
G1 X90.879 Y106.068 E1.57084 ; perimeter
G1 X90.297 Y107.601 E1.59999 ; perimeter
G1 X89.438 Y108.957 E1.62853 ; perimeter
G1 X88.325 Y110.114 E1.65707 ; perimeter
G1 X86.985 Y111.039 E1.68601 ; perimeter
G1 X86.536 Y111.266 E1.69495 ; perimeter
G1 X85.519 Y111.660 E1.71435 ; perimeter
G1 X84.885 Y111.828 E1.72601 ; perimeter
G1 X83.950 Y111.978 E1.74284 ; perimeter
G1 X83.150 Y112.019 E1.75708 ; perimeter
G1 X82.350 Y111.978 E1.77133 ; perimeter
G1 X81.415 Y111.828 E1.78815 ; perimeter
G1 X80.781 Y111.660 E1.79981 ; perimeter
G1 X79.764 Y111.266 E1.81921 ; perimeter
G1 X79.308 Y111.035 E1.82830 ; perimeter
G1 X78.296 Y110.374 E1.84977 ; perimeter
G1 X77.032 Y109.165 E1.88088 ; perimeter
G1 X76.065 Y107.720 E1.91179 ; perimeter
G1 X75.420 Y106.066 E1.94335 ; perimeter
G1 X71.305 Y90.760 E2.22511 ; perimeter
G1 X71.305 Y86.750 E2.29641 ; perimeter
G1 X70.861 Y86.245 F6000.000 ; move to first perimeter point
G1 F1050
G1 X95.439 Y86.245 E2.63225 ; perimeter
G1 X95.439 Y90.819 E2.69475 ; perimeter
G1 X91.302 Y106.205 E2.91246 ; perimeter
G1 X90.696 Y107.800 E2.93578 ; perimeter
G1 X89.789 Y109.233 E2.95895 ; perimeter
G1 X88.614 Y110.455 E2.98211 ; perimeter
G1 X87.212 Y111.421 E3.00538 ; perimeter
G1 X86.718 Y111.673 E3.01296 ; perimeter
G1 X85.656 Y112.083 E3.02851 ; perimeter
G1 X84.977 Y112.264 E3.03811 ; perimeter
G1 X83.997 Y112.421 E3.05168 ; perimeter
G1 X83.150 Y112.464 E3.06326 ; perimeter
G1 X82.303 Y112.421 E3.07485 ; perimeter
G1 X81.323 Y112.264 E3.08842 ; perimeter
G1 X80.644 Y112.083 E3.09802 ; perimeter
G1 X79.582 Y111.673 E3.11357 ; perimeter
G1 X79.085 Y111.420 E3.12119 ; perimeter
G1 X78.019 Y110.724 E3.13859 ; perimeter
G1 X76.689 Y109.452 E3.16373 ; perimeter
G1 X75.668 Y107.926 E3.18882 ; perimeter
G1 X74.997 Y106.204 E3.21407 ; perimeter
G1 X70.861 Y90.819 E3.43177 ; perimeter
G1 X70.861 Y86.305 E3.49344 ; perimeter
G1 X71.220 Y86.421 F6000.000 ; move inwards before travel
G1 X71.784 Y86.941 F6000.000 ; move to first infill point
G1 F600
G1 X71.604 Y87.723 E3.49717 ; infill
G1 F600
G1 X71.584 Y87.832 E3.49736 ; infill
G1 X71.557 Y87.218 F6000.000 ; move to first infill point
G1 F600
G1 X72.169 Y86.941 E3.50107 ; infill
G1 X72.833 Y86.737 F6000.000 ; move to first infill point
G1 F600
G1 X73.115 Y86.702 E3.50535 ; infill
G1 F600
